/**
 * Copyright (C) 2026 Andrew S. Rightenburg
 * SPDX-License-Identifier: GPL-3.0-or-later
 */

#pragma once

#include <array>

/* XPM */

static constexpr std::array<const char*, 514> siren_xpm = {
"256 256 257 2",
"   c #000000",
".  c #01030A",
"X  c #0B0202",
"o  c #0C0B0B",
"O  c #06080E",
"+  c #190605",
"@  c #171617",
"#  c #080E1B",
"$  c #0C1A3B",
"%  c #161E31",
"&  c #1D2536",
"*  c #2A0B0A",
"=  c #240A09",
"-  c #25100F",
";  c #2D1514",
":  c #251110",
">  c #310E0C",
",  c #36100E",
"<  c #321817",
"1  c #321918",
"2  c #381E1D",
"3  c #381211",
"4  c #38201F",
"5  c #252526",
"6  c #232939",
"7  c #372524",
"8  c #362B2B",
"9  c #382221",
"0  c #362928",
"q  c #36302F",
"w  c #353333",
"e  c #3C3C3C",
"r  c #3A3433",
"t  c #0D1D40",
"y  c #182B54",
"u  c #1E315D",
"i  c #1F2A43",
"p  c #1E3261",
"a  c #1F3871",
"s  c #2D3546",
"d  c #2A3449",
"f  c #23345A",
"g  c #283759",
"h  c #2D3A56",
"j  c #2A3958",
"k  c #2B3750",
"l  c #313744",
"z  c #343943",
"x  c #3A3C41",
"c  c #31394D",
"v  c #333D54",
"b  c #313D5B",
"n  c #233765",
"m  c #213A75",
"M  c #3E434F",
"N  c #3A4151",
"B  c #3B4456",
"V  c #344465",
"C  c #461816",
"Z  c #461715",
"A  c #541E1B",
"S  c #581F1D",
"D  c #5C211E",
"F  c #433C3B",
"G  c #542321",
"H  c #592724",
"J  c #523D3C",
"K  c #632421",
"L  c #6B2D2A",
"P  c #672B28",
"I  c #6D3431",
"U  c #712A26",
"Y  c #762C29",
"T  c #7A2E2A",
"R  c #7E302C",
"E  c #72312D",
"W  c #793936",
"Q  c #7A3836",
"!  c #58403F",
"~  c #74403E",
"^  c #7B413E",
"/  c #444444",
"(  c #42454D",
")  c #46484C",
"_  c #4A494A",
"`  c #494545",
"'  c #414651",
"]  c #434853",
"[  c #4B4F58",
"{  c #4B505C",
"}  c #564B4B",
"|  c #535353",
" . c #5B5B5B",
".. c #595554",
"X. c #525F7A",
"o. c #535C6E",
"O. c #5B6270",
"+. c #6A4E4C",
"@. c #655858",
"#. c #7A4441",
"$. c #7C4C4A",
"%. c #7A4644",
"&. c #79514E",
"*. c #7C5351",
"=. c #785958",
"-. c #645F60",
";. c #636363",
":. c #68686A",
">. c #616670",
",. c #6B6E79",
"<. c #656A74",
"1. c #6B707A",
"2. c #796463",
"3. c #7A6867",
"4. c #7C6B6B",
"5. c #746564",
"6. c #7E706F",
"7. c #737373",
"8. c #7E7474",
"9. c #7F7877",
"0. c #7E7B7B",
"q. c #2E4D91",
"w. c #2F519C",
"e. c #304E91",
"r. c #34539A",
"t. c #29488C",
"y. c #3457A7",
"u. c #375DB3",
"i. c #3B61B6",
"p. c #3F69C9",
"a. c #3D66C4",
"s. c #4C6499",
"d. c #586686",
"f. c #4166BA",
"g. c #4668B5",
"h. c #486AB9",
"j. c #4669B9",
"k. c #546EA5",
"l. c #5973AD",
"z. c #5672B1",
"x. c #5975B4",
"c. c #5B77B8",
"v. c #5D79BA",
"b. c #606F8F",
"n. c #6A7180",
"m. c #66769C",
"M. c #67789D",
"N. c #667493",
"B. c #757A86",
"V. c #6D7EA5",
"C. c #617DBC",
"Z. c #406BCD",
"A. c #426ED2",
"S. c #4C73CC",
"D. c #4370D5",
"F. c #4973D2",
"G. c #4F78D1",
"H. c #5076CD",
"J. c #547ACD",
"K. c #5B7DCB",
"L. c #5E7DC0",
"P. c #5077D0",
"I. c #5078D0",
"U. c #617EC2",
"Y. c #7F807F",
"T. c #7F8080",
"R. c #7C8290",
"E. c #6C85BE",
"W. c #7585A9",
"Q. c #7B8AAC",
"!. c #7484A8",
"~. c #768CBE",
"^. c #7B8DB4",
"/. c #798EBD",
"(. c #7488B4",
"). c #7D90BB",
"_. c #7F90B5",
"`. c #5E80C9",
"'. c #548BFF",
"]. c #6583C6",
"[. c #6281C8",
"{. c #6A85C4",
"}. c #6E88C2",
"|. c #6885C9",
" X c #728AC0",
".X c #7493DB",
"XX c #83322E",
"oX c #863430",
"OX c #863935",
"+X c #853D39",
"@X c #85413D",
"#X c #844542",
"$X c #844845",
"%X c #834C4A",
"&X c #83504E",
"*X c #825452",
"=X c #825856",
"-X c #815C5A",
";X c #81605E",
":X c #806362",
">X c #806866",
",X c #806C6B",
"<X c #80706F",
"1X c #807271",
"2X c #807F80",
"3X c #80807F",
"4X c #838383",
"5X c #878788",
"6X c #888787",
"7X c #888887",
"8X c #8B8B8B",
"9X c #878887",
"0X c #888D97",
"qX c #8F908F",
"wX c #8F9090",
"eX c #908F8F",
"rX c #908F90",
"tX c #90908F",
"yX c #939393",
"uX c #979897",
"iX c #979898",
"pX c #989797",
"aX c #989798",
"sX c #989897",
"dX c #9B9B9B",
"fX c #979798",
"gX c #838CA0",
"hX c #8D96AD",
"jX c #8D98AD",
"kX c #8A92A3",
"lX c #8695B6",
"zX c #8394B8",
"xX c #8896B6",
"cX c #8C99B4",
"vX c #8897B8",
"bX c #949CAD",
"nX c #9F9FA0",
"mX c #989EAD",
"MX c #9298A7",
"NX c #929CB1",
"BX c #989FB0",
"VX c #9FA09F",
"CX c #9EA0A3",
"ZX c #9CA1AD",
"AX c #98A0B0",
"SX c #A09F9F",
"DX c #A09FA0",
"FX c #A0A09F",
"GX c #A3A3A3",
"HX c #A3A5AA",
"JX c #A7A8A7",
"KX c #A6A8A8",
"LX c #A8A7A7",
"PX c #A8A7A8",
"IX c #A8A8A7",
"UX c #A8A8A8",
"YX c None",
/* pixels */
"YXYXYXYXYXYXYXYXYXYXYXYXYXYXYXYXYXYXYXYXYXYXYXYXYXYXYXYXYXYXYXYXYXYXYXYXYX    y.A.A.A.D.D.D.D.D.D.D.D.D.D.D.D.D.D.D.D.D.D.D.D.D.D.D.D.D.D.D.D.D.D.D.D.D.D.D.A.D.D.D.D.D.D.D.D.D.A.D.D.D.D.D.D.D.D.D.D.D.A.D.D.D.A.D.D.A.D.D.D.D.D.D.D.D.D.D.D.D.D.D.D.D.D.D.D.D.D.D.D.A.D.D.D.D.D.A.D.D.D.A.D.D.A.A.A.u.m # . . .                                     YXYXYXYXYXYXYXYXYXYXYXYXYXYXYXYXYXYXYXYXYXYXYXYXYXYXYXYXYXYXYXYXYXYXYXYXYXYXYXYXYXYXYXYXYXYXYXYXYXYXYXYXYXYXYXYXYXYXYXYXYXYXYXYXYXYXYXYXYXYXYXYXYXYXYXYXYXYXYXYXYXYXYXYXYX",
"YXYXYXYXYXYXYXYXYXYXYXYXYXYXYXYXYXYXYXYXYXYXYXYXYXYXYXYXYXYXYXYXYXYXYXYXm Z.A.D.D.D.D.D.D.D.D.D.D.D.D.D.D.D.D.D.D.D.D.D.D.D.D.D.D.D.D.D.D.D.D.A.A.D.D.D.D.D.A.D.D.D.D.D.A.D.D.D.D.D.D.D.D.D.D.A.A.D.D.D.D.D.D.D.D.D.D.D.D.D.D.D.D.D.D.D.D.D.A.D.D.D.D.D.D.D.D.D.D.D.D.D.A.D.D.D.D.D.D.D.D.D.D.D.D.D.D.A.A.A.y.t                                         YXYXYXYXYXYXYXYXYXYXYXYXYXYXYXYXYXYXYXYXYXYXYXYXYXYXYXYXYXYXYXYXYXYXYXYXYXYXYXYXYXYXYXYXYXYXYXYXYXYXYXYXYXYXYXYXYXYXYXYXYXYXYXYXYXYXYXYXYXYXYXYXYXYXYXYXYXYXYXYXYXYXYXYX",
"YXYXYXYXYXYXYXYXYXYXYXYXYXYXYXYXYXYXYXYXYXYXYXYXYXYXYXYXYXYXYXYXYXYXw.A.D.D.D.D.D.D.D.D.D.D.D.D.D.D.D.D.D.D.D.D.D.D.D.D.D.D.D.D.D.D.D.D.D.D.D.D.D.D.D.D.D.D.D.A.D.D.D.D.D.D.D.D.D.D.D.D.D.D.D.D.D.D.D.D.D.D.D.D.D.D.D.D.D.D.D.D.D.D.D.D.D.D.D.D.D.D.D.D.D.D.D.D.D.D.D.D.D.D.D.D.D.D.D.D.A.D.D.D.D.D.D.D.D.D.A.A.u.$                                       YXYXYXYXYXYXYXYXYXYXYXYXYXYXYXYXYXYXYXYXYXYXYXYXYXYXYXYXYXYXYXYXYXYXYXYXYXYXYXYXYXYXYXYXYXYXYXYXYXYXYXYXYXYXYXYXYXYXYXYXYXYXYXYXYXYXYXYXYXYXYXYXYXYXYXYXYXYXYXYXYXYXYX",
"YXYXYXYXYXYXYXYXYXYXYXYXYXYXYXYXYXYXYXYXYXYXYXYXYXYXYXYXYXYXYXYXYXA.D.D.D.D.A.D.D.D.D.D.D.D.D.D.D.A.A.D.D.D.D.D.D.D.D.D.D.D.D.D.D.D.D.D.D.D.D.D.D.D.D.D.D.D.D.D.D.D.D.D.D.A.D.D.D.A.D.D.D.D.D.D.D.D.D.D.D.A.D.D.D.D.D.D.D.D.D.D.D.D.A.D.D.D.D.D.D.D.D.D.D.D.D.D.D.D.A.D.D.D.D.D.D.D.D.D.D.D.D.D.A.D.A.D.D.D.D.D.A.A.q.                                        YXYXYXYXYXYXYXYXYXYXYXYXYXYXYXYXYXYXYXYXYXYXYXYXYXYXYXYXYXYXYXYXYXYXYXYXYXYXYXYXYXYXYXYXYXYXYXYXYXYXYXYXYXYXYXYXYXYXYXYXYXYXYXYXYXYXYXYXYXYXYXYXYXYXYXYXYXYXYXYXYX",
"YXYXYXYXYXYXYXYXYXYXYXYXYXYXYXYXYXYXYXYXYXYXYXYXYXYXYXYXYXYXYXA.D.D.D.D.D.D.D.D.D.D.D.D.D.D.D.D.D.D.D.D.D.D.D.D.D.D.D.D.D.D.D.D.D.D.D.D.D.D.A.D.D.D.D.D.D.D.D.D.D.D.D.A.D.A.D.D.D.D.D.D.D.D.D.D.D.D.D.D.D.A.D.D.D.D.D.D.D.D.D.D.D.D.D.D.D.D.D.D.D.D.A.D.D.D.D.D.D.D.D.D.A.D.D.A.D.A.D.D.D.A.D.D.D.D.D.D.A.D.D.D.D.D.A.a.t                                       YXYXYXYXYXYXYXYXYXYXYXYXYXYXYXYXYXYXYXYXYXYXYXYXYXYXYXYXYXYXYXYXYXYXYXYXYXYXYXYXYXYXYXYXYXYXYXYXYXYXYXYXYXYXYXYXYXYXYXYXYXYXYXYXYXYXYXYXYXYXYXYXYXYXYXYXYXYXYXYX",
"YXYXYXYXYXYXYXYXYXYXYXYXYXYXYXYXYXYXYXYXYXYXYXYXYXYXYXYXYXYXA.D.D.D.D.D.D.D.D.p.D.D.D.D.D.D.D.D.D.D.D.D.D.D.D.D.D.D.D.D.D.D.D.D.D.D.D.D.D.D.D.D.D.D.D.D.D.D.D.D.D.D.D.D.D.D.D.D.D.D.D.D.D.D.D.D.D.D.D.D.D.D.D.D.D.D.D.D.D.D.D.D.D.D.D.D.D.D.D.D.D.D.D.D.D.D.D.D.D.D.D.D.D.D.D.D.D.D.D.D.D.D.D.D.D.D.D.D.D.D.D.D.D.D.D.D.p.m                                       YXYXYXYXYXYXYXYXYXYXYXYXYXYXYXYXYXYXYXYXYXYXYXYXYXYXYXYXYXYXYXYXYXYXYXYXYXYXYXYXYXYXYXYXYXYXYXYXYXYXYXYXYXYXYXYXYXYXYXYXYXYXYXYXYXYXYXYXYXYXYXYXYXYXYXYXYXYXYX",
"YXYXYXYXYXYXYXYXYXYXYXYXYXYXYXYXYXYXYXYXYXYXYXYXYXYXYXYXYXA.D.D.D.D.D.D.D.D.D.D.D.D.D.D.D.D.D.D.D.D.D.D.D.D.D.D.D.D.D.D.D.D.D.D.D.D.D.D.D.D.D.D.D.D.D.D.D.D.D.D.D.A.D.D.D.D.D.D.A.D.D.D.D.D.D.D.D.D.D.D.D.D.D.A.D.D.D.D.D.D.D.D.D.D.D.D.D.D.D.D.D.D.D.D.D.D.D.D.D.D.D.D.D.D.D.D.D.D.D.A.D.D.D.D.D.D.D.D.D.D.A.D.D.D.D.D.D.A.w.                                      YXYXYXYXYXYXYXYXYXYXYXYXYXYXYXYXYXYXYXYXYXYXYXYXYXYXYXYXYXYXYXYXYXYXYXYXYXYXYXYXYXYXYXYXYXYXYXYXYXYXYXYXYXYXYXYXYXYXYXYXYXYXYXYXYXYXYXYXYXYXYXYXYXYXYXYXYXYX",
"YXYXYXYXYXYXYXYXYXYXYXYXYXYXYXYXYXYXYXYXYXYXYXYXYXYXYXYXA.D.D.D.D.D.D.D.D.D.D.D.D.D.D.D.D.D.D.D.D.D.D.D.D.D.D.D.D.D.D.D.D.D.D.D.D.D.D.D.D.D.D.D.D.D.D.D.D.D.D.D.D.D.A.D.D.D.A.D.D.D.D.D.D.D.D.D.A.D.D.D.D.D.D.D.D.D.D.D.D.D.D.D.D.D.D.D.D.D.D.D.D.D.D.D.D.D.D.D.D.D.D.D.D.A.D.D.D.D.D.D.D.D.D.D.D.D.D.D.D.D.D.D.D.D.D.D.D.A.p.w.                                      YXYXYXYXYXYXYXYXYXYXYXYXYXYXYXYXYXYXYXYXYXYXYXYXYXYXYXYXYXYXYXYXYXYXYXYXYXYXYXYXYXYXYXYXYXYXYXYXYXYXYXYXYXYXYXYXYXYXYXYXYXYXYXYXYXYXYXYXYXYXYXYXYXYXYXYXYX",
"YXYXYXYXYXYXYXYXYXYXYXYXYXYXYXYXYXYXYXYXYXYXYXYXYXYXYXD.D.D.D.D.D.D.D.D.D.D.D.D.D.D.D.D.D.D.D.D.D.D.D.D.D.D.D.D.D.D.D.A.D.D.D.D.D.D.D.D.D.D.D.D.D.D.D.D.D.D.D.D.D.D.D.D.D.A.D.D.D.D.D.D.D.D.D.D.D.D.D.A.A.D.D.D.D.D.D.D.D.D.D.A.D.D.D.D.D.D.A.D.D.D.D.D.D.D.D.D.D.D.D.D.D.D.D.D.D.D.D.D.D.A.D.D.D.D.D.D.D.D.D.D.D.D.D.D.D.D.D.D.t.                                      YXYXYXYXYXYXYXYXYXYXYXYXYXYXYXYXYXYXYXYXYXYXYXYXYXYXYXYXYXYXYXYXYXYXYXYXYXYXYXYXYXYXYXYXYXYXYXYXYXYXYXYXYXYXYXYXYXYXYXYXYXYXYXYXYXYXYXYXYXYXYXYXYXYXYXYX",
"YXYXYXYXYXYXYXYXYXYXYXYXYXYXYXYXYXYXYXYXYXYXYXYXYXYXp.D.D.D.D.D.D.D.D.D.D.D.D.D.D.D.D.D.D.D.D.D.D.A.D.D.D.D.D.D.D.D.D.D.D.D.D.A.D.D.D.D.D.D.D.D.D.D.D.D.D.D.D.D.D.D.A.D.A.D.D.D.D.D.D.D.D.D.D.D.D.D.D.D.D.D.D.D.D.A.D.D.D.D.D.D.D.D.D.D.D.D.D.D.D.D.D.D.D.D.D.D.A.D.D.D.D.D.D.D.D.A.A.D.D.D.A.D.D.D.D.D.D.D.D.D.D.p.D.D.D.D.D.D.A.m                                       YXYXYXYXYXYXYXYXYXYXYXYXYXYXYXYXYXYXYXYXYXYXYXYXYXYXYXYXYXYXYXYXYXYXYXYXYXYXYXYXYXYXYXYXYXYXYXYXYXYXYXYXYXYXYXYXYXYXYXYXYXYXYXYXYXYXYXYXYXYXYXYXYXYXYX",
"YXYXYXYXYXYXYXYXYXYXYXYXYXYXYXYXYXYXYXYXYXYXYXYXYXA.D.D.D.D.D.D.D.D.D.D.D.D.D.D.D.D.D.D.D.D.D.D.D.D.D.D.D.A.D.D.D.D.D.A.D.D.D.D.D.D.D.D.D.D.D.D.D.D.D.D.D.D.D.D.D.D.D.D.D.D.D.D.D.D.A.D.D.D.A.D.D.D.D.D.D.D.D.D.D.A.D.D.D.D.D.D.D.D.D.D.D.D.D.D.D.D.D.D.D.D.D.D.D.D.D.D.A.D.D.D.D.D.D.D.A.D.D.D.D.D.D.D.D.D.D.D.D.D.D.D.D.D.D.D.D.p.t                                       YXYXYXYXYXYXYXYXYXYXYXYXYXYXYXYXYXYXYXYXYXYXYXYXYXYXYXYXYXYXYXYXYXYXYXYXYXYXYXYXYXYXYXYXYXYXYXYXYXYXYXYXYXYXYXYXYXYXYXYXYXYXYXYXYXYXYXYXYXYXYXYXYXYX",
"YXYXYXYXYXYXYXYXYXYXYXYXYXYXYXYXYXYXYXYXYXYXYXYXp.D.D.D.D.D.D.D.D.D.D.D.D.D.D.D.D.D.D.D.D.D.D.D.D.D.D.D.D.D.D.D.D.D.D.D.D.D.D.D.D.D.D.D.D.D.D.D.D.D.D.D.D.D.D.D.D.D.D.D.D.D.D.D.D.D.D.D.D.D.D.D.D.D.D.D.D.D.D.A.D.D.D.D.A.D.D.D.D.D.D.D.D.D.D.D.D.D.D.D.D.D.D.D.D.D.D.A.D.D.D.D.D.D.D.D.D.D.D.D.D.D.D.D.D.D.D.D.D.D.D.D.D.D.D.D.D.D.u.                                        YXYXYXYXYXYXYXYXYXYXYXYXYXYXYXYXYXYXYXYXYXYXYXYXYXYXYXYXYXYXYXYXYXYXYXYXYXYXYXYXYXYXYXYXYXYXYXYXYXYXYXYXYXYXYXYXYXYXYXYXYXYXYXYXYXYXYXYXYXYXYXYXYX",
"YXYXYXYXYXYXYXYXYXYXYXYXYXYXYXYXYXYXYXYXYXYXYXYXD.D.D.D.D.D.D.D.D.D.D.D.D.D.D.D.D.D.D.D.D.D.D.D.D.A.D.D.D.D.D.D.D.D.D.D.D.D.D.D.D.D.D.D.D.D.D.D.D.D.D.D.D.D.D.D.D.D.D.D.D.D.D.D.D.D.D.D.D.D.D.D.D.D.D.D.D.D.D.D.D.D.D.D.D.D.D.D.D.D.D.D.D.D.D.D.D.D.D.D.D.D.D.D.D.D.D.A.D.D.D.D.D.D.A.D.D.D.D.D.D.D.D.D.D.D.D.D.D.D.D.D.D.D.D.D.D.D.A.q.                                        YXYXYXYXYXYXYXYXYXYXYXYXYXYXYXYXYXYXYXYXYXYXYXYXYXYXYXYXYXYXYXYXYXYXYXYXYXYXYXYXYXYXYXYXYXYXYXYXYXYXYXYXYXYXYXYXYXYXYXYXYXYXYXYXYXYXYXYXYXYXYXYX",
"YXYXYXYXYXYXYXYXYXYXYXYXYXYXYXYXYXYXYXYXYXYXYXp.D.D.D.D.D.D.D.D.D.D.D.D.D.D.D.D.D.D.D.D.D.D.D.D.D.D.D.D.D.D.D.D.A.D.D.D.D.D.D.D.D.D.D.D.D.D.D.D.D.D.D.D.D.D.D.D.A.D.D.D.D.D.D.D.D.D.A.D.D.D.D.D.D.D.D.D.D.D.D.D.D.D.D.D.D.D.D.D.D.D.D.D.D.D.D.D.D.D.D.D.D.D.D.D.D.A.D.D.D.D.D.D.D.D.D.D.D.D.D.D.D.D.D.D.D.D.D.D.D.D.D.D.D.D.D.D.D.D.D.p.$                                         YXYXYXYXYXYXYXYXYXYXYXYXYXYXYXYXYXYXYXYXYXYXYXYXYXYXYXYXYXYXYXYXYXYXYXYXYXYXYXYXYXYXYXYXYXYXYXYXYXYXYXYXYXYXYXYXYXYXYXYXYXYXYXYXYXYXYXYXYXYXYX",
"YXYXYXYXYXYXYXYXYXYXYXYXYXYXYXYXYXYXYXYXYXYXYXA.D.D.D.D.D.D.D.D.D.D.D.D.D.D.D.D.D.D.D.D.D.D.D.D.D.D.D.D.D.A.D.D.D.D.D.D.D.D.D.D.D.D.D.D.D.D.D.D.D.D.D.D.D.D.D.D.D.D.A.D.D.D.D.D.D.D.D.D.D.D.D.D.D.D.D.D.D.D.D.D.D.D.D.D.D.D.D.D.D.D.D.D.D.D.A.D.D.D.D.D.D.D.D.D.D.D.D.D.D.D.D.D.D.A.D.D.D.D.D.D.D.D.D.D.D.D.D.D.D.D.D.D.D.D.D.D.D.D.D.D.y.                                        YXYXYXYXYXYXYXYXYXYXYXYXYXYXYXYXYXYXYXYXYXYXYXYXYXYXYXYXYXYXYXYXYXYXYXYXYXYXYXYXYXYXYXYXYXYXYXYXYXYXYXYXYXYXYXYXYXYXYXYXYXYXYXYXYXYXYXYXYXYXYX",
"YXYXYXYXYXYXYXYXYXYXYXYXYXYXYXYXYXYXYXYXYXYXp.D.D.D.D.D.D.D.D.D.D.D.D.D.D.D.D.D.D.D.D.D.D.D.D.D.A.D.D.D.D.D.D.D.D.D.D.A.D.D.D.D.D.D.D.D.D.D.D.D.D.D.D.D.D.D.D.D.D.D.D.D.D.D.D.D.D.D.D.D.D.D.D.D.D.A.D.D.D.D.A.D.D.D.D.D.D.A.D.D.D.D.D.D.D.D.A.D.D.D.D.D.D.D.D.D.D.D.D.D.D.A.D.D.D.D.D.A.D.D.D.D.D.D.D.D.D.D.D.D.D.D.D.D.D.D.D.D.D.D.D.D.p.t                                         YXYXYXYXYXYXYXYXYXYXYXYXYXYXYXYXYXYXYXYXYXYXYXYXYXYXYXYXYXYXYXYXYXYXYXYXYXYXYXYXYXYXYXYXYXYXYXYXYXYXYXYXYXYXYXYXYXYXYXYXYXYXYXYXYXYXYXYXYXYX",
"YXYXYXYXYXYXYXYXYXYXYXYXYXYXYXYXYXYXYXYXYX  D.D.D.D.D.D.D.D.D.D.D.D.D.D.D.D.D.D.D.D.D.D.D.D.D.D.D.D.D.D.D.D.D.D.D.D.D.D.D.D.D.D.D.D.D.D.D.D.D.D.D.D.D.D.D.D.D.D.D.D.D.D.D.D.D.D.p.D.D.D.D.D.D.D.D.A.D.D.D.D.D.D.D.D.D.p.D.D.D.D.D.D.D.D.D.D.D.D.D.D.D.D.D.D.D.D.D.D.D.D.D.D.D.D.D.D.D.D.D.D.D.D.D.D.D.D.D.D.D.D.D.D.D.D.D.D.D.D.A.D.D.D.D.w.                                          YXYXYXYXYXYXYXYXYXYXYXYXYXYXYXYXYXYXYXYXYXYXYXYXYXYXYXYXYXYXYXYXYXYXYXYXYXYXYXYXYXYXYXYXYXYXYXYXYXYXYXYXYXYXYXYXYXYXYXYXYXYXYXYXYXYXYXYXYX",
"YXYXYXYXYXYXYXYXYXYXYXYXYXYXYXYXYXYXYXYX  u.D.D.D.D.D.D.D.D.D.D.D.D.D.D.D.D.D.D.D.D.D.D.D.D.D.D.D.D.D.D.A.D.D.D.D.D.D.D.A.D.D.D.D.D.D.D.D.D.D.D.D.D.D.D.D.D.D.D.D.D.D.D.D.D.D.D.D.D.D.D.D.D.D.D.D.D.D.D.D.D.D.D.D.D.D.D.D.D.D.D.D.D.D.D.D.D.D.D.D.D.D.D.D.D.D.D.D.D.D.D.D.D.D.D.D.D.D.D.D.D.D.D.D.D.D.D.D.D.D.D.D.D.D.D.D.D.D.D.D.D.D.D.D.a..                                           YXYXYXYXYXYXYXYXYXYXYXYXYXYXYXYXYXYXYXYXYXYXYXYXYXYXYXYXYXYXYXYXYXYXYXYXYXYXYXYXYXYXYXYXYXYXYXYXYXYXYXYXYXYXYXYXYXYXYXYXYXYXYXYXYXYXYXYX",
"YXYXYXYXYXYXYXYXYXYXYXYXYXYXYXYXYXYXYXYX  A.D.D.D.D.D.D.D.D.D.D.D.D.D.D.D.D.D.D.p.D.D.D.D.D.D.D.D.D.D.D.D.D.D.D.D.D.D.D.A.D.A.D.D.D.D.D.D.D.D.D.D.D.D.D.D.D.D.D.D.D.D.D.D.D.D.D.D.D.D.D.D.D.D.D.D.D.D.D.A.D.D.D.D.D.D.D.D.D.D.D.D.D.D.D.D.D.D.D.D.D.D.D.D.D.D.D.D.D.D.D.D.D.D.D.D.D.D.D.D.D.D.D.D.D.D.D.D.D.D.D.D.D.D.D.D.D.D.D.D.D.D.D.D.p.a                                           YXYXYXYXYXYXYXYXYXYXYXYXYXYXYXYXYXYXYXYXYXYXYXYXYXYXYXYXYXYXYXYXYXYXYXYXYXYXYXYXYXYXYXYXYXYXYXYXYXYXYXYXYXYXYXYXYXYXYXYXYXYXYXYXYXYXYXYX",
"YXYXYXYXYXYXYXYXYXYXYXYXYXYXYXYXYXYXYX    D.D.D.D.D.D.D.D.D.D.D.D.D.D.D.D.D.D.D.D.D.D.D.D.D.D.D.D.A.D.D.D.D.D.D.D.D.D.D.D.D.A.D.D.D.D.D.D.D.D.D.D.D.D.D.D.D.D.D.D.D.D.D.D.D.D.D.D.D.D.D.D.D.A.D.D.D.D.A.D.D.D.D.D.D.D.D.D.D.D.D.D.D.D.D.D.D.D.D.D.D.D.D.D.D.D.D.D.D.D.D.D.D.D.D.D.D.D.D.D.D.D.D.D.D.D.D.D.D.D.D.D.D.D.D.D.D.D.D.D.A.D.D.D.D.u.                                            YXYXYXYXYXYXYXYXYXYXYXYXYXYXYXYXYXYXYXYXYXYXYXYXYXYXYXYXYXYXYXYXYXYXYXYXYXYXYXYXYXYXYXYXYXYXYXYXYXYXYXYXYXYXYXYXYXYXYXYXYXYXYXYXYXYXYX",
"YXYXYXYXYXYXYXYXYXYXYXYXYXYXYXYXYXYXYX  y.D.D.D.D.D.D.D.D.D.D.D.D.D.D.D.D.D.D.D.D.D.D.D.D.D.D.D.D.D.D.D.D.D.D.D.D.D.D.D.D.D.D.D.D.D.D.D.D.D.D.D.D.D.D.D.D.D.D.D.D.D.D.D.D.D.D.D.D.D.D.D.D.D.D.D.D.D.D.D.D.A.D.D.D.D.D.D.D.D.D.D.D.D.D.D.D.D.D.D.D.D.D.D.D.D.D.D.D.D.D.D.D.D.D.D.D.D.D.D.D.D.D.D.D.D.D.D.D.D.D.D.D.D.D.D.D.D.D.D.D.D.D.D.D.D.a.                                            YXYXYXYXYXYXYXYXYXYXYXYXYXYXYXYXYXYXYXYXYXYXYXYXYXYXYXYXYXYXYXYXYXYXYXYXYXYXYXYXYXYXYXYXYXYXYXYXYXYXYXYXYXYXYXYXYXYXYXYXYXYXYXYXYXYXYX",
"YXYXYXYXYXYXYXYXYXYXYXYXYXYXYXYXYXYX    Z.D.D.D.D.D.D.D.D.D.D.D.D.D.D.D.D.D.D.D.D.D.D.D.D.D.D.D.D.D.D.D.D.D.D.D.D.D.D.D.A.D.D.A.D.D.D.D.D.D.D.D.D.D.D.D.D.D.D.D.D.D.D.D.D.D.D.D.D.D.D.D.D.D.D.D.A.D.D.A.D.D.D.D.D.D.D.D.D.D.D.D.D.D.D.D.D.D.D.D.D.D.D.D.D.D.D.D.D.D.D.D.D.D.D.D.D.D.D.p.D.D.D.D.D.D.D.D.D.D.D.D.D.D.D.D.D.D.D.D.D.D.D.D.D.D.p.y                                             YXYXYXYXYXYXYXYXYXYXYXYXYXYXYXYXYXYXYXYXYXYXYXYXYXYXYXYXYXYXYXYXYXYXYXYXYXYXYXYXYXYXYXYXYXYXYXYXYXYXYXYXYXYXYXYXYXYXYXYXYXYXYXYXYXYX",
"YXYXYXYXYXYXYXYXYXYXYXYXYXYXYXYXYX      D.D.D.D.p.D.D.D.D.D.D.D.D.D.D.D.D.D.D.D.D.D.D.D.D.D.D.D.D.D.D.D.D.D.D.D.D.D.D.D.D.D.D.D.D.p.D.D.D.D.D.D.D.D.D.D.D.D.D.D.D.D.D.D.D.D.D.D.D.D.D.D.D.D.D.D.D.D.D.D.D.D.A.D.D.D.D.D.D.D.D.D.D.D.D.D.D.D.D.D.D.D.D.D.D.D.D.D.D.D.D.D.D.D.D.D.D.D.D.D.D.D.D.D.D.D.D.D.D.D.D.D.D.D.D.D.D.D.D.D.D.D.D.D.D.D.F.m                                             YXYXYXYXYXYXYXYXYXYXYXYXYXYXYXYXYXYXYXYXYXYXYXYXYXYXYXYXYXYXYXYXYXYXYXYXYXYXYXYXYXYXYXYXYXYXYXYXYXYXYXYXYXYXYXYXYXYXYXYXYXYXYXYXYXYX",
"YXYXYXYXYXYXYXYXYXYXYXYXYXYXYXYXYX      D.p.D.D.D.D.D.D.D.D.D.D.D.D.D.D.D.D.D.D.D.D.D.D.D.D.D.D.D.D.D.D.D.A.D.D.D.D.D.A.D.D.D.D.D.D.D.D.D.D.D.D.D.D.D.D.D.D.D.D.D.D.D.D.D.D.D.D.D.D.D.D.D.D.D.D.D.D.D.D.D.D.D.D.D.D.D.D.D.D.D.D.D.D.D.D.D.D.D.D.D.D.D.D.D.D.D.D.D.D.D.D.D.D.D.D.D.D.D.D.D.D.D.D.D.D.D.D.D.D.D.D.D.D.D.D.D.D.D.D.D.D.D.D.D.D.D.q.                                              YXYXYXYXYXYXYXYXYXYXYXYXYXYXYXYXYXYXYXYXYXYXYXYXYXYXYXYXYXYXYXYXYXYXYXYXYXYXYXYXYXYXYXYXYXYXYXYXYXYXYXYXYXYXYXYXYXYXYXYXYXYXYXYXYX",
"YXYXYXYXYXYXYXYXYXYXYXYXYXYXYXYXYX      D.D.D.D.D.D.D.D.D.D.D.D.D.D.D.D.D.D.D.D.D.D.D.D.D.D.D.D.D.D.D.D.D.D.D.D.D.D.D.D.D.D.D.D.D.D.D.D.D.D.D.D.D.D.D.D.D.D.D.D.D.D.D.D.D.D.D.D.D.D.D.D.D.D.D.D.D.D.D.D.D.D.D.D.D.D.D.D.F.D.D.F.D.D.D.D.D.D.F.D.F.F.D.D.D.F.D.D.D.D.D.D.F.D.D.D.F.D.D.D.D.F.F.D.D.D.F.D.D.F.D.D.D.D.D.D.D.D.D.D.D.F.D.D.D.F.D.y.                                              YXYXYXYXYXYXYXYXYXYXYXYXYXYXYXYXYXYXYXYXYXYXYXYXYXYXYXYXYXYXYXYXYXYXYXYXYXYXYXYXYXYXYXYXYXYXYXYXYXYXYXYXYXYXYXYXYXYXYXYXYXYXYXYXYX",
"YXYXYXYXYXYXYXYXYXYXYXYXYXYXYXYX        D.F.D.D.D.D.D.D.D.D.D.D.D.D.D.D.D.D.D.D.D.D.D.F.D.D.D.F.D.D.D.F.D.D.F.D.D.D.D.D.D.D.D.D.D.F.F.D.F.D.D.F.F.D.D.D.D.D.F.D.D.D.D.D.D.D.D.D.F.D.D.F.F.D.F.D.D.D.D.D.F.D.F.D.G.D.D.D.D.D.D.D.D.D.D.D.D.F.D.D.D.D.D.F.D.D.F.D.D.D.D.F.D.F.D.F.D.F.D.F.D.D.D.F.F.F.D.D.D.D.F.D.D.D.D.D.D.D.D.D.D.F.D.F.D.D.F.i.                                                YXYXYXYXYXYXYXYXYXYXYXYXYXYXYXYXYXYXYXYXYXYXYXYXYXYXYXYXYXYXYXYXYXYXYXYXYXYXYXYXYXYXYXYXYXYXYXYXYXYXYXYXYXYXYXYXYXYXYXYXYXYXYXYX",
"YXYXYXYXYXYXYXYXYXYXYXYXYXYXYXYX        D.D.D.F.F.D.F.D.D.F.F.D.D.D.D.D.D.D.D.D.D.F.D.D.F.F.D.D.D.F.D.D.D.F.D.D.D.D.D.D.D.D.D.D.D.D.D.D.D.D.F.D.D.D.D.F.F.D.D.F.D.D.D.D.D.D.F.D.D.D.D.D.D.F.D.D.D.D.D.D.D.D.F.D.F.F.F.F.D.F.D.D.D.D.D.D.F.D.D.D.F.D.F.D.D.F.D.F.D.D.D.D.F.D.F.F.D.D.F.D.G.G.D.D.D.F.F.D.F.F.F.F.D.D.D.D.D.F.D.F.F.D.F.F.F.F.D.f.                                                YXYXYXYXYXYXYXYXYXYXYXYXYXYXYXYXYXYXYXYXYXYXYXYXYXYXYXYXYXYXYXYXYXYXYXYXYXYXYXYXYXYXYXYXYXYXYXYXYXYXYXYXYXYXYXYXYXYXYXYXYXYXYXYX",
"YXYXYXYXYXYXYXYXYXYXYXYXYXYXYX          D.F.D.D.D.D.D.F.D.F.D.D.D.D.D.D.D.D.D.D.D.D.F.D.D.D.F.D.F.D.F.D.D.F.F.D.D.D.D.D.D.D.D.D.D.F.D.F.D.F.F.D.D.G.D.F.D.F.D.F.D.D.D.D.F.F.D.F.F.F.D.F.F.D.F.F.D.D.D.D.F.F.D.D.D.F.D.F.D.G.D.F.F.D.D.D.D.F.F.F.D.F.F.F.F.F.F.D.D.D.F.F.F.F.F.D.F.F.F.F.D.D.F.D.D.F.F.D.F.F.D.F.D.D.D.D.F.D.F.F.F.F.D.F.F.F.F.Z.                                                YXYXYXYXYXYXYXYXYXYXYXYXYXYXYXYXYXYXYXYXYXYXYXYXYXYXYXYXYXYXYXYXYXYXYXYXYXYXYXYXYXYXYXYXYXYXYXYXYXYXYXYXYXYXYXYXYXYXYXYXYXYXYXYX",
"YXYXYXYXYXYXYXYXYXYXYXYXYXYXYX          D.F.D.F.F.F.D.F.F.D.F.F.D.D.F.D.F.F.D.D.F.F.D.F.F.D.F.D.F.D.F.D.D.F.D.F.F.D.F.D.D.D.D.D.F.D.F.F.D.F.D.F.D.F.F.F.F.D.F.D.F.D.D.F.F.D.F.F.F.D.F.F.F.F.F.D.D.D.D.F.F.F.F.F.F.F.D.F.F.F.F.F.F.F.G.D.D.G.F.F.F.F.F.F.F.F.F.F.F.F.F.F.F.F.F.D.F.F.F.D.F.F.F.F.F.F.F.F.F.F.F.F.F.F.F.F.F.F.F.F.F.F.F.F.F.F.F.i.                                                  YXYXYXYXYXYXYXYXYXYXYXYXYXYXYXYXYXYXYXYXYXYXYXYXYXYXYXYXYXYXYXYXYXYXYXYXYXYXYXYXYXYXYXYXYXYXYXYXYXYXYXYXYXYXYXYXYXYXYXYXYXYXYX",
"YXYXYXYXYXYXYXYXYXYXYXYXYXYXYX          D.F.F.D.F.D.F.F.F.F.F.F.F.F.F.F.F.F.F.F.D.F.F.F.F.F.F.F.F.F.F.F.F.F.F.F.F.F.F.F.D.D.D.D.F.F.F.F.F.F.F.F.F.F.F.F.F.F.F.F.F.F.F.F.F.F.F.D.F.F.F.F.F.F.F.F.D.D.F.D.G.D.F.F.G.D.F.F.F.F.F.F.F.F.D.G.F.F.F.F.F.F.F.F.F.F.F.F.F.F.F.F.F.F.F.F.F.F.F.F.F.F.F.F.F.F.F.F.F.F.F.F.F.F.F.F.F.F.F.F.F.F.G.F.F.F.F.f.                                                  YXYXYXYXYXYXYXYXYXYXYXYXYXYXYXYXYXYXYXYXYXYXYXYXYXYXYXYXYXYXYXYXYXYXYXYXYXYXYXYXYXYXYXYXYXYXYXYXYXYXYXYXYXYXYXYXYXYXYXYXYXYXYX",
"YXYXYXYXYXYXYXYXYXYXYXYXYXYXYX          F.F.F.F.F.F.D.F.F.D.f.u.y.y.r.r.w.r.y.w.q.q.q.e.q.e.e.q.q.q.e.q.q.q.q.q.q.q.q.q.q.q.w.w.e.q.q.q.q.e.q.e.q.q.q.q.q.q.q.e.q.q.q.e.e.e.r.q.q.e.e.q.q.q.e.e.w.w.t.q.q.q.q.q.q.q.q.q.q.q.q.e.r.q.q.q.e.q.q.q.e.e.e.e.q.q.e.e.e.e.e.e.e.e.r.w.e.e.e.e.q.q.e.e.e.e.e.e.e.e.e.e.q.e.e.e.e.y.F.F.F.F.F.G.F.F.F.f.                                                  YXYXYXYXYXYXYXYXYXYXYXYXYXYXYXYXYXYXYXYXYXYXYXYXYXYXYXYXYXYXYXYXYXYXYXYXYXYXYXYXYXYXYXYXYXYXYXYXYXYXYXYXYXYXYXYXYXYXYXYXYXYXYX",
"YXYXYXYXYXYXYXYXYXYXYXYXYXYX            F.F.F.F.F.F.F.F.F.F.p                                                                 .                                                                 . .                                                                                                                       n F.G.F.I.F.F.F.G.G.f.                                                    YXYXYXYXYXYXYXYXYXYXYXYXYXYXYXYXYXYXYXYXYXYXYXYXYXYXYXYXYXYXYXYXYXYXYXYXYXYXYXYXYXYXYXYXYXYXYXYXYXYXYXYXYXYXYXYXYXYXYXYXYXYX",
"YXYXYXYXYXYXYXYXYXYXYXYXYXYX            F.F.F.F.D.G.D.F.F.F.p                                                                                                                                                                                                                                                             p S.S.S.G.F.G.F.P.G.j.                                                    YXYXYXYXYXYXYXYXYXYXYXYXYXYXYXYXYXYXYXYXYXYXYXYXYXYXYXYXYXYXYXYXYXYXYXYXYXYXYXYXYXYXYXYXYXYXYXYXYXYXYXYXYXYXYXYXYXYXYXYXYXYX",
"YXYXYXYXYXYXYXYXYXYXYXYXYXYX            F.F.P.F.G.F.G.G.S.F.p                                                                                                                                                                                                                                                             p S.F.G.G.F.G.P.F.F.j.                                                    YXYXYXYXYXYXYXYXYXYXYXYXYXYXYXYXYXYXYXYXYXYXYXYXYXYXYXYXYXYXYXYXYXYXYXYXYXYXYXYXYXYXYXYXYXYXYXYXYXYXYXYXYXYXYXYXYXYXYXYXYXYX",
"YXYXYXYXYXYXYXYXYXYXYXYXYXYX            P.G.G.F.G.F.F.F.G.S.p                                                                                                                                                                                                                                                             n S.S.F.G.G.F.G.G.G.h.                                                    YXYXYXYXYXYXYXYXYXYXYXYXYXYXYXYXYXYXYXYXYXYXYXYXYXYXYXYXYXYXYXYXYXYXYXYXYXYXYXYXYXYXYXYXYXYXYXYXYXYXYXYXYXYXYXYXYXYXYXYXYXYX",
"YXYXYXYXYXYXYXYXYXYXYXYXYXYX            G.F.F.P.F.G.G.G.F.G.u                                                                                                                                                                                                                                                             f S.P.P.G.P.P.G.G.G.h.                                                    YXYXYXYXYXYXYXYXYXYXYXYXYXYXYXYXYXYXYXYXYXYXYXYXYXYXYXYXYXYXYXYXYXYXYXYXYXYXYXYXYXYXYXYXYXYXYXYXYXYXYXYXYXYXYXYXYXYXYXYXYXYX",
"YXYXYXYXYXYXYXYXYXYXYXYXYXYX            G.G.F.F.P.F.P.P.G.G.p                                                                                                                                                                                                                                                             n H.P.P.P.I.P.I.I.I.h.                                                    YXYXYXYXYXYXYXYXYXYXYXYXYXYXYXYXYXYXYXYXYXYXYXYXYXYXYXYXYXYXYXYXYXYXYXYXYXYXYXYXYXYXYXYXYXYXYXYXYXYXYXYXYXYXYXYXYXYXYXYXYXYX",
"YXYXYXYXYXYXYXYXYXYXYXYXYXYX            G.G.P.G.G.G.G.P.I.S.u                                                                                                                                                                                                                                                             n S.J.I.P.I.P.I.I.I.h.                                                    YXYXYXYXYXYXYXYXYXYXYXYXYXYXYXYXYXYXYXYXYXYXYXYXYXYXYXYXYXYXYXYXYXYXYXYXYXYXYXYXYXYXYXYXYXYXYXYXYXYXYXYXYXYXYXYXYXYXYXYXYXYX",
"YXYXYXYXYXYXYXYXYXYXYXYXYXYX            S.I.G.P.P.P.P.G.I.S.f                                                                                                                                                                                                                                                             m J.J.I.I.J.P.I.J.I.h.                                                    YXYXYXYXYXYXYXYXYXYXYXYXYXYXYXYXYXYXYXYXYXYXYXYXYXYXYXYXYXYXYXYXYXYXYXYXYXYXYXYXYXYXYXYXYXYXYXYXYXYXYXYXYXYXYXYXYXYXYXYXYXYX",
"YXYXYXYXYXYXYXYXYXYXYXYXYXYX            P.I.P.P.P.P.P.P.I.S.u                                                                                                                                                                                                                                                             y g.g.h.h.h.h.g.g.g.r.                                                    YXYXYXYXYXYXYXYXYXYXYXYXYXYXYXYXYXYXYXYXYXYXYXYXYXYXYXYXYXYXYXYXYXYXYXYXYXYXYXYXYXYXYXYXYXYXYXYXYXYXYXYXYXYXYXYXYXYXYXYXYXYX",
"YXYXYXYXYXYXYXYXYXYXYXYXYXYX            I.P.I.I.I.I.I.I.I.I.u                                                                                                                                                                                                                                                               . . . . . . . . . .                                                     YXYXYXYXYXYXYXYXYXYXYXYXYXYXYXYXYXYXYXYXYXYXYXYXYXYXYXYXYXYXYXYXYXYXYXYXYXYXYXYXYXYXYXYXYXYXYXYXYXYXYXYXYXYXYXYXYXYXYXYXYXYX",
"YXYXYXYXYXYXYXYXYXYXYXYXYXYX            I.J.J.I.I.I.I.J.I.J.u                                                                                                                                                                                                                                                                                                                                       YXYXYXYXYXYXYXYXYXYXYXYXYXYXYXYXYXYXYXYXYXYXYXYXYXYXYXYXYXYXYXYXYXYXYXYXYXYXYXYXYXYXYXYXYXYXYXYXYXYXYXYXYXYXYXYXYXYXYXYXYXYX",
"YXYXYXYXYXYXYXYXYXYXYXYXYXYX            I.I.I.J.J.J.J.J.J.H.f                                                                                                                                                                                                                                                                                                                                       YXYXYXYXYXYXYXYXYXYXYXYXYXYXYXYXYXYXYXYXYXYXYXYXYXYXYXYXYXYXYXYXYXYXYXYXYXYXYXYXYXYXYXYXYXYXYXYXYXYXYXYXYXYXYXYXYXYXYXYXYXYX",
"YXYXYXYXYXYXYXYXYXYXYXYXYXYX            J.J.J.J.I.J.J.J.I.J.f                                                                                                                                                                                                                                                                                                                                         YXYXYXYXYXYXYXYXYXYXYXYXYXYXYXYXYXYXYXYXYXYXYXYXYXYXYXYXYXYXYXYXYXYXYXYXYXYXYXYXYXYXYXYXYXYXYXYXYXYXYXYXYXYXYXYXYXYXYXYXYX",
"YXYXYXYXYXYXYXYXYXYXYXYXYXYXYX          J.J.J.J.J.J.J.J.J.J.f                                                                                                                                                                                                                                                                                                                                         YXYXYXYXYXYXYXYXYXYXYXYXYXYXYXYXYXYXYXYXYXYXYXYXYXYXYXYXYXYXYXYXYXYXYXYXYXYXYXYXYXYXYXYXYXYXYXYXYXYXYXYXYXYXYXYXYXYXYXYXYX",
"YXYXYXYXYXYXYXYXYXYXYXYXYXYXYX          J.J.J.J.J.J.J.J.J.J.f                                                                                                                                                                                                                                                                                                                                         YXYXYXYXYXYXYXYXYXYXYXYXYXYXYXYXYXYXYXYXYXYXYXYXYXYXYXYXYXYXYXYXYXYXYXYXYXYXYXYXYXYXYXYXYXYXYXYXYXYXYXYXYXYXYXYXYXYXYXYXYX",
"YXYXYXYXYXYXYXYXYXYXYXYXYXYXYX          J.J.J.K.K.J.J.J.J.J.f                                                                                                                                                                                                                                                                                                                                           YXYXYXYXYXYXYXYXYXYXYXYXYXYXYXYXYXYXYXYXYXYXYXYXYXYXYXYXYXYXYXYXYXYXYXYXYXYXYXYXYXYXYXYXYXYXYXYXYXYXYXYXYXYXYXYXYXYXYXYX",
"YXYXYXYXYXYXYXYXYXYXYXYXYXYXYX          K.J.J.K.J.J.K.K.J.J.f                                                                                                                                                                                                                                                                                                                                             YXYXYXYXYXYXYXYXYXYXYXYXYXYXYXYXYXYXYXYXYXYXYXYXYXYXYXYXYXYXYXYXYXYXYXYXYXYXYXYXYXYXYXYXYXYXYXYXYXYXYXYXYXYXYXYXYXYXYX",
"YXYXYXYXYXYXYXYXYXYXYXYXYXYXYX          K.J.J.K.J.K.J.K.J.K.f                                                                                                                                                                                                                                                                                                                                             YXYXYXYXYXYXYXYXYXYXYXYXYXYXYXYXYXYXYXYXYXYXYXYXYXYXYXYXYXYXYXYXYXYXYXYXYXYXYXYXYXYXYXYXYXYXYXYXYXYXYXYXYXYXYXYXYXYXYX",
"YXYXYXYXYXYXYXYXYXYXYXYXYXYXYX          K.K.K.K.K.J.J.K.K.K.f                                                                                                                                                                                                                                                                                                                                                 YXYXYXYXYXYXYXYXYXYXYXYXYXYXYXYXYXYXYXYXYXYXYXYXYXYXYXYXYXYXYXYXYXYXYXYXYXYXYXYXYXYXYXYXYXYXYXYXYXYXYXYXYXYXYXYXYX",
"YXYXYXYXYXYXYXYXYXYXYXYXYXYXYX          J.K.J.K.K.K.K.K.J.K.n                                                                                                                                                                                                                                                                                                                                                   YXYXYXYXYXYXYXYXYXYXYXYXYXYXYXYXYXYXYXYXYXYXYXYXYXYXYXYXYXYXYXYXYXYXYXYXYXYXYXYXYXYXYXYXYXYXYXYXYXYXYXYXYXYXYXYX",
"YXYXYXYXYXYXYXYXYXYXYXYXYXYXYX          K.K.K.K.K.K.K.K.K.K.f                                                                                                                                                                                                                                                                                                                                                           YXYXYXYXYXYXYXYXYXYXYXYXYXYXYXYXYXYXYXYXYXYXYXYXYXYXYXYXYXYXYXYXYXYXYXYXYXYXYXYXYXYXYXYXYXYXYXYXYXYXYXYX",
"YXYXYXYXYXYXYXYXYXYXYXYXYXYXYX          K.`.K.K.K.K.K.K.K.K.f                                                                                                                                                                                                                                                                                                                                                                                                                       YXYXYXYXYXYXYXYXYXYXYXYXYXYXYXYXYXYXYXYXYXYX",
"YXYXYXYXYXYXYXYXYXYXYXYXYXYXYX          K.K.K.K.K.K.K.K.K.K.g                                                                                                                                                                                                                                                                                                                                                                                                                               YXYXYXYXYXYXYXYXYXYXYXYXYXYXYXYXYXYX",
"YXYXYXYXYXYXYXYXYXYXYXYXYXYXYX          K.[.`.K.K.K.`.`.`.K.g                                                                                                                                                                                                                                                                                                                                                                                                                                   YXYXYXYXYXYXYXYXYXYXYXYXYXYXYXYX",
"YXYXYXYXYXYXYXYXYXYXYXYXYXYXYX          K.K.`.K.`.`.K.`.`.K.g                                                                                                                                                                                                                                                                                                                                                                                                                                       YXYXYXYXYXYXYXYXYXYXYXYXYXYX",
"YXYXYXYXYXYXYXYXYXYXYXYXYXYXYX          K.[.[.`.[.K.[.`.[.K.g                                                                                                                                                                                                                                                                                                                                                                                                                                           YXYXYXYXYXYXYXYXYXYXYXYX",
"YXYXYXYXYXYXYXYXYXYXYXYXYXYXYX          K.[.K.[.[.`.`.K.[.K.g                                                                                 YXYXYXYXYXYXYXYXYXYXYXYXYXYXYXYXYXYXYXYXYXYXYXYXYXYXYXYXYXYXYXYXYXYXYXYXYXYX                                                                                                                                                                                                                                                                                YXYXYXYXYXYXYXYXYXYXYX",
"YXYXYXYXYXYXYXYXYXYXYXYXYXYXYX          [.K.[.K.`.[.[.[.[.K.g                                                                         YXYXYXYXYXYXYXYXYXYXYXYXYXYXYXYXYXYXYXYXYXYXYXYXYXYXYXYXYXYXYXYXYXYXYXYXYXYXYXYXYXYXYXYX            L.L.[.L.L.L.L.K.v.L.v.v.v.v.v.v.v.v.v.c.v.v.c.c.c.c.c.v.v.v.c.L.v.v.v.c.c.v.v.c.v.v.x.c.c.c.c.x.x.x.z.z.l.z.z.z.z.z.z.x.z.x.x.x.x.v.x.v.v.v.v.v.v.v.v.v.v.v.v.v.v.v.v.v.v.v.v.v.v.v.v.v.v.v.v.v.v.v.v.v.C.v.v.v.v.v.v.L.v.k.                                      YXYXYXYXYXYXYXYXYXYX",
"YXYXYXYXYXYXYXYXYXYXYXYXYXYXYX          [.[.[.[.`.[.L.[.[.[.g                                                                       YXYXYXYXYXYXYXYXYXYXYXYXYXYXYXYXYXYXYXYXYXYXYXYXYXYXYXYXYXYXYXYXYXYXYXYXYXYXYXYXYXYXYXYXYXYX    L.[.[.[.[.[.[.|.[.[.].].|.[.[.[.[.[.[.[.[.[.].[.[.[.[.[.].[.U.[.[.|.[.U.U.|.].[.[.[.[.[.].[.[.[.].].].[.[.[.[.[.[.].].L.[.[.[.[.[.].].[.].].[.].[.].].].].].|.|.].[.].|.].].].].|.|.|.[.].].[.].].].].].].].].].].].].].].].[.].].[.[.s.                                    YXYXYXYXYXYXYXYX",
"YXYXYXYXYXYXYXYXYXYXYXYXYXYXYX          [.[.[.[.[.[.[.[.[.[.g                                                                   YXYXYXYXYXYXYXYXYXYXYXYXYXYXYXYXYXYXYXYXYXYXYXYXYXYXYXYXYXYXYXYXYXYXYXYXYXYXYXYXYXYXYXYXYXYXYXYXs.[.[.].[.[.].[.[.[.[.[.U.|.].U.].].].].].[.[.].[.].].].].[.].].[.|.].].[.].].U.[.].].[.].].].[.[.].].].].[.].].].].].].].].].].[.].].].].].].].].].].].].].].].].].[.].].].].].].].].].|.].].].].].].].].].].].].].].].].].].].].].].].].].v.i                                   YXYXYXYXYXYXYX",
"YXYXYXYXYXYXYXYXYXYXYXYXYXYXYX          [.].[.[.[.[.[.[.[.[.g                                                                 YXYXYXYXYXYXYXYXYXYXYXYXYXYXYXYXYXYXYXYXYXYXYXYXYXYXYXYXYXYXYXYXYXYXYXYXYXYXYXYXYXYXYXYXYXYXYXYXx.[.].].].].].].].].].[.].].].].].].].].].].].].].].].].].].].].].].[.].].].].].].].].].].].].].].].].].].].].].].].].].].].].].].].].].].].].].].].].].].].].].].].].].].].].].].].].].].|.].].[.].].].].].].].].].].].].].].].].].].].].].].].].j                                   YXYXYXYXYXYX",
"YXYXYXYXYXYXYXYXYXYXYXYXYXYXYX          [.].[.[.[.[.].[.[.[.g                                                               YXYXYXYXYXYXYXYXYXYXYXYXYXYXYXYXYXYXYXYXYXYXYXYXYXYXYXYXYXYXYXYXYXYXYXYXYXYXYXYXYXYXYXYXYXYXYXYXC.].].].].].].].].|.].].].].].].].].[.].].].].].].].].].].].].].].].].].].].].].].].].].|.|.].].].].].].].].].].].].].].].].].].].].].].].].].].].].].].].].].].].|.].].|.|.].].{.].].|.].].].].|.].].{.{.].].].].{.].{.].].].{.].{.].|.{.].].].].{.C.&                                   YXYXYXYXYX",
"YXYXYXYXYXYXYXYXYXYXYXYXYXYXYX          [.].].].].].].].].].j                                                             YXYXYXYXYXYXYXYXYXYXYXYXYXYXYXYXYXYXYXYXYXYXYXYXYXYXYXYXYXYXYXYXYXYXYXYXYXYXYXYXYXYXYXYXYXYXYXYXYX].].].].].].].].].].].].].].].].].|.].].].].].].].].].].].].].].].].].].].].].].|.|.].].].].].].|.|.].].|.].].|.|.].].].|.].].].|.].].].|.{.].].].{.].].{.].{.].|.|.{.].{.].].{.].].{.].{.].{.|.{.|.].{.].|.].{.].{.|.|.|.|.{.].].].{.{.].].{.{.].{.|.c.                                    YXYXYXYX",
"YXYXYXYXYXYXYXYXYXYXYXYXYXYXYX          ].].].].].].].].].].k                                                         YXYXYXYXYXYXYXYXYXYXYXYXYXYXYXYXYXYXYXYXYXYXYXYXYXYXYXYXYXYXYXYXYXYXYXYXYXYXYXYXYXYXYXYXYXYXYXYXYXYX].{.{.].].|.].{.].].{.].].{.].].{.].{.].].].|.].].].].].].{.].].].{.|.].].].].{.].].].{.].].{.].{.|.|.].{.{.].].].|.|.].].{.].].].|.|.].].].{.{.].].{.{.].].{.{.{.|.|.{.].{.{.].].}.].{.].].{.].].}.].|.|.|.{.{.{.{.{.{.{.].{.].{.{.].{.{.].{.{.].{.].{.{.V                                     YXYXYX",
"YXYXYXYXYXYXYXYXYXYXYXYXYXYXYX          ].{.].].{.].].].{.].j                                                       YXYXYXYXYXYXYXYXYXYXYXYXYXYXYXYXYXYXYXYXYXYXYXYXYXYXYXYXYXYXYXYXYXYXYXYXYXYXYXYXYXYXYXYXYXYXYXYXYXYXYX].].].].{.].].].{.{.].{.].].{.{.].].{.{.{.{.].}.].}.].}.].{.].|.}.].|.}.].}.{.{.].{.{.{.{.|.].|.|.|.|.].].{.].}.{.{.].}.}.].{.}.{.|.{.{.{.{.].{.{.{.{.{.{.{.{.].{.{.|.].{.{.].}.].].{.].}.{.].}.].].{.{.{.|.{.{.].|.{.].{.].{.{.{.].}.].{.}.].].}.].}.{.{.l.                                      YXYX",
"YXYXYXYXYXYXYXYXYXYXYXYXYXYXYX          ].].{.].].].{.].].].j                                                     YXYXYXYXYXYXYXYXYXYXYXYXYXYXYXYXYXYXYXYXYXYXYXYXYXYXYXYXYXYXYXYXYXYXYXYXYXYXYXYXYXYXYXYXYXYXYXYXYXYXYXk.].{.|.{.{.].{.].{.{.{.].{.{.|.].].{.].{.].].{.].{.{.{.].{.}.].}.].{.|.].{.{.].{.].].{.].{.{.{.{.{.{.{.}.{.}.].].{.|.{.].{.{.].{.].{.{.{.{.{.{.].{.{.{.{.].{.{.{.{.{.{.{.{.{.{.}.].].{.}.}.|.{.}.].}.{.{.{.{.{.{.{.{.{.{.{.{.{.|.{.{.{.}.}.].].}.].}.}.{.{.C.%                                       YX",
"YXYXYXYXYXYXYXYXYXYXYXYXYXYXYX          ].{.].].{.].{.].{.|.j                                                     YXYXYXYXYXYXYXYXYXYXYXYXYXYXYXYXYXYXYXYXYXYXYXYXYXYXYXYXYXYXYXYXYXYXYXYXYXYXYXYXYXYXYXYXYXYXYXYXYXYXYXE.{.{.{.{.{.{.{.{.{.{.].|.{.{.{.}.{.{.{.}.{.}.].{.{.].}.{.{.].}.].}.{.{.].}.{.|.{.}.{.{.{.{.{.{.{.{.{.{.{.{.].}.].}.{.{.{.{.{.{.{.}.{.{.{.|.{.{.{.{.{.{.{.{.{.{.{.{.{.{.{.{.{.{.].}.}.|.].E.}.{.{.}.].}.{.}.{.{.{.{.{.{.{.}.{.{.{.{.}.{.}.].}.}.].}.}.].{.{.{.b                                         ",
"YXYXYXYXYXYXYXYXYXYXYXYXYXYXYX          |.|.{.{.].{.|.{.{.].k                                                   YXYXYXYXYXYXYXYXYXYXYXYXYXYXYXYXYXYXYXYXYXYXYXYXYXYXYXYXYXYXYXYXYXYXYXYXYXYXYXYXYXYXYXYXYXYXYXYXYXYXYX  {.|.{.{.{.{.{.{.{.{.{.{.{.{.{.{.{.{.}.{.{.].}.{.].}.].].{.{.{.}.{.{.}.{.}.}.].}.|.{.{.{.{.{.{.{.{.{.{.{.}.}.].}.{.{.{.{.}.}.{.{.{.{.{.{.}.{.{.{.{.{.{.{.{.{.{.{.}.{.}.{.}.{.|.}.{.{.{.}.}.}.}.}.}.{.}.{.{.}.|.{.{.{.{.{.{.{.|.}.}.|.{.}.{.{.}.].}.{.}.{.|.}.{.V                                         ",
"YXYXYXYXYXYXYXYXYXYXYXYXYXYXYX          {.{.{.{.{.{.{.{.{.{.h                                                   YXYXYXYXYXYXYXYXYXYXYXYXYXYXYXYXYXYXYXYXYXYXYXYXYXYXYXYXYXYXYXYXYXYXYXYXYXYXYXYXYXYXYXYXYXYXYXYXYXYX    E.{.{.{.{.{.{.{.{.{.{.{.{.{.{.}.{.{.{.{.{.}.}.{.{.}.}.}.}.{.}.].{.{.{.{.}.{.].}.{.}.}.}.{.{.}.E.{.}.}.{.].}.{.}.{.}.}.}.{.{.}.{.}.{.}.{.{.}.{.}.}.{.}.{.}.{.}.}.{.{.{.}.}.{.}.{.}.}.{.}.|.].}.|.}.{.{.}.}.{.}.}.}.}.}.}.}.E.}.}.{.}.}.{.}.}.}.}.}.}.}.}.}.}.{.b                                         ",
"YXYXYXYXYXYXYXYXYXYXYXYXYXYXYX          {.{.{.{.{.{.{.}.{.{.j                                                   YXYXYXYXYXYXYXYXYXYXYXYXYXYXYXYXYXYXYXYXYXYXYXYXYXYXYXYXYXYXYXYXYXYXYXYXYXYXYXYXYXYXYXYXYXYXYXYXYXYX    {.{.}.{.}.{.}.{.{.}.{.{.{.{.{.{.}.{.}.{.}.{.{.}.].}.|.}.}.{.}.{.{.}.}.{.}.].}.}.{.{.}.{.{.}.}.}.{.}.{.}.}.}.}.{.}.{.}.{.}.{.}.{.{.}.}.}.{.}.}.}.{.}.}.{.}.}.}.{.}.}.}.}.}.}.}.{.{.}.}.{.}.}.}.}.}.}.}.}.}.}.{.}.}.}.}.}.}.}.}.}.}.}.}.}.}.}.}.}.}.}.}.}.}.}.}.b                                         ",
"YXYXYXYXYXYXYXYXYXYXYXYXYXYXYX          {.{.{.{.{.}.{.{.{.{.h                                                   YXYXYXYXYXYXYXYXYXYXYXYXYXYXYXYXYXYXYXYXYXYXYXYXYXYXYXYXYXYXYXYXYXYXYXYXYXYXYXYXYXYXYXYXYXYXYXYXYX      E.}.{.}.}.}.{.}.}.{.}.}.}.}.}.}.}.}.{.}.}.}.}.{.}.}.}.}.}.{.}.}.{.}.}.}.}.}.}.}.}.}.}.}.}.}.|.}.}.}.}.{.}.}.}.{.}.{.}.}.}.}.}.}.}.}.}.}.}.}.}.}.}.}.}.}.}.}.}.}.}.}.}.}.}.}.}.}.}.}.}.}.}.}.}.}.}.E.}.}.}.}.}.}.}.}.}.}.}.}.}.}.}.}.}.}.}.}.}.}.}.}.}.}.}.}. Xb                                         ",
"YXYXYXYXYXYXYXYXYXYXYXYXYXYXYX          {.{.}.{.}.{.{.}.}.{.h                                                 YXYXYXYXYXYXYXYXYXYXYXYXYXYXYXYXYXYXYXYXYXYXYXYXYXYXYXYXYXYXYXYXYXYXYXYXYXYXYXYXYXYXYXYXYXYXYXYXYXYX      {.}.}.{.}.}.}.}.}.}.}.}.}.}.}.}.{.}.}.}.}.}.}.}.}.}.}.}.}.}.}.}.}.}.}.}.}.}.}.}.}.}.}.}.}.}.}.}.}.}. X}.}.}.}.}.}.}.}.}.}.}.{.}.}.}.}.}.}.}.}.}.}.}.}.}. X}.}.}.}.}.}.}.}.}. X}.}.}.}.}.}.}.}.}.}.}.}.~.}.}. X}. X}.}.}. X}.}. X X}.}.}.}.}.}.}.}. X}.}.}.}.}.h                                         ",
"YXYXYXYXYXYXYXYXYXYXYXYXYXYXYX          }.}.}.{.{.}.}.}.}.{.h                                                 YXYXYXYXYXYXYXYXYXYXYXYXYXYXYXYXYXYXYXYXYXYXYXYXYXYXYXYXYXYXYXYXYXYXYXYXYXYXYXYXYXYXYXYXYXYXYXYXYX        E.}.}.}.}.}.}.}.}.}.}.}.}.}.}.}. X}.}.}.}.}.}.}.}.}.}.}.}.}.}.}.}.}.}.}.}.}.}.}.}.}.~.}.}.}.}.}.}.}.}.}.}.}.E.}.}.}.}.}.~.}.}.}.}.~.}.}.E.}. X}.}.~.}.}.}.}.}. X X}. X}.}. X}.}.}. X}. XE.}.~.}.}.}.}.}.}. X}.}. X}. X}.}. X}.}.}.}. X X}.}.}.~. X}. X}. X X}.k                                         ",
"YXYXYXYXYXYXYXYXYXYXYXYXYXYXYX          E.}.}.}.E.}.}.}.}.{.h                                                 YXYXYXYXYXYXYXYXYXYXYXYXYXYXYXYXYXYXYXYXYXYXYXYXYXYXYXYXYXYXYXYXYXYXYXYXYXYXYXYXYXYXYXYXYXYXYXYXYX        E.}.}.~.}.}.}.}.}.}.}.}.}.}.}. X}.}.}. X}.}.}.~.}.}.}.}. X}.}.}. X}. X X}.}.}.}.}.}.}.}. X}. X X X X}.}.}.}.}.}.}.}.}.~.}.}.~.}.}.}.}.}.}.}.}.}. X}.}. X}.}. X X}.}.}.}. X X X}. X X X X~.}.}.}.}.}.}.~. X X X X X X X}.}. X X}. X X X X}.~.}.~. X}. X X X X}.k                                         ",
"YXYXYXYXYXYXYXYXYXYXYXYXYXYXYX          }.}.}.}.}.}.}.}.}.}.h                                                 YXYXYXYXYXYXYXYXYXYXYXYXYXYXYXYXYXYXYXYXYXYXYXYXYXYXYXYXYXYXYXYXYXYXYXYXYXYXYXYXYXYXYXYXYXYXYXYX          ~.}.}.}.}.}.}.~. X}. X}. X}. X}. X}. X X}.}.}.}.~.}.}.~.}.}. X X}. X}.}.E.~.~.}.~.}.~.}.}. X}. X X}. X X~.}.~.}.~.}.~.}.~.}.}.}.}.~.~.}. X X X X X}. X X X X X X X X X X X}. X}. X X X X}.~.~.}.~.}.~.}. X X/. X X}. X X X X X X X X X X}.}.~.}. X X X X X X~.d                                         ",
"YXYXYXYXYXYXYXYXYXYXYXYXYXYXYX          {.~.{.}.}.~.}.}.}.{.h                                                 YXYXYXYXYXYXYXYXYXYXYXYXYXYXYXYXYXYXYXYXYXYXYXYXYXYXYXYXYXYXYXYXYXYXYXYXYXYXYXYXYXYXYXYXYXYXYXYX          E.~.}.}.~.}. X}. X}. X X X X X X X X X X X X}. X}.}.~.}.}. X X}.}. X X}.}. X X}.}.}.}.~. X X X X X X X X X X X X}.~.}.~.}.~.}.}. X X X X~. X X X X X X X X X X X X X X X X X X X X X X X X X X X~.}.~.}. X X X X X X X X X X X X XzX X X~.}.}.~.~.}.}.~. X X}.d                                         ",
"YXYXYXYXYXYXYXYXYXYXYXYXYXYXYX          ~.}.}.~.}.}.}.}.~.~.h                                                 YXYXYXYXYXYXYXYXYXYXYXYXYXYXYXYXYXYXYXYXYXYXYXYXYXYXYXYXYXYXYXYXYXYXYXYXYXYXYXYXYXYXYXYXYXYXYXYX          }.~.}.~.}.~.}.~.}.~.}. X X X X X X X X X X X X X~.}.}.~. X X X X~. X X X~. X X X~.~.~.}. X X X X X X X X X X X X~.}.~.}.~.}.~.~./. X X X~. X X X X X X X X X X X X X X X X X X X X X X X X X X~.}.~.~.~. X X X X X X X X X X X X X X X X~.~.}.~.~.~.~.}.~. X}.d                                         ",
"YXYXYXYXYXYXYXYXYXYXYXYXYXYXYX          }.}.}.}.~.}.}.~.}.}.h                                                 YXYXYXYXYXYXYXYXYXYXYXYXYXYXYXYXYXYXYXYXYXYXYXYXYXYXYXYXYXYXYXYXYXYXYXYXYXYXYXYXYXYXYXYXYXYXYXYX          E.~.}.~.~.~.}.}.~. X}. X X X X X X X X X X X~. X~.}.~.}. X X~. X X~. X X X X X X~.}. X~. X~. X~. X X X~. X}.~. X~.}.~.}.}.~. X X X X X X}. X X X X X X~./. X X X X X X). X X X X~. X~. X X~.}.~.~.}.}.~. X X X X X X X~.~. X X X X X/. X}.~.}.~.~.~.~.~. X X~.d                                         ",
"YXYXYXYXYXYXYXYXYXYXYXYXYXYXYX          ~.}.~.~.}.~.~.}.~.~.h                                                 YXYXYXYXYXYXYXYXYXYXYXYXYXYXYXYXYXYXYXYXYXYXYXYXYXYXYXYXYXYXYXYXYXYXYXYXYXYXYXYXYXYXYXYXYXYXYX            E.~.~.~.~.}.~.~.~.~.~. X X X X X X X X X~. X~.}.~.~.~.~.~. X X X X X~. X X~. X~. X~.~.}.~. X X X~. X X X~.~.~.}.~.~.~.~.~.~./. X/. X X/. X X/. X~.~. X~. X X X). X X X X X X X X X~. X X~. X~.~.~.~.~.~. X X X XzX X X~.~. X/. X X X X X~.~.~.~.}.~.~.~.~.~.~.d                                         ",
"YXYXYXYXYXYXYXYXYXYXYXYXYXYXYX          }.~.}.}.~.~. X X X~.h                                                 YXYXYXYXYXYXYXYXYXYXYXYXYXYXYXYXYXYXYXYXYXYXYXYXYXYXYXYXYXYXYXYXYXYXYXYXYXYXYXYXYXYXYXYXYXYXYX            E.~.~.}.~. X~.~./. X X/. X X X X X~.~.~. X X X~. X X/. X X X X/. X X X X XzX~. X~. X X X X X X~. XzX X X~. X X~. XzX~. X~. X~. X XzX X~././.~. X X/. X). X X X). X). X X XzX). X X X XzX X X/./. X X/. X X). X X/. X X/.~.~.~.~.~. X X/./. X/. X~.~./.~.~.~.~.d                                         ",
"YXYXYXYXYXYXYXYXYXYXYXYXYXYXYX          ~.}.~.~.~.}. X~. X~.h                                                 YXYXYXYXYXYXYXYXYXYXYXYXYXYXYXYXYXYXYXYXYXYXYXYXYXYXYXYXYXYXYXYXYXYXYXYXYXYXYXYXYXYXYXYXYXYXYX            ~.~.~.~. X~.~./. X X/. X X XzX X~. X~.~.~.~.~.~./. X/. X XzX X X/. X XzX X/.~.~.~.~. XzX XzX X/. X X X/.~.~.~.~. X X~.~.~.~. XzX X X X~. X/. X/./. X X/./. X). X X X X). X X X X). X X X/./. X/. X). X).). X XzX X).zX X~.~. X/. X/./. X X/. X/.~.~.~./.~.~.~.d                                         ",
"YXYXYXYXYXYXYXYXYXYXYXYXYXYXYX          ~.~.~.~.~.~.~. X~.}.v                                                 YXYXYXYXYXYXYXYXYXYXYXYXYXYXYXYXYXYXYXYXYXYXYXYXYXYXYXYXYXYXYXYXYXYXYXYXYXYXYXYXYXYXYXYXYXYXYX            (.~.~.~. X X/. X/. X/. X XzX X X~.~.~.~.~.~.~.~./. X~.~. X X X X XzX X X/. X/./.~.~.~. X X X/. XzX XzX X X X~.~.~. XzX X~.~.~. X~.zX/././. X/. X X/. X X). X X). X). X). X XzX).). X). X/. X/. X/. X/. X X X X XzX X X X/././.~.zX/. X~.)./.~. X X/././.~./.~.s                                         ",
"YXYXYXYXYXYXYXYXYXYXYXYXYXYXYX          ~.~.~.~.~.~. X~.~.~.v                                                 YXYXYXYXYXYXYXYXYXYXYXYXYXYXYXYXYXYXYXYXYXYXYXYXYXYXYXYXYXYXYXYXYXYXYXYXYXYXYXYXYXYXYXYXYXYXYX            /. X~.~.). X/. X/./. X X X X~.~.~.~.~.~.~.~.~.~. X/.~.~. XzX XzX X X XzX X/. X X~./. X XzX XzX X X X X XzX X~.~.zX X X X/./.~. X X X X~. X/./.~././././. X X). X). X). XzX X X X/.). X)./. X/.~././.). XzX XzX X X/. XzX~./.~./. X/. XzX/././././././././.~.~.d                                         ",
"YXYXYXYXYXYXYXYXYXYXYXYXYXYXYX          ~.~.~.~.~.~.~.~.~.~.h                                                 YXYXYXYXYXYXYXYXYXYXYXYXYXYXYXYXYXYXYXYXYXYXYXYXYXYXYXYXYXYXYXYXYXYXYXYXYXYXYXYXYXYXYXYXYXYXYX            (.~./.~. X). X)./././.).zXzX~. X/./.~./.~./.~./.~./.~./.zX X X X X XzX X/.~././././././. X XzX X XzX/.~. X X X XzX X X/.zX X X/.zXzX X/././././././././.).).). X). X X). X XzX X). X).)./././.~././././. X X X)././././././. X/././.~././. X).)./././.)./././.s                                         ",
"YXYXYXYXYXYXYXYXYXYXYXYXYXYXYX          ~.~.~.~.~./.~.~.~.~.v                                                 YXYXYXYXYXYXYXYXYXYXYXYXYXYXYXYXYXYXYXYXYXYXYXYXYXYXYXYXYXYXYXYXYXYXYXYXYXYXYXYXYXYXYXYXYXYXYX            ~.~././.). XzX X/. X/. X X X~.zX/././././././.~./././.~. X XzXzXzX XzX X/./. X/././.~././.zX X X/././.~. XzXzX XzX XzX X X XzX~. X XzX X/./././././././.). X). XzX X). XzXzX X X X).zX X X~./.zX/./././.zX).)./././././././.zX/././././././.)././././././././.d                                         ",
"YXYXYXYXYXYXYXYXYXYXYXYXYXYXYX          ~./.~././.~./.~.~.~.v                                                 YXYXYXYXYXYXYXYXYXYXYXYXYXYXYXYXYXYXYXYXYXYXYXYXYXYXYXYXYXYXYXYXYXYXYXYXYXYXYXYXYXYXYXYXYXYXYX            ~./././. X). X)././. XzX X X X X/././././././.zX X~. XzXzX X X X XzX XzX/././././././././. X XzX X XzXzXzX XzX X/. X/./.zX X XzX X/./.zX/./././././././.). X).). XzX).). XzX XzX XzX XzX/.zX/.zX/./.zX~.). X/.)././.zX X/././././././.zXzX X/.)././././././._.d                                         ",
"YXYXYXYXYXYXYXYXYXYXYXYXYXYXYX          ~././././././././.~.v                                                 YXYXYXYXYXYXYXYXYXYXYXYXYXYXYXYXYXYXYXYXYXYXYXYXYXYXYXYXYXYXYXYXYXYXYXYXYXYXYXYXYXYXYXYXYXYXYX            (./././.zX X)./.). XzX XzXzX XzX/./././. XzX/. XzX/.zX X XzXzX XzX XzX X/./.zX/./././.~./.zXzX XzX/./. X XzX XzX/.zXzX X XzXzX XzXzX X X/.zX/./.~.zX/./.).).).).zX X).).zX XzX XzX XzX X/.zX X XzX/././. XzX/./.zX/./.zX/./.zX/./.zX/./.).).zX X/.zX/.zX/./.^.d                                         ",
"YXYXYXYXYXYXYXYXYXYXYXYXYXYXYX          /././.^././././././.v                                                 YXYXYXYXYXYXYXYXYXYXYXYXYXYXYXYXYXYXYXYXYXYXYXYXYXYXYXYXYXYXYXYXYXYXYXYXYXYXYXYXYXYXYXYXYXYXYX            ^./.zX/. XzX X). XzX XzX/./.zX/./.zX/./. X~./././././././.(.M.V.m.m.m.m.m.m.m.m.m.m.m.m.m.m.m.m.m.m.m.m.m.m.m.m.m.m.m.m.M.M.M.V.m.m.m.m.m.m.m.M.m.m.M.m.M.m.M.m.M.m.M.M.M.M.M.M.M.M.M.M.M.M.M.M.M.M.M.M.!.^././.).).).).)./.zX/././.zX/.).).).).).).).).zX/./.s                                         ",
"YXYXYXYXYXYXYXYXYXYXYXYXYXYXYX          /././.)././././././.v                                                 YXYXYXYXYXYXYXYXYXYXYXYXYXYXYXYXYXYXYXYXYXYXYXYXYXYXYXYXYXYXYXYXYXYXYXYXYXYXYXYXYXYXYXYXYXYXYX            /./././.).).zXzXzX X X)././././././././.zXzX/./././.zX^.X.O                                                                                                                                               c !.zX).).).).).zXzX/.zX/./.zX X).).).).).zX)././.).l                                         ",
"YXYXYXYXYXYXYXYXYXYXYXYXYXYXYX          /.zX/./././././././.N                                                 YXYXYXYXYXYXYXYXYXYXYXYXYXYXYXYXYXYXYXYXYXYXYXYXYXYXYXYXYXYXYXYXYXYXYXYXYXYXYXYXYXYXYXYXYXYXYX            ^./.).). X XzX XzX XzXzX/.zX).).zX~./.zXzX/./.zXzX/./.d.                                                                                                                                                    6 (.).).).).).)./.zXzX/.zX/.zX).).).zX X XzX/.zX^.s                                         ",
"YXYXYXYXYXYXYXYXYXYXYXYXYXYXYX          /./.).).zX/.zX/.)./.v                                                 YXYXYXYXYXYXYXYXYXYXYXYXYXYXYXYXYXYXYXYXYXYXYXYXYXYXYXYXYXYXYXYXYXYXYXYXYXYXYXYXYXYXYXYXYXYXYX            /.zX).).zXzX).)./.zXzX XzX).).)./.zXzX/.zX/./.zX/.zXW.6                                                                                                                                                       b.).).zX).)./.zX/./.zX/.zXzX).zX).zXzX).zXzX/.zXs                                         ",
"YXYXYXYXYXYXYXYXYXYXYXYXYXYXYX          ).).).).).).)./.).^.v                                                 YXYXYXYXYXYXYXYXYXYXYXYXYXYXYXYXYXYXYXYXYXYXYXYXYXYXYXYXYXYXYXYXYXYXYXYXYXYXYXYXYXYXYXYXYXYXYX            ^.).).)./.zXzX).zXzXzX/.).).).).).).zX/.zX/.zX/.).).!.                                                                                                                                                        o./.zXzX).zX).zX/.zXzXzX/.zX XzX).).).).zXzX).).l                                         ",
"YXYXYXYXYXYXYXYXYXYXYXYXYXYXYX          ).).).).).).).).).zXv                                                 YXYXYXYXYXYXYXYXYXYXYXYXYXYXYXYXYXYXYXYXYXYXYXYXYXYXYXYXYXYXYXYXYXYXYXYXYXYXYXYXYXYXYXYXYXYXYX            ^.).zX).zXzX XzXzX XzXzXzX).zX).zX)./.zX/.zX XzX).zX!.                                                                                                                                                        X./.zX).zXzXzXzX)./.zX/.zXzXzX).zXzXzXzX).).zXzXs                                         ",
"YXYXYXYXYXYXYXYXYXYXYXYXYXYXYX          ).).).).zX).).zX).).N                                                 YXYXYXYXYXYXYXYXYXYXYXYXYXYXYXYXYXYXYXYXYXYXYXYXYXYXYXYXYXYXYXYXYXYXYXYXYXYXYXYXYXYXYXYXYXYXYX            zX/. XzXzX X XzXzX X XzXzX).).).).zX).zXzXzXvXzX).).Q.s                                                                                                                                                       M.).zX).).).zX).zXzXzXzXzXzXzXzX).zXzXzXzX).zX).l                                         ",
"YXYXYXYXYXYXYXYXYXYXYXYXYXYXYX          ).zX).).zX).).).zX).v                                                 YXYXYXYXYXYXYXYXYXYXYXYXYXYXYXYXYXYXYXYXYXYXYXYXYXYXYXYXYXYXYXYXYXYXYXYXYXYXYXYXYXYXYXYXYXYXYX            ).zXzXzXzXzXzXzXzXzXzXzX).zXzXzXzX).zX)././.zXzXlX).).N..                                                                                                                                                   B zXzXzXzXzXzXzXzXzX).zXzXzXzXzXzX).zXzX).zXzXzXzXl                                         ",
"YXYXYXYXYXYXYXYXYXYXYXYXYXYXYX          ).).zX/.zX/.zXzXzX_.v                                                 YXYXYXYXYXYXYXYXYXYXYXYXYXYXYXYXYXYXYXYXYXYXYXYXYXYXYXYXYXYXYXYXYXYXYXYXYXYXYXYXYXYXYXYXYXYXYX            _.zXzX/.zXzX/.zXzXzXzXzXzX XzXzX).zX).zXzXzXzX/.zXzXzX^.N.s                                                                                                                                             & O.Q.).vX).vX_.vX).vX_.vX_.zXzXzXzXzXzXzXzXzXzXzX).lXs                                         ",
"YXYXYXYXYXYXYXYXYXYXYXYXYXYXYX          ).zX/.zXzXzXzX_.zX/.v                                                 YXYXYXYXYXYXYXYXYXYXYXYXYXYXYXYXYXYXYXYXYXYXYXYXYXYXYXYXYXYXYXYXYXYXYXYXYXYXYXYXYXYXYXYXYXYXYX            _.zXzXzXzXzXzXzXzXzXzX/.zXzXzXzXzXzXzXzXzXzXzXzXzXzXzXzXzX^.W.W.W.W.W.W.Q.W.W.Q.W.Q.Q.Q.Q.Q.Q.Q.Q.Q.Q.Q.Q.Q.Q.Q.Q.Q.Q.Q.Q.Q.Q.Q.Q.Q.Q.Q.Q.Q.Q.Q.Q.Q.Q.Q.Q.Q.Q.Q.Q.Q.Q.Q.Q.Q.Q.Q.Q.Q.Q.^.Q.Q.Q.Q.Q.Q.Q.Q.^._.vXvXvXvX_.lXzXzXzXzXzXzXzXzXzXzXzXzXzXzXzXzXzXzXlXs                                         ",
"YXYXYXYXYXYXYXYXYXYXYXYXYXYXYX          lXzX/.zX/.zX/.lXzXzXN                                                 YXYXYXYXYXYXYXYXYXYXYXYXYXYXYXYXYXYXYXYXYXYXYXYXYXYXYXYXYXYXYXYXYXYXYXYXYXYXYXYXYXYXYXYXYXYXYX            _.zXzXzXzXzXzXzXzXzXzXzXzXzXzXzXzXzXzXzXzXzXzXzXzXzXzXzXzXzXzXzXvXzXzXzXzXzXvXzXzXzXzXzXzXzXzXzXzXzXzXzXzXzXzXzXzXzXzXzXzXzXzXzXzXzXzXzXzXzXzXzXzXzXzXzXzXzXxXzXvXzXzXzXvXvXzXzXzXzXzXzXlXlXzXzXlXzXzXzXvX)._.vX).vXzXzXzXvXvXzXvXzXzXlXzXzXlXlXlXzXzXzXzXlXzXl                                         ",
"YXYXYXYXYXYXYXYXYXYXYXYXYXYXYX          zXzXlXzXlXzXzXzXzX).N                                                 YXYXYXYXYXYXYXYXYXYXYXYXYXYXYXYXYXYXYXYXYXYXYXYXYXYXYXYXYXYXYXYXYXYXYXYXYXYXYXYXYXYXYXYXYXYXYX            zXzXzXzXzXzXzXzXzXzXzXzXzXzXzXzXvXzXzXzXzXzXzXzXzXzXzXzXzXzXzXzXvXzXzXzXzXzXxXzXzXzXzXxXzXxXzXzXzXzXvXzXzXxXzXzXzXzXzXvXzXzXlXzXzXlXzXzXvXzXzXvXcXzXzXvXlXzXzXzXvXzXvXzXzXzXzXvXzXvXzXcXlXzXzXcXzXlXlXlXvXvXvXvXzXvXzXvXzXzXzXzXvXzXvXzXzXzXzXzXzXvXzXvXlXlXzXl                                         ",
"YXYXYXYXYXYXYXYXYXYXYXYXYXYXYX          zXzXzXzXzXzXzXzXzXzXv                                                 YXYXYXYXYXYXYXYXYXYXYXYXYXYXYXYXYXYXYXYXYXYXYXYXYXYXYXYXYXYXYXYXYXYXYXYXYXYXYXYXYXYXYXYXYXYXYX            zXzXlXzXzXlXzXzXzXzXvXzXzXzXlXzXlXzXlXzXzXzXxXzXzXzXzXvXzXvXzXzXzXxXzXvXzXvXzXxXzXzXzXzXxXzXzXxXvXzXvXzXxXzXzXzXzXzXzXvXcXzXzXcXzXzXzXxXvXzXvXzXzXzXzXzXzXxXzXzXzXzXvXzXvXzXxXzXzXzXzXzXlXlXzXcXvXzXvXzXvXvXlXlXvXvXvXvXvXvXvXzXvXzXxXzXlXzXcXzXcXzXlXlXlXlXlXl                                         ",
"YXYXYXYXYXYXYXYXYXYXYXYXYXYXYX          zXzXzXzXzXzXzXzXzXzXN                                                 YXYXYXYXYXYXYXYXYXYXYXYXYXYXYXYXYXYXYXYXYXYXYXYXYXYXYXYXYXYXYXYXYXYXYXYXYXYXYXYXYXYXYXYXYXYXYX            zXzXlXlXvXzXzXcXzXcXzXzXvXzXzXzXzXvXzXzXxXvXzXzXzXvXvXzXvXzXxXlXxXzXvXzXzXvXvXzXxXxXvXvXxXzXxXzXzXxXvXxXxXvXxXxXxXvXxXzXcXlXzXzXzXvXvXzXvXzXxXlXzXcXzXcXvXzXxXxXxXvXvXvXvXxXlXxXcXzXcXzXcXzXlXzXlXvXxXlXzXvXvXlXlXxXlXlXxXzXxXxXxXxXxXxXvXcXzXzXzXcXzXcXxXxXlXl                                         ",
"YXYXYXYXYXYXYXYXYXYXYXYXYXYXYX          lXlXxXzXlXlXlXzXzXlXN                                                 YXYXYXYXYXYXYXYXYXYXYXYXYXYXYXYXYXYXYXYXYXYXYXYXYXYXYXYXYXYXYXYXYXYXYXYXYXYXYXYXYXYXYXYXYXYXYX            lXlXlXlXzXzXcXvXcXzXzXzXvXzXvXvXxXzXxXxXxXlXlXzXvXzXvXvXlXlXlXxXlXxXxXlXvXxXzXxXlXlXxXzXzXvXxXxXxXlXxXlXlXlXlXvXxXvXxXxXzXcXzXcXvXvXvXxXxXxXzXvXvXzXcXzXvXxXxXxXxXxXxXxXxXvXxXxXvXcXcXzXcXzXcXzXxXxXvXlXxXxXvXvXxXxXxXxXxXxXxXxXxXvXxXvXcXzXzXcXcXzXcXzXxXxXxXl                                         ",
"YXYXYXYXYXYXYXYXYXYXYXYXYXYXYX          xXzXzXzXzXlXlXlXxXlXN                                                 YXYXYXYXYXYXYXYXYXYXYXYXYXYXYXYXYXYXYXYXYXYXYXYXYXYXYXYXYXYXYXYXYXYXYXYXYXYXYXYXYXYXYXYXYXYXYX            lXlXxXlXcXlXzXzXcXzXcXzXvXvXxXvXxXxXxXvXvXxXxXxXxXvXxXvXxXvXxXxXzXxXvXxXxXvXxXxXxXvXxXxXvXxXlXvXxXvXxXxXvXxXxXvXxXxXxXvXcXzXcXzXcXvXxXxXxXxXcXzXcXcXlXcXxXxXxXxXxXxXvXxXxXxXxXvXzXcXzXcXzXcXvXcXxXxXxXxXxXxXxXxXxXxXxXxXxXxXxXxXxXxXxXxXvXcXcXzXcXlXcXcXxXcXxXl                                         ",
"YXYXYXYXYXYXYXYXYXYXYXYXYXYXYX          lXlXzXxXlXlXlXxXlXlXN                                                 YXYXYXYXYXYXYXYXYXYXYXYXYXYXYXYXYXYXYXYXYXYXYXYXYXYXYXYXYXYXYXYXYXYXYXYXYXYXYXYXYXYXYXYXYXYXYX            lXlXxXxXlXzXlXvXvXcXzXcXcXxXxXvXvXvXvXvXxXxXxXxXvXvXvXxXxXxXvXxXvXxXxXxXxXxXxXxXvXvXcXcXxXxXlXxXxXxXxXxXxXxXxXxXxXxXxXcXvXlXzXcXxXlXcXzXvXxXxXxXcXvXxXcXxXxXxXcXxXcXxXxXxXxXvXcXxXxXcXvXvXvXvXvXvXcXxXcXcXxXxXcXxXcXvXxXcXvXvXvXcXvXvXcXcXzXcXcXvXcXvXvXcXcXxXz                                         ",
"YXYXYXYXYXYXYXYXYXYXYXYXYXYXYX          lXxXxXzXxXxXxXxXxXlXN                                                 YXYXYXYXYXYXYXYXYXYXYXYXYXYXYXYXYXYXYXYXYXYXYXYXYXYXYXYXYXYXYXYXYXYXYXYXYXYXYXYXYXYXYXYXYXYXYX            lXxXxXxXcXlXvXvXlXcXcXzXvXxXxXxXxXcXvXvXxXxXxXcXcXcXcXxXcXxXxXcXvXcXcXxXxXxXcXxXcXcXvXvXxXxXcXxXcXxXxXcXxXxXxXcXcXvXvXcXcXcXcXzXcXcXvXcXcXxXcXcXcXvXcXxXxXcXcXvXxXcXcXxXcXcXcXxXcXxXcXcXcXcXcXcXvXcXxXcXxXcXxXxXcXxXcXcXcXcXvXcXcXcXxXcXcXcXcXzXcXvXcXcXcXvXcXl                                         ",
"YXYXYXYXYXYXYXYXYXYXYXYXYXYXYX          xXlXxXcXxXxXxXxXxXxXN                                                 YXYXYXYXYXYXYXYXYXYXYXYXYXYXYXYXYXYXYXYXYXYXYXYXYXYXYXYXYXYXYXYXYXYXYXYXYXYXYXYXYXYXYXYXYXYXYX            lXcXxXcXlXcXlXcXcXlXcXcXxXxXxXcXxXcXcXvXcXxXxXcXxXvXcXcXcXxXcXxXcXxXvXcXcXcXxXcXxXcXxXxXcXxXcXxXcXxXcXxXcXcXvXcXcXxXcXcXcXxXcXcXcXzXcXcXcXxXxXcXcXxXvXcXcXxXxXcXcXcXcXcXxXcXxXcXcXvXxXcXcXcXcXcXcXcXcXcXcXcXcXcXxXcXcXcXcXcXcXcXcXcXxXcXcXcXcXcXcXcXcXcXcXcXcXl                                         ",
"YXYXYXYXYXYXYXYXYXYXYXYXYXYXYX          xXcXxXxXxXxXxXxXxXxXN                                                 YXYXYXYXYXYXYXYXYXYXYXYXYXYXYXYXYXYXYXYXYXYXYXYXYXYXYXYXYXYXYXYXYXYXYXYXYXYXYXYXYXYXYXYXYXYXYX            kXxXcXxXcXcXcXcXcXcXcXlXcXcXcXcXxXcXcXcXcXcXxXcXxXcXcXcXcXxXcXcXcXcXcXcXcXxXcXcXcXxXcXcXcXcXcXcXcXcXcXcXcXcXcXcXcXcXvXcXcXcXcXcXcXcXcXcXcXcXcXcXcXcXcXcXcXcXcXcXcXcXcXcXcXcXcXcXcXcXcXcXcXcXcXcXcXcXxXcXcXcXcXcXcXcXcXcXcXcXcXcXcXcXcXcXcXcXvXcXcXcXcXvXcXcXcXz                                         ",
"YXYXYXYXYXYXYXYXYXYXYXYXYXYXYX          xXcXcXxXcXcXxXcXxXxXM                                                 YXYXYXYXYXYXYXYXYXYXYXYXYXYXYXYXYXYXYXYXYXYXYXYXYXYXYXYXYXYXYXYXYXYXYXYXYXYXYXYXYXYXYXYXYXYXYX            lXcXcXxXcXcXcXcXcXcXcXcXcXcXcXxXcXcXcXcXcXcXcXcXcXcXcXcXcXxXcXcXvXcXcXcXcXcXcXcXcXcXcXcXcXcXcXcXcXcXcXcXcXcXcXcXcXcXcXcXcXcXcXcXcXvXcXcXcXcXcXcXcXcXcXcXcXcXcXcXcXcXcXcXcXcXcXcXcXcXcXcXcXcXcXcXcXcXcXcXcXcXcXcXcXcXcXjXcXcXcXcXcXcXcXcXcXcXNXvXNXvXNXcXcXcXcXz                                         ",
"YXYXYXYXYXYXYXYXYXYXYXYXYXYXYX          xXxXcXcXcXxXcXxXcXxXM                                                 YXYXYXYXYXYXYXYXYXYXYXYXYXYXYXYXYXYXYXYXYXYXYXYXYXYXYXYXYXYXYXYXYXYXYXYXYXYXYXYXYXYXYXYXYXYXYX            hXxXcXcXcXcXcXcXcXcXcXcXcXcXcXcXcXcXcXcXcXcXcXcXcXcXcXcXcXcXcXNXcXcXcXcXcXcXcXcXcXNXcXcXcXNXcXcXcXcXcXcXcXcXcXcXcXcXcXcXcXcXcXcXNXvXNXcXcXcXNXcXcXcXvXNXcXcXcXcXNXcXcXcXcXcXNXcXcXcXcXcXcXcXcXcXcXcXNXcXcXcXNXcXcXcXNXcXcXNXNXcXcXNXcXNXcXNXvXNXcXNXvXNXcXcXcXz                                         ",
"YXYXYXYXYXYXYXYXYXYXYXYXYXYXYX          cXcXxXcXcXcXcXcXcXcXM                                                 YXYXYXYXYXYXYXYXYXYXYXYXYXYXYXYXYXYXYXYXYXYXYXYXYXYXYXYXYXYXYXYXYXYXYXYXYXYXYXYXYXYXYXYXYXYXYX            jXcXcXcXcXcXcXcXcXcXcXcXcXcXcXcXcXcXcXcXcXcXcXcXcXcXcXcXcXcXcXcXcXcXcXcXcXcXcXcXcXcXcXcXcXcXcXcXcXcXcXcXcXNXcXcXNXcXcXcXcXcXcXcXcXNXcXcXcXcXcXcXcXcXcXcXcXcXcXNXcXcXNXcXNXcXcXcXcXNXcXNXcXNXcXcXNXcXNXcXNXcXcXNXcXcXcXcXcXcXcXNXNXcXcXcXNXNXcXvXNXvXNXcXNXcXcXz                                         ",
"YXYXYXYXYXYXYXYXYXYXYXYXYXYXYX          cXcXcXcXcXcXcXcXcXcXN                                                 YXYXYXYXYXYXYXYXYXYXYXYXYXYXYXYXYXYXYXYXYXYXYXYXYXYXYXYXYXYXYXYXYXYXYXYXYXYXYXYXYXYXYXYXYXYXYX            jXcXcXcXNXcXcXNXcXcXcXNXcXNXjXcXcXNXcXNXcXcXcXNXcXBXcXcXcXcXbXcXNXcXNXcXNXcXcXcXcXNXcXNXcXNXcXNXcXNXcXcXcXNXcXcXBXcXcXBXcXbXcXcXcXNXNXcXcXNXNXcXcXbXNXNXcXNXNXcXNXcXcXNXcXNXNXcXNXcXNXcXcXNXNXNXcXNXcXNXcXNXcXNXNXcXNXNXNXcXNXcXNXNXNXcXNXvXNXNXNXNXcXNXcXNXNXz                                         ",
"YXYXYXYXYXYXYXYXYXYXYXYXYXYXYX          cXcXcXcXcXcXNXcXcXcXM                                                 YXYXYXYXYXYXYXYXYXYXYXYXYXYXYXYXYXYXYXYXYXYXYXYXYXYXYXYXYXYXYXYXYXYXYXYXYXYXYXYXYXYXYXYXYXYXYX            cXcXNXcXNXcXcXcXNXcXcXNXcXNXcXcXcXcXcXcXcXNXcXNXNXcXcXNXNXcXNXcXNXcXcXcXNXNXcXNXcXNXcXcXNXcXcXNXcXcXNXcXcXNXcXcXNXcXNXcXNXNXcXNXcXbXNXcXvXNXcXcXNXcXcXNXcXNXNXcXcXNXNXcXNXcXNXcXBXcXcXNXcXBXNXcXNXcXNXcXNXcXNXcXNXNXNXNXcXNXNXcXcXNXNXNXcXNXcXNXNXNXNXNXcXNXNXz                                         ",
"YXYXYXYXYXYXYXYXYXYXYXYXYXYXYX          cXNXcXNXcXcXcXNXcXcXM                                                 YXYXYXYXYXYXYXYXYXYXYXYXYXYXYXYXYXYXYXYXYXYXYXYXYXYXYXYXYXYXYXYXYXYXYXYXYXYXYXYXYXYXYXYXYXYXYX            jXNXcXNXcXNXNXcXcXNXNXcXNXcXNXNXNXNXNXcXNXcXNXNXNXcXNXcXcXNXcXcXcXNXbXcXNXcXcXNXNXcXNXNXNXNXNXcXNXNXNXNXNXNXNXNXNXNXNXNXcXNXNXcXcXNXcXBXBXNXbXNXcXNXNXNXNXcXNXNXNXcXNXNXNXNXNXNXcXNXBXcXBXcXNXcXNXNXNXBXNXcXNXNXNXNXcXNXNXNXNXNXNXNXNXcXNXNXNXNXNXcXNXNXBXNXcXz                                         ",
"YXYXYXYXYXYXYXYXYXYXYXYXYXYXYX          cXcXNXcXNXNXNXcXNXjXM                                                 YXYXYXYXYXYXYXYXYXYXYXYXYXYXYXYXYXYXYXYXYXYXYXYXYXYXYXYXYXYXYXYXYXYXYXYXYXYXYXYXYXYXYXYXYXYXYX            jXcXNXcXNXNXcXNXNXNXNXNXNXcXcXNXNXcXNXNXNXcXNXcXcXBXcXNXbXcXhXjXbXjXjXjXhXhXhXhXjXjXhXhXhXjXhXjXhXhXjXhXhXhXbXcXhXcXhXhXhXhXcXMXhXhXMXcXcXjXjXjXjXjXjXjXjXjXjXjXjXjXjXjXhXhXhXcXcXbXNXNXcXcXBXBXNXNXNXcXNXNXNXNXNXNXNXNXNXNXNXNXNXNXNXNXNXNXNXNXNXNXNXNXNXcXNXz                                         ",
"YXYXYXYXYXYXYXYXYXYXYXYXYXYXYX          NXNXcXNXcXNXcXNXNXcXM                                                 YXYXYXYXYXYXYXYXYXYXYXYXYXYXYXYXYXYXYXYXYXYXYXYXYXYXYXYXYXYXYXYXYXYXYXYXYXYXYXYXYXYXYXYXYXYXYX            jXNXNXNXNXNXNXNXNXNXcXNXNXNXNXNXNXNXNXNXNXNXbXcXBXcXNXcXgXO.] ' M ' ' ' ' ' ' ' ' ] ] ] ] ] ] ] ] ] ] ' ' ' ' ] ] ] ' ' ] ] ] ] ] ] ] ] ] ] ] ] ] ] ] ] ] ] ] ] ] ] ] [ ] ] ] [ n.kXNXNXBXNXcXbXNXNXNXNXNXNXNXNXNXNXNXNXNXNXNXNXNXNXNXNXBXNXNXNXNXNXNXNXBXbXbXz                                         ",
"YXYXYXYXYXYXYXYXYXYXYXYXYXYXYX          cXcXNXNXcXNXNXcXNXNXM                                                 YXYXYXYXYXYXYXYXYXYXYXYXYXYXYXYXYXYXYXYXYXYXYXYXYXYXYXYXYXYXYXYXYXYXYXYXYXYXYXYXYXYXYXYXYXYXYX            cXNXNXNXNXNXNXNXNXNXNXNXNXNXAXNXNXNXAXNXNXNXNXNXNXNXNX0X5                                                                                                                         ] hXNXBXNXNXNXBXNXNXNXNXBXNXNXNXNXBXNXNXNXNXNXNXNXNXBXNXNXNXNXBXNXNXNXBXNXNXz                                         ",
"YXYXYXYXYXYXYXYXYXYXYXYXYXYXYX          bXNXNXNXNXNXNXNXNXNXM                                                 YXYXYXYXYXYXYXYXYXYXYXYXYXYXYXYXYXYXYXYXYXYXYXYXYXYXYXYXYXYXYXYXYXYXYXYXYXYXYXYXYXYXYXYXYXYXYX            bXNXNXNXNXNXNXNXNXNXNXNXNXNXNXNXNXNXNXNXNXBXNXNXBXNXcX]                                                                                                                             n.NXNXNXBXNXNXBXNXBXNXNXNXBXNXBXNXNXNXBXBXNXNXAXNXNXNXBXNXBXNXNXBXNXBXNXbXz                                         ",
"YXYXYXYXYXYXYXYXYXYXYXYXYXYXYX          NXNXNXNXNXNXNXNXNXNXM                                                 YXYXYXYXYXYXYXYXYXYXYXYXYXYXYXYXYXYXYXYXYXYXYXYXYXYXYXYXYXYXYXYXYXYXYXYXYXYXYXYXYXYXYXYXYXYXYX            jXNXNXNXBXNXBXNXNXBXNXbXBXNXNXNXNXNXNXNXNXBXNXBXBXNXkX                                                                                                                              x bXBXBXNXBXBXNXBXBXNXBXNXBXBXBXBXNXBXNXBXNXAXNXBXBXNXBXBXBXNXBXNXBXBXbXBXz                                         ",
"YXYXYXYXYXYXYXYXYXYXYXYXYXYXYX          bXNXNXNXNXNXNXNXNXbX(                                                 YXYXYXYXYXYXYXYXYXYXYXYXYXYXYXYXYXYXYXYXYXYXYXYXYXYXYXYXYXYXYXYXYXYXYXYXYXYXYXYXYXYXYXYXYXYXYX            jXBXNXBXBXNXNXNXBXNXNXBXNXNXAXBXNXAXAXNXNXNXBXNXBXbXgX                                                                                                                              @ bXBXNXBXNXBXBXBXNXBXBXBXNXBXBXBXBXBXBXBXBXAXBXAXNXAXAXNXBXBXBXBXBXBXBXBXz                                         ",
"YXYXYXYXYXYXYXYXYXYXYXYXYXYXYX          NXNXBXNXNXBXNXNXBXbXM                                                 YXYXYXYXYXYXYXYXYXYXYXYXYXYXYXYXYXYXYXYXYXYXYXYXYXYXYXYXYXYXYXYXYXYXYXYXYXYXYXYXYXYXYXYXYXYXYX            bXNXbXbXBXBXNXBXBXBXNXNXBXNXBXNXBXNXBXNXBXBXNXBXBXNXkX@                                                                                                                             [ bXBXBXBXBXBXmXNXAXBXBXBXBXBXBXBXBXBXBXmXmXmXAXAXAXBXBXBXBXBXBXBXBXmXmXmXx                                         ",
"YXYXYXYXYXYXYXYXYXYXYXYXYXYXYX          NXBXBXNXmXNXNXBXNXNXM                                                 YXYXYXYXYXYXYXYXYXYXYXYXYXYXYXYXYXYXYXYXYXYXYXYXYXYXYXYXYXYXYXYXYXYXYXYXYXYXYXYXYXYXYXYXYXYXYX            NXBXBXBXNXBXBXBXNXBXBXBXBXBXAXmXNXBXmXBXNXBXBXBXBXBXbXo.                                                                                                                            R.mXBXBXBXBXAXAXAXAXmXbXBXBXBXmXBXBXBXbXZXAXAXAXAXAXBXAXAXAXAXmXAXAXAXAXmXz                                         ",
"YXYXYXYXYXYXYXYXYXYXYXYXYXYXYX          mXNXNXBXAXNXmXNXNXmX(                                                 YXYXYXYXYXYXYXYXYXYXYXYXYXYXYXYXYXYXYXYXYXYXYXYXYXYXYXYXYXYXYXYXYXYXYXYXYXYXYXYXYXYXYXYXYXYXYX            bXbXBXZXBXBXNXAXBXBXBXBXBXBXAXBXBXBXAXBXBXBXBXBXAXBXmXkX]                                                                                                                         1.mXmXAXAXAXAXAXAXAXZXZXZXAXZXBXZXBXBXZXZXAXAXAXAXAXAXAXZXBXmXAXAXAXAXAXZXAXz                                         ",
"YXYXYXYXYXYXYXYXYXYXYXYXYXYXYX          NXBXmXBXAXBXAXAXBXBX(                                                 YXYXYXYXYXYXYXYXYXYXYXYXYXYXYXYXYXYXYXYXYXYXYXYXYXYXYXYXYXYXYXYXYXYXYXYXYXYXYXYXYXYXYXYXYXYXYX            bXBXBXbXAXAXAXAXZXAXAXAXAXAXAXAXZXAXAXAXBXBXBXZXAXBXZXAXbXB.>.>.>.>.>.>.>.<.<.<.<.,.,.,.,.,.,.,.1.1.1.,.1.,.,.,.1.,.,.1.1.,.,.1.,.1.,.,.1.1.1.1.1.,.1.1.,.,.,.,.,.,.,.1.1.1.1.B.0XmXAXmXAXAXZXAXZXmXZXAXZXAXZXAXZXBXBXZXZXBXmXZXAXZXAXAXZXAXAXZXAXAXZXZXAXZXAXe                                         ",
"YXYXYXYXYXYXYXYXYXYXYXYXYXYXYX          mXBXBXBXmXBXBXBXBXBX(                                                 YXYXYXYXYXYXYXYXYXYXYXYXYXYXYXYXYXYXYXYXYXYXYXYXYXYXYXYXYXYXYXYXYXYXYXYXYXYXYXYXYXYXYXYXYXYXYX            bXAXmXZXAXAXZXAXAXZXBXmXZXmXAXZXmXAXmXAXAXAXmXBXZXBXAXAXmXBXZXBXmXZXBXZXZXbXZXZXBXZXBXBXZXBXBXBXZXBXZXBXBXBXAXmXmXBXmXBXAXBXAXZXBXZXmXZXAXmXZXZXAXAXZXmXmXZXZXmXmXZXZXAXAXZXAXZXZXZXAXZXZXmXZXZXZXZXAXZXZXZXZXAXZXZXZXZXZXBXBXZXZXZXZXZXZXZXZXZXZXZXAXZXZXZXZXz                                         ",
"YXYXYXYXYXYXYXYXYXYXYXYXYXYXYX          bXZXBXBXAXBXAXAXBXmX(                                                 YXYXYXYXYXYXYXYXYXYXYXYXYXYXYXYXYXYXYXYXYXYXYXYXYXYXYXYXYXYXYXYXYXYXYXYXYXYXYXYXYXYXYXYXYXYXYX            mXAXZXmXAXZXAXAXZXZXZXAXZXAXmXZXZXZXZXAXZXZXAXZXmXZXZXZXZXZXBXZXBXZXBXBXZXZXZXBXZXBXZXZXZXZXZXZXZXZXZXZXBXmXHXBXZXZXZXZXHXBXAXZXZXZXAXZXZXZXZXAXZXZXZXZXZXAXZXmXZXZXAXZXZXZXZXAXZXZXZXZXZXZXZXZXAXZXZXZXZXZXZXZXZXZXZXHXZXZXZXZXZXZXZXZXZXZXZXZXZXZXZXZXZXZXZXe                                         ",
"YXYXYXYXYXYXYXYXYXYXYXYXYXYXYX          ZXBXZXBXAXmXAXmXZXmX(                                                 YXYXYXYXYXYXYXYXYXYXYXYXYXYXYXYXYXYXYXYXYXYXYXYXYXYXYXYXYXYXYXYXYXYXYXYXYXYXYXYXYXYXYXYXYXYXYX            MXZXZXZXZXAXZXZXBXZXZXZXZXAXZXAXZXAXZXZXZXZXZXAXZXZXZXAXAXHXAXZXAXAXZXZXZXZXZXZXZXZXZXZXZXZXZXZXZXZXZXZXBXHXZXZXHXBXBXZXHXAXHXBXmXAXBXHXZXZXmXAXAXZXZXZXZXZXZXZXZXZXHXZXZXZXZXZXZXZXZXZXZXZXZXZXZXZXZXZXZXZXZXZXZXZXZXZXZXZXZXAXZXZXZXZXZXZXZXHXZXZXZXZXZXZXZXx                                         ",
"YXYXYXYXYXYXYXYXYXYXYXYXYXYXYX          BXZXBXZXZXZXZXZXAXAX(                                                 YXYXYXYXYXYXYXYXYXYXYXYXYXYXYXYXYXYXYXYXYXYXYXYXYXYXYXYXYXYXYXYXYXYXYXYXYXYXYXYXYXYXYXYXYXYXYX            mXZXZXZXZXZXZXZXZXZXZXAXZXZXZXZXZXZXZXZXZXZXZXZXZXZXZXZXAXHXZXAXAXHXBXZXZXZXZXZXZXZXZXmXZXZXZXZXZXZXZXZXHXAXZXAXHXAXHXAXBXBXHXZXHXZXZXAXAXHXHXAXHXZXZXZXZXZXHXZXZXZXZXZXZXZXZXZXZXZXZXZXZXZXZXZXZXZXZXZXZXZXZXZXAXAXHXZXZXZXZXAXHXZXZXZXZXZXZXZXZXZXZXZXZXZXZXx                                         ",
"YXYXYXYXYXYXYXYXYXYXYXYXYXYXYX          ZXZXZXZXZXAXZXZXAXZX)                                                 YXYXYXYXYXYXYXYXYXYXYXYXYXYXYXYXYXYXYXYXYXYXYXYXYXYXYXYXYXYXYXYXYXYXYXYXYXYXYXYXYXYXYXYXYXYXYX            CXZXZXZXHXAXZXZXZXAXHXZXHXZXAXHXHXZXZXZXZXZXZXHXZXZXZXZXZXZXZXZXZXHXZXZXZXZXZXZXHXAXAXZXZXZXHXAXHXBXZXZXZXZXZXZXHXZXZXZXZXZXZXZXHXAXHXZXZXHXZXHXAXHXAXHXZXZXZXZXZXHXHXZXZXZXHXZXZXHXAXHXAXHXZXHXAXZXHXZXZXZXZXZXHXZXHXAXHXZXHXZXHXAXHXZXHXAXZXHXHXZXHXZXZXHXZXe                                         ",
"YXYXYXYXYXYXYXYXYXYXYXYXYXYXYX          ZXZXZXZXZXZXZXZXZXAX(                                                 YXYXYXYXYXYXYXYXYXYXYXYXYXYXYXYXYXYXYXYXYXYXYXYXYXYXYXYXYXYXYXYXYXYXYXYXYXYXYXYXYXYXYXYXYXYXYX            mXZXZXZXZXmXHXBXHXHXAXZXAXAXHXZXZXZXZXZXZXZXZXZXZXZXZXHXHXZXZXZXZXZXZXZXHXZXZXHXHXZXZXHXZXZXHXZXAXHXZXHXZXZXHXZXZXZXZXHXHXZXZXHXAXHXAXZXZXHXZXHXZXHXHXAXHXZXZXHXZXZXZXZXHXZXHXZXAXHXHXZXAXHXHXZXHXZXHXZXHXZXHXZXZXHXHXZXAXZXHXZXZXAXHXAXZXHXHXZXAXZXHXZXZXAXZX/                                         ",
"YXYXYXYXYXYXYXYXYXYXYXYXYXYXYX          ZXZXZXZXZXZXGXZXZXZX)                                                 YXYXYXYXYXYXYXYXYXYXYXYXYXYXYXYXYXYXYXYXYXYXYXYXYXYXYXYXYXYXYXYXYXYXYXYXYXYXYXYXYXYXYXYXYXYXYX            nXZXZXHXHXAXZXHXAXHXAXHXHXHXZXHXZXHXZXHXZXZXHXZXHXZXHXZXZXZXZXZXHXZXZXZXZXZXZXHXZXZXAXHXHXZXHXZXHXAXHXZXZXHXZXZXHXHXZXZXHXZXHXZXZXHXAXHXHXHXZXHXZXHXZXHXZXHXZXHXHXZXHXHXHXZXZXHXHXZXZXZXHXHXZXAXZXHXZXHXHXZXZXHXHXZXHXZXZXHXZXHXHXHXHXHXHXHXZXHXHXHXHXHXHXHXHXx                                         ",
"YXYXYXYXYXYXYXYXYXYXYXYXYXYXYX          GXZXZXHXZXZXZXZXZXZX)                                                 YXYXYXYXYXYXYXYXYXYXYXYXYXYXYXYXYXYXYXYXYXYXYXYXYXYXYXYXYXYXYXYXYXYXYXYXYXYXYXYXYXYXYXYXYXYXYX            ZXZXZXHXHXHXZXHXHXAXHXAXHXAXZXZXZXHXZXHXHXZXZXHXZXZXHXZXHXZXKXHXZXHXHXHXHXHXZXHXHXZXHXHXHXZXZXHXHXHXZXHXHXZXHXHXHXZXHXZXZXZXHXHXAXHXHXHXZXZXHXZXHXZXAXHXZXHXHXZXHXZXHXZXZXHXZXHXZXHXHXHXZXHXHXHXHXHXZXHXZXHXHXHXZXHXHXHXHXHXZXHXAXHXHXZXHXZXHXZXZXZXHXZXAXHXHXx                                         ",
"YXYXYXYXYXYXYXYXYXYXYXYXYXYXYX          ZXZXHXZXZXZXHXZXJXZX`                                                 YXYXYXYXYXYXYXYXYXYXYXYXYXYXYXYXYXYXYXYXYXYXYXYXYXYXYXYXYXYXYXYXYXYXYXYXYXYXYXYXYXYXYXYXYXYXYX            ZXZXZXZXAXHXZXHXAXHXHXHXHXZXHXZXZXHXZXHXHXHXHXZXHXZXHXHXZXHXZXZXHXHXHXZXHXZXHXZXHXZXHXZXHXHXHXZXZXHXZXHXZXHXHXZXZXHXZXHXKXZXHXHXZXHXHXHXHXZXHXZXHXHXHXZXZXHXHXZXAXHXHXHXHXHXHXHXZXHXHXHXAXHXHXHXHXHXHXHXZXHXHXZXHXHXHXHXHXHXHXHXHXHXHXHXHXHXHXHXHXHXHXHXHXHXZXe                                         ",
"YXYXYXYXYXYXYXYXYXYXYXYXYXYXYX          ZXZXHXZXHXZXZXHXZXZX)                                                 YXYXYXYXYXYXYXYXYXYXYXYXYXYXYXYXYXYXYXYXYXYXYXYXYXYXYXYXYXYXYXYXYXYXYXYXYXYXYXYXYXYXYXYXYXYXYX            GXHXJXZXHXHXAXHXHXHXHXZXZXHXHXHXHXZXHXHXZXZXHXHXHXHXHXZXKXZXHXHXZXZXHXHXHXHXHXZXZXKXHXZXHXHXZXHXHXHXHXHXHXHXHXHXKXHXHXHXZXKXZXHXHXHXZXHXHXHXHXHXHXHXHXZXHXHXHXHXHXHXHXHXHXHXZXHXHXHXHXHXHXHXHXHXHXHXHXAXHXHXHXHXHXZXHXHXZXHXHXHXHXHXHXHXHXHXHXZXHXHXHXHXHXHXKXe                                         ",
"YXYXYXYXYXYXYXYXYXYXYXYXYXYXYX          HXHXHXHXHXZXHXHXZXHX)                                                 YXYXYXYXYXYXYXYXYXYXYXYXYXYXYXYXYXYXYXYXYXYXYXYXYXYXYXYXYXYXYXYXYXYXYXYXYXYXYXYXYXYXYXYXYXYXYX            ZXZXHXZXHXHXHXHXHXZXHXHXHXZXHXHXHXHXHXHXHXHXZXHXHXHXHXHXZXKXHXHXHXHXHXHXHXHXHXHXHXHXHXHXHXZXHXHXHXHXZXHXHXZXZXHXHXHXZXHXKXZXHXHXHXHXHXHXHXHXHXHXHXHXHXHXHXHXHXHXHXHXHXHXHXZXHXHXHXHXHXHXHXHXKXHXHXHXHXHXHXHXPXHXHXHXHXHXHXHXHXHXHXHXHXHXHXHXHXKXHXHXHXHXHXHXHXe                                         ",
"YXYXYXYXYXYXYXYXYXYXYXYXYXYXYX          ZXKXZXZXHXHXHXZXHXZX)                                                 YXYXYXYXYXYXYXYXYXYXYXYXYXYXYXYXYXYXYXYXYXYXYXYXYXYXYXYXYXYXYXYXYXYXYXYXYXYXYXYXYXYXYXYXYXYXYX            GXHXHXHXHXHXHXHXHXHXHXHXHXHXHXHXHXHXHXZXHXHXHXHXHXHXHXHXHXHXHXHXHXHXHXHXHXHXHXHXHXKXHXHXHXHXHXHXHXHXHXZXKXHXKXHXHXHXHXKXHXKXPXHXHXHXHXHXHXHXHXHXHXHXKXHXHXHXHXHXHXHXHXHXHXKXHXUXHXHXHXHXKXKXHXHXHXKXHXHXHXHXHXHXHXHXHXHXKXHXHXHXHXHXHXHXKXHXHXKXHXHXHXHXHXHXHXe                                         ",
"YXYXYXYXYXYXYXYXYXYXYXYXYXYXYX          ZXHXHXHXHXZXHXHXHXZX)                                                 YXYXYXYXYXYXYXYXYXYXYXYXYXYXYXYXYXYXYXYXYXYXYXYXYXYXYXYXYXYXYXYXYXYXYXYXYXYXYXYXYXYXYXYXYXYXYX            CXZXHXHXHXHXHXKXHXHXHXKXHXHXHXHXHXHXHXKXHXKXHXHXHXHXHXHXHXZXKXHXHXHXPXHXHXHXHXHXHXHXHXHXPXHXHXKXHXHXHXHXHXHXHXHXHXKXHXHXHXHXKXHXHXHXPXHXHXKXHXHXHXHXHXHXHXUXHXHXHXHXKXHXHXPXHXHXHXHXPXHXKXHXKXHXHXHXKXHXHXUXHXUXHXKXHXHXKXHXUXHXKXHXKXPXHXKXHXKXHXUXHXHXPXHXHXe                                         ",
"YXYXYXYXYXYXYXYXYXYXYXYXYXYXYX          HXHXHXHXHXHXHXHXHXHX)                                                 YXYXYXYXYXYXYXYXYXYXYXYXYXYXYXYXYXYXYXYXYXYXYXYXYXYXYXYXYXYXYXYXYXYXYXYXYXYXYXYXYXYXYXYXYXYXYX            ZXUXKXHXZXHXHXHXHXHXHXHXUXHXHXPXHXPXHXHXHXHXHXKXHXKXHXUXKXKXHXKXHXHXHXHXKXUXHXHXHXKXPXHXPXHXHXHXHXPXKXKXUXHXPXKXKXHXHXHXKXHXKXHXKXHXKXHXUXHXHXKXKXHXUXKXKXHXKXUXUXHXKXKXPXHXUXKXUXUXHXHXKXKXKXHXKXHXKXKXUXHXUXHXHXKXKXUXKXUXHXHXHXUXHXHXKXKXKXKXPXHXUXKXHXUXHX/                                         ",
"YXYXYXYXYXYXYXYXYXYXYXYXYXYXYX          HXHXHXHXHXKXHXHXPXHX_                                                 YXYXYXYXYXYXYXYXYXYXYXYXYXYXYXYXYXYXYXYXYXYXYXYXYXYXYXYXYXYXYXYXYXYXYXYXYXYXYXYXYXYXYXYXYXYXYX            GXHXHXHXHXHXHXHXHXHXKXHXHXHXHXKXKXKXHXKXKXHXHXKXHXUXHXUXHXHXUXHXUXKXHXUXKXHXUXKXUXHXHXKXUXIXHXKXHXUXHXUXUXHXUXHXHXHXUXKXHXUXHXUXKXKXKXHXKXKXUXKXHXPXHXPXUXHXPXHXUXPXPXPXHXUXHXUXKXPXPXKXHXKXKXKXKXKXHXKXHXUXPXHXUXPXKXHXKXKXPXUXUXUXHXUXKXKXHXKXUXKXUXPXKXKXJXe                                         ",
"YXYXYXYXYXYXYXYXYXYXYXYXYXYXYX          JXHXUXHXHXHXPXHXHXHX_                                                 YXYXYXYXYXYXYXYXYXYXYXYXYXYXYXYXYXYXYXYXYXYXYXYXYXYXYXYXYXYXYXYXYXYXYXYXYXYXYXYXYXYXYXYXYXYXYX            GXUXIXKXPXPXUXUXUXKXKXKXUXHXUXHXHXUXKXHXKXKXKXKXPXPXUXHXUXPXUXUXHXPXUXHXKXUXHXKXUXUXUXPXKXHXUXUXUXUXHXPXUXHXPXKXUXKXUXKXKXUXKXKXKXKXKXUXKXKXKXKXPXPXPXHXUXUXUXUXHXKXUXHXUXUXUXKXKXUXUXHXKXKXKXKXUXUXKXKXUXUXUXPXUXUXUXKXKXKXUXUXUXUXPXPXUXUXUXUXUXUXUXPXUXUXKXF                                         ",
"YXYXYXYXYXYXYXYXYXYXYXYXYXYXYX          JXHXHXUXKXHXUXUXHXJX_                                                 YXYXYXYXYXYXYXYXYXYXYXYXYXYXYXYXYXYXYXYXYXYXYXYXYXYXYXYXYXYXYXYXYXYXYXYXYXYXYXYXYXYXYXYXYXYXYX            JXPXUXHXUXUXLXHXKXKXKXKXUXUXPXUXPXUXHXHXKXKXHXPXHXPXUXUXUXUXPXUXUXUXUXKXUXUXKXKXHXPXLXUXUXKXPXPXUXUXUXUXUXUXUXUXUXUXPXPXUXUXUXUXJXHXIXIXPXPXLXPXUXUXPXPXUXUXLXPXPXUXPXPXUXUXUXUXPXPXPXPXLXLXPXPXUXKXUXUXPXPXUXJXPXLXPXPXUXUXIXUXJXJXJXPXUXUXJXJXJXJXLXLXUXHXJXe                                         ",
"YXYXYXYXYXYXYXYXYXYXYXYXYXYXYX          HXPXUXHXHXKXHXUXJXHX_                                                 YXYXYXYXYXYXYXYXYXYXYXYXYXYXYXYXYXYXYXYXYXYXYXYXYXYXYXYXYXYXYXYXYXYXYXYXYXYXYXYXYXYXYXYXYXYXYX            GXUXUXPXUXUXUXJXKXKXKXUXIXIXUXUXUXIXIXJXKXKXJXJXUXLXPXPXUXUXLXLXUXUXIXLXUXUXKXUXLXLXUXUXUXUXUXPXUXUXUXUXPXPXUXKXUXUXPXPXKXUXLXUXJXJXIXIXUXUXLXHXUXUXJXJXUXUXJXHXJXJXJXJXUXPXJXJXLXLXJXJXJXLXHXLXKXKXPXPXJXPXJXJXJXJXJXJXPXHXJXLXJXGXJXGXJXJXJXJXJXGXHXPXJXLXJXF                                         ",
"YXYXYXYXYXYXYXYXYXYXYXYXYXYXYX          KXUXUXUXUXUXHXJXHXJX_                                                 YXYXYXYXYXYXYXYXYXYXYXYXYXYXYXYXYXYXYXYXYXYXYXYXYXYXYXYXYXYXYXYXYXYXYXYXYXYXYXYXYXYXYXYXYXYXYX            GXHXPXPXUXUXLXLXLXHXPXUXPXHXLXLXPXLXJXJXKXJXJXJXLXJXJXLXUXJXJXHXPXHXLXLXJXJXPXPXLXJXJXJXJXJXLXJXJXLXJXJXHXLXJXJXJXJXJXGXJXJXJXJXJXJXJXJXHXGXJXJXJXJXGXJXJXJXGXJXJXGXJXGXJXGXJXGXGXJXGXGXJXGXGXLXGXPXPXGXGXGXGXGXGXGXGXGXGXGXGXGXGXGXGXGXGXGXGXGXGXGXGXGXGXGXGXe                                         ",
"YXYXYXYXYXYXYXYXYXYXYXYXYXYXYX          KXUXIXUXUXUXIXUXIXLX_                                                 YXYXYXYXYXYXYXYXYXYXYXYXYXYXYXYXYXYXYXYXYXYXYXYXYXYXYXYXYXYXYXYXYXYXYXYXYXYXYXYXYXYXYXYXYXYXYX            GXLXGXJXJXJXJXJXLXJXLXPXGXJXJXGXJXJXJXGXJXJXGXJXJXJXGXGXJXJXGXGXJXGXJXGXGXJXGXJXJXGXGXGXGXJXGXGXGXGXGXJXGXGXGXGXGXGXGXGXGXGXGXGXGXGXGXGXJXGXGXGXGXGXGXGXGXGXGXGXGXGXGXGXGXGXGXGXGXGXGXGXGXGXGXGXGXGXGXDXGXGXGXGXGXGXGXGXGXGXGXGXGXGXGXGXGXGXGXDXDXGXGXDXGXGXdXe                                         ",
"YXYXYXYXYXYXYXYXYXYXYXYXYXYXYX          IXLXPXLXJXJXJXGXJXJX`                                                 YXYXYXYXYXYXYXYXYXYXYXYXYXYXYXYXYXYXYXYXYXYXYXYXYXYXYXYXYXYXYXYXYXYXYXYXYXYXYXYXYXYXYXYXYXYXYX            GXJXGXGXJXGXGXGXGXGXGXGXGXGXGXGXJXGXGXGXGXGXGXGXGXGXGXJXGXGXGXJXGXGXGXGXGXGXGXGXGXGXGXGXGXGXGXGXGXGXGXGXGXGXGXGXGXGXGXGXGXGXFXGXGXGXGXGXSXGXGXGXGXGXGXGXGXGXGXGXGXGXGXGXGXDXGXGXGXGXGXdXGXGXSXGXdXGXSXGXdXGXGXGXdXGXFXFXGXGXSXGXdXGXGXGXGXGXGXGXSXGXdXGXCXGXdXr                                         ",
"YXYXYXYXYXYXYXYXYXYXYXYXYXYXYX          JXJXGXGXGXJXGXPXGXGX)                                                 YXYXYXYXYXYXYXYXYXYXYXYXYXYXYXYXYXYXYXYXYXYXYXYXYXYXYXYXYXYXYXYXYXYXYXYXYXYXYXYXYXYXYXYXYXYXYX            dXGXGXGXGXGXGXGXSXGXGXGXGXGXSXGXdXGXGXGXGXGXGXGXDXGXGXGXDXDXGXGXDXGXGXGXDXDXDXGXGXGXdXGXGXSXGXSXdXGXGXdXGXdXGXdXSXCXSXGXSXCXFXSXdXGXCXSXGXGXdXGXdXGXdXGXdXGXdXGXdXGXdXGXDXDXdXGXdXGXdXGXdXGXdXGXGXdXGXSXGXdXFXFXCXFXGXdXdXGXdXGXSXdXdXGXdXdXdXSXdXSXSXSXdXdXCXe                                         ",
"YXYXYXYXYXYXYXYXYXYXYXYXYXYXYX          GXGXGXGXGXGXGXGXGXGX_                                                 YXYXYXYXYXYXYXYXYXYXYXYXYXYXYXYXYXYXYXYXYXYXYXYXYXYXYXYXYXYXYXYXYXYXYXYXYXYXYXYXYXYXYXYXYXYXYX            dXGXdXGXGXdXGXGXGXGXdXGXSXGXdXGXSXGXGXGXdXdXGXSXdXGXGXdXDXGXGXdXdXGXGXdXGXDXDXDXGXdXdXGXdXdXGXGXSXGXdXGXGXGXSXdXdXGXdXGXdXGXdXGXSXSXSXdXdXdXGXdXdXGXDXdXdXdXSXdXdXdXdXdXdXGXdXDXdXSXdXCXGXdXdXdXdXSXdXCXdXSXdXFXSXSXdXdXdXdXdXdXdXdXdXSXdXdXCXdXdXdXdXdXdXdXdXe                                         ",
"YXYXYXYXYXYXYXYXYXYXYXYXYXYXYX          dXGXGXGXGXDXGXGXGXGX/                                                 YXYXYXYXYXYXYXYXYXYXYXYXYXYXYXYXYXYXYXYXYXYXYXYXYXYXYXYXYXYXYXYXYXYXYXYXYXYXYXYXYXYXYXYXYXYXYX            dXdXGXdXGXdXdXSXdXdXGXdXdXSXSXdXGXdXdXdXdXGXdXGXdXdXSXdXdXdXdXGXdXdXdXdXdXGXdXdXSXSXdXdXdXGXdXdXdXdXdXdXdXdXdXdXdXSXdXdXdXdXdXdXSXdXdXdXdXdXdXdXdXdXdXdXdXSXdXdXdXGXdXdXdXdXdXdXdXdXdXdXdXdXdXdXdXdXdXdXdXdXdXdXdXdXdXdXdXdXdXdXdXdXdXdXdXdXdXdXdXdXdXdXdXdXdXe                                         ",
"YXYXYXYXYXYXYXYXYXYXYXYXYXYXYX          dXSXdXGXDXDXGXGXdXGX/                                                 YXYXYXYXYXYXYXYXYXYXYXYXYXYXYXYXYXYXYXYXYXYXYXYXYXYXYXYXYXYXYXYXYXYXYXYXYXYXYXYXYXYXYXYXYXYXYX            dXdXdXdXdXdXdXdXdXdXdXdXdXdXdXdXdXdXdXdXdXdXdXdXdXdXdXdXdXdXdXdXdXdXdXdXdXdXdXdXdXdXdXdXdXdXdXdXdXdXdXdXdXdXdXdXdXdXdXdXdXdXdXdXdXdXdXdXdXdXdXdXdXdXdXdXdXdXdXdXdXdXdXdXdXdXdXdXdXdXdXiXdXdXdXdXdXdXdXdXdXdXsXdXdXdXdXdXdXdXdXdXfXdXaXdXdXdXsXdXdXdXsXsXdXdXsXe                                         ",
"YXYXYXYXYXYXYXYXYXYXYXYXYXYXYX          CXGXdXdXDXdXdXDXdXdX/                                                 YXYXYXYXYXYXYXYXYXYXYXYXYXYXYXYXYXYXYXYXYXYXYXYXYXYXYXYXYXYXYXYXYXYXYXYXYXYXYXYXYXYXYXYXYXYXYX            fXdXdXdXdXdXdXdXdXdXdXdXdXdXdXdXdXdXdXdXdXdXdXdXdXdXdXdXdXdXdXdXdXdXdXdXdXdXdXdXdXdXdXsXsXdXdXdXdXdXdXdXsXdXdXdXdXiXdXdXdXdXsXdXdXsXdXdXdXdXuXdXdXsXsXsXdXdXsXuXfXdXfXsXfXfXfXdXdXdXfXdXsXsXsXuXfXuXfXpXfXsXsXsXsXsXuXuXsXsXfXuXfXdXaXaXdXuXuXuXuXuXuXuXsXsXuXw                                         ",
"YXYXYXYXYXYXYXYXYXYXYXYXYXYXYX          dXdXdXdXdXdXdXdXdXdX/                                                 YXYXYXYXYXYXYXYXYXYXYXYXYXYXYXYXYXYXYXYXYXYXYXYXYXYXYXYXYXYXYXYXYXYXYXYXYXYXYXYXYXYXYXYXYXYXYX            yXdXdXdXdXdXdXiXdXdXdXaXdXdXsXdXdXfXdXpXsXdXdXdXdXpXpXdXsXpXdXdXdXfXfXdXfXdXfXsXfXfXuXuXdXuXfXuXuXuXuXuXfXuXsXsXuXsXuXsXsXuXuXuXfXsXsXsXpXuXfXuXsXpXsXsXfXfXuXfXfXfXfXfXfXfXsXpXpXsXfXfXsXuXyXfXfXfXpXpXfXfXuXfXfXuXfXfXfXyXfXpXfXfXfXfXyXfXfXfXuXyXfXfXfXuXyXw                                         ",
"YXYXYXYXYXYXYXYXYXYXYXYXYXYXYX          dXdXdXdXdXdXdXdXdXdX/                                                 YXYXYXYXYXYXYXYXYXYXYXYXYXYXYXYXYXYXYXYXYXYXYXYXYXYXYXYXYXYXYXYXYXYXYXYXYXYXYXYXYXYXYXYXYXYXYX            rXdXaXaXsXfXfXfXdXaXiXiXdXiXuXiXuXdXfXfXfXfXpXaXpXpXfXpXpXfXfXpXfXfXfXfXfXfXfXfXfXfXfXfXfXfXfXfXuXuXuXuXfXfXfXyXfXfXyXfXuXuXuXfXyXfXfXyXfXfXyXfXyXfXfXyXyXfXyXfXfXyXyXfXyXyXyXyXfXyXyXyXyXfXyXfXyXyXyXfXyXyXyXyXyXfXyXyXfXtXfXtXfXtXyXyXyXyXyXyXyXyXyXyXyXuXtX5                                         ",
"YXYXYXYXYXYXYXYXYXYXYXYXYXYXYX          dXfXuXdXdXsXpXdXfXfX/                                                 YXYXYXYXYXYXYXYXYXYXYXYXYXYXYXYXYXYXYXYXYXYXYXYXYXYXYXYXYXYXYXYXYXYXYXYXYXYXYXYXYXYXYXYXYXYXYX            0.fXfXyXfXfXfXfXfXyXfXyXfXfXyXfXfXfXfXfXfXyXfXfXyXfXfXyXfXyXyXfXyXfXfXyXyXfXyXfXyXfXfXyXyXfXfXfXtXfXyXfXfXyXyXyXyXyXfXyXyXyXyXyXyXfXyXyXyXyXfXyXyXyXyXyXyXyXyXfXyXyXfXyXyXfXyXyXfXtXyXyXyXyXyXyXyXyXyXyXyXfXtXyXfXyXyXyXyXfXtXyXyXyXyXyXyXyXyXtXyXyXtXfXyXtX9X@                                         ",
"YXYXYXYXYXYXYXYXYXYXYXYXYXYXYX          fXfXfXfXfXfXfXpXfXfX/                                                 YXYXYXYXYXYXYXYXYXYXYXYXYXYXYXYXYXYXYXYXYXYXYXYXYXYXYXYXYXYXYXYXYXYXYXYXYXYXYXYXYXYXYXYXYXYXYX              yXyXyXyXfXtXfXfXtXfXyXyXyXyXyXyXyXtXyXyXyXyXyXyXyXyXyXyXyXyXyXyXyXyXyXyXyXyXyXyXyXtXfXyXtXyXyXyXyXyXtXyXyXyXyXyXyXyXyXyXyXyXyXtXtXyXfXyXeXtXyXtXfXyXtXyXyXyXtXyXtXtXyXtXyXyXeXyXtXyXtXyXwXtXrXyXtXyXtXtXtXtXtXtXtXwXtXtXtXyXtXyXtXtXtXeXqXyXtXtXtXtXwXtXtX:.                                          ",
"YXYXYXYXYXYXYXYXYXYXYXYXYXYXYX          fXfXyXfXyXyXfXyXyXfXe                                                 YXYXYXYXYXYXYXYXYXYXYXYXYXYXYXYXYXYXYXYXYXYXYXYXYXYXYXYXYXYXYXYXYXYXYXYXYXYXYXYXYXYXYXYXYXYXYX              8XyXyXyXyXtXfXtXfXtXyXtXyXyXyXtXyXyXyXtXyXtXfXtXyXtXyXyXyXyXtXtXyXtXyXtXyXyXyXeXtXtXtXtXtXtXyXtXyXtXtXtXyXeXyXeXyXeXtXyXwXyXtXtXtXtXtXeXtXtXtXtXtXtXtXtXtXeXeXwXtXtXtXtXeXeXeXtXtXtXtXtXrXtXrXyXtXtXtXtXtXtXtXeXeXeXeXtXtXwXwXtXtXtXtXqXqXqXeXtXtXwX8XqX5Xw                                           ",
"YXYXYXYXYXYXYXYXYXYXYXYXYXYXYX          tXfXyXyXyXyXyXyXyXeX/                                                 YXYXYXYXYXYXYXYXYXYXYXYXYXYXYXYXYXYXYXYXYXYXYXYXYXYXYXYXYXYXYXYXYXYXYXYXYXYXYXYXYXYXYXYXYXYXYX                8XtXtXyXtXtXtXtXtXyXtXrXyXtXtXtXtXwXtXtXtXtXtXtXtXtXtXtXtXtXrXtXrXtXwXwXtXtXtXtXeXeXeXqXtXtXwXwXtXtXqXeXeXeXeXqXqXqXwXwXtXtXtXtXeXeXeXqXeXqXwXwXwXwXqXeXeXeX8XtXwXwXqX8XqXqXqXeXtX8XwX8XwXwX8XtX8X8XwXtX8XwXqX8XqX8XwX8X8X8X8XrX8X8X8XqX8X8X8X8XrX8X8X:.                                            ",
"YXYXYXYXYXYXYXYXYXYXYXYXYXYXYX          tXyXyXtXyXyXtXyXtXtX/                                                 YXYXYXYXYXYXYXYXYXYXYXYXYXYXYXYXYXYXYXYXYXYXYXYXYXYXYXYXYXYXYXYXYXYXYXYXYXYXYXYXYXYXYXYXYXYXYX                :.tXtXtXtXtXtXtXtXtXwXwXwXwXwXwXwXwXeXeXeXeXrX8XtXrX8XqXqXwXeX8XeX8X8XwXqX8X8XeXqXqX8XqXqX8XwX8XwXwXeX8XeX8XeXtX8X8X8X8XwX8X8XqX8X8XeX8X8X8X8X8X8X8X8X8X8X8X8X8XeX8X8XqX8X8X8X8X8X8X8X8X8X8X8X8X8X8X8X8X8X8X8X8X8X8X8X8X8X8X8X8X8X8X8X8X8X8X8X8X8X8X9.@                                             ",
"YXYXYXYXYXYXYXYXYXYXYXYXYXYXYX          wXtXtXtXeXeXtXeXwXwXe                                                 YXYXYXYXYXYXYXYXYXYXYXYXYXYXYXYXYXYXYXYXYXYXYXYXYXYXYXYXYXYXYXYXYXYXYXYXYXYXYXYXYXYXYXYXYXYXYX                  7.8XeX8X8XwX8X8X8XwX8X8X8X8XwX8X8X8X8X8X8X8XwX8X8XqX8X8X8X8XqX8X8X8X8X8X8X8X8X8X8X8X8X8X8X8X8X8X8X8X8X8X8X8X8X8X8X8X8X8X8X8X8X8X8X8X8X8X8X8X8X8X8X8X8X8X8X8X8X8X8X8X8X8X8X8X8X8X8X8X8X5X8X8X8X8X8X5X8X8X5X8X8X8X8X5X8X8X8X8X8X5X5X8X9X8X8X8X5X8X7.5                                               ",
"YXYXYXYXYXYXYXYXYXYXYXYXYXYXYX          wXwXwXwXeXwXqXqXwXqXe                                                 YXYXYXYXYXYXYXYXYXYXYXYXYXYXYXYXYXYXYXYXYXYXYXYXYXYXYXYXYXYXYXYXYXYXYXYXYXYXYXYXYXYXYXYXYXYXYX                     .5X5X8X8X8X8X8X8X8X8X8X8X8X8X8X8X8X8X8X8X8X8X8X8X8X8X8X8X8X8X8X8X8X8X8X8X8X5X8X8X5X8X8X5X8X5X8X8X5X5X8X8X5X8X5X8X5X5X8X8X7X5X8X5X8X5X8X8X8X8X5X8X8X5X8X5X5X5X5X7X5X5X8X7X5X8X5X5X5X5X8X5X5X8X5X5X5X8X5X7X5X5X5X5X5X5X5X6X6X6X9X5X5X8X5X5X4X:.@                                                 ",
"YXYXYXYXYXYXYXYXYXYXYXYXYXYXYX          8X8XqX8X8X8X8X8X8X8Xe                                                 YXYXYXYXYXYXYXYXYXYXYXYXYXYXYXYXYXYXYXYXYXYXYXYXYXYXYXYXYXYXYXYXYXYXYXYXYXYXYXYXYXYXYXYXYXYXYX                      o 7.9X5X5X8X5X8X5X8X5X5X8X5X8X7X8X8X5X8X5X8X5X5X8X5X5X8X5X8X5X5X8X5X5X7X8X5X8X5X8X8X5X5X5X5X5X8X5X5X5X8X5X8X5X5X5X5X5X8X5X5X5X7X7X5X7X7X5X5X5X5X5X5X5X5X8X5X9X9X7X5X5X7X9X9X9X5X5X5X5X7X7X6X6X5X5X6X6X6X6X7X7X5X5X5X7X6X9X9X9X5X9X5X1X:./                                                     ",
"YXYXYXYXYXYXYXYXYXYXYXYXYXYXYX          5X8X8X8X8X8X8X8X8X8Xe                                                 YXYXYXYXYXYXYXYXYXYXYXYXYXYXYXYXYXYXYXYXYXYXYXYXYXYXYXYXYXYXYXYXYXYXYXYXYXYXYXYXYXYXYXYXYXYXYXYX                          _ -.;.;.;.;. . . ...........| | -.4X9X9X7X9X9X9X9X9X9X9X5X5X5X9X9X9X7X6X6X6X6X9X9X9X5X9X5X5X9X5X9X7.| | | | | | | | | | ..| | | | | | | | | | | | | | | | | | | | | | | | | | | | | | | | | | | | | | | | | | | | | | | | _ / 5                                                         ",
"YXYXYXYXYXYXYXYXYXYXYXYXYXYXYX          7X7X5X8X5X5X5X6X5X7Xe                                                 YXYXYXYXYXYXYXYXYXYXYXYXYXYXYXYXYXYXYXYXYXYXYXYXYXYXYXYXYXYXYXYXYXYXYXYXYXYXYXYXYXYXYXYXYXYXYXYX                                                          ) 4X4X4X4X9X9X9X4X9X4X4X4X4X4X9X4X4X4X6X9X4X4X4X4X4X4X4X4X9X4X4X7.5                                                                                                                                                                                     ",
"YXYXYXYXYXYXYXYXYXYXYXYXYXYXYX          6X6X7X6X5X7X7X6X9X9Xe                                                 YXYXYXYXYXYXYXYXYXYXYXYXYXYXYXYXYXYXYXYXYXYXYXYXYXYXYXYXYXYXYXYXYXYXYXYXYXYXYXYXYXYXYXYXYXYXYXYX                                                          / 3X4X4X4X4X4X4X4X4X4X4X4X4X4X4X4X4X4X4X4X5X3X9X4X4X4X4X4X4XY.:.@                                                                                                                                                                                       ",
"YXYXYXYXYXYXYXYXYXYXYXYXYXYXYX          4X9X6X6X7X7X9X9X3X4Xe                                                 YXYXYXYXYXYXYXYXYXYXYXYXYXYXYXYXYXYXYXYXYXYXYXYXYXYXYXYXYXYXYXYXYXYXYXYXYXYXYXYXYXYXYXYXYXYXYXYX                                                          ) Y.Y.4X4X3X4X3X4X0.4X4X4XY.4X4X4XB.3X3XY.4X1X4X4XY.Y.Y.4X4X:.@                                                                                                                                                                                         ",
"YXYXYXYXYXYXYXYXYXYXYXYXYXYXYX          4X9X4X4X4X4X4X4X4X9Xr                                                 YXYXYXYXYXYXYXYXYXYXYXYXYXYXYXYXYXYXYXYXYXYXYXYXYXYXYXYXYXYXYXYXYXYXYXYXYXYXYXYXYXYXYXYXYXYXYXYXYX                                                        ) Y.Y.Y.Y.Y.T.Y.0.3X3X3XY.Y.4XY.Y.Y.4X9XY.Y.Y.Y.Y.Y.Y.Y.0.;.@                                                                                                                                                                                           ",
"YXYXYXYXYXYXYXYXYXYXYXYXYXYXYX          4X2X4X3X4XY.4X4X3X3Xe                                                 YXYXYXYXYXYXYXYXYXYXYXYXYXYXYXYXYXYXYXYXYXYXYXYXYXYXYXYXYXYXYXYXYXYXYXYXYXYXYXYXYXYXYXYXYXYXYXYXYX                                                        / 0.0.Y.Y.Y.Y.Y.B.3X1X3XY.0.0.0.B.Y.0.1XB.Y.Y.0.3XB.0.0.;.@                                                                                                                                                                                             ",
"YXYXYXYXYXYXYXYXYXYXYXYXYXYXYX          0.Y.4X3XY.Y.Y.Y.3XB.w                                                 YXYXYXYXYXYXYXYXYXYXYXYXYXYXYXYXYXYXYXYXYXYXYXYXYXYXYXYXYXYXYXYXYXYXYXYXYXYXYXYXYXYXYXYXYXYXYXYXYXYX                                                      ) 0.Y.0.Y.B.0.0.0.Y.4XY.0.Y.0.Y.3X1X0.B.3XY.Y.Y.1X0.0.-.o                                                                                                                                                                                               ",
"YXYXYXYXYXYXYXYXYXYXYXYXYXYXYX          0.Y.B.3XY.Y.4XT.1X0.e                                                 YXYXYXYXYXYXYXYXYXYXYXYXYXYXYXYXYXYXYXYXYXYXYXYXYXYXYXYXYXYXYXYXYXYXYXYXYXYXYXYXYXYXYXYXYXYXYXYXYXYX                                                      ) 9.0.Y.4X1X0.Y.0.0.0.0.Y.0.0.0.Y.Y.0.0.1XY.0.0.3XY. .o                                                                                                                                                                                                 ",
"YXYXYXYXYXYXYXYXYXYXYXYXYXYXYX          1X3X1X2XB.1XY.0.Y.0.w                                                 YXYXYXYXYXYXYXYXYXYXYXYXYXYXYXYXYXYXYXYXYXYXYXYXYXYXYXYXYXYXYXYXYXYXYXYXYXYXYXYXYXYXYXYXYXYXYXYXYXYXYX                                                    ) 0.0.0.0.0.0.0.0.0.0.0.0.0.0.0.0.0.0.0.0.0.0.0.9...o                                                                                                                                                                                                   ",
"YXYXYXYXYXYXYXYXYXYXYXYXYXYXYX          3XB.4XB.Y.4X0.0.0.0.w                                                 YXYXYXYXYXYXYXYXYXYXYXYXYXYXYXYXYXYXYXYXYXYXYXYXYXYXYXYXYXYXYXYXYXYXYXYXYXYXYXYXYXYXYXYXYXYXYXYXYXYXYXYX                                                  _ 9.0.0.0.0.0.0.9.0.0.9.9.0.0.0.0.9.0.9.9.0.9.8....                                                                                                                                                                                                     ",
"YXYXYXYXYXYXYXYXYXYXYXYXYXYXYX          Y.0.0.1X0.0.0.0.0.0.w                                                 YXYXYXYXYXYXYXYXYXYXYXYXYXYXYXYXYXYXYXYXYXYXYXYXYXYXYXYXYXYXYXYXYXYXYXYXYXYXYXYXYXYXYXYXYXYXYXYXYXYXYXYX                                                  } 0.0.9.9.0.9.9.0.0.9.0.9.0.9.9.9.9.9.0.9.0.8.|                                                                                                                                                                                                         ",
"YXYXYXYXYXYXYXYXYXYXYXYXYXYXYX          9.0.9.0.0.0.9.0.0.0.w                                                 YXYXYXYXYXYXYXYXYXYXYXYXYXYXYXYXYXYXYXYXYXYXYXYXYXYXYXYXYXYXYXYXYXYXYXYXYXYXYXYXYXYXYXYXYXYXYXYXYXYXYXYXYX                                                | 9.9.9.9.9.9.9.9.9.9.9.0.9.9.9.9.9.0.9.9.9.|                                                                                                                                                                                                           ",
"YXYXYXYXYXYXYXYXYXYXYXYXYXYXYX          0.0.9.0.0.0.9.0.9.0.w                                                 YXYXYXYXYXYXYXYXYXYXYXYXYXYXYXYXYXYXYXYXYXYXYXYXYXYXYXYXYXYXYXYXYXYXYXYXYXYXYXYXYXYXYXYXYXYXYXYXYXYXYXYXYXYX                                              ..9.9.9.1X9.1X9.9.9.9.8.9.9.9.9.9.9.8.9.6._                                                                                                                                                                                                           YX",
"YXYXYXYXYXYXYXYXYXYXYXYXYXYXYX          8.0.8.0.9.9.9.9.9.9.w                                                 YXYXYXYXYXYXYXYXYXYXYXYXYXYXYXYXYXYXYXYXYXYXYXYXYXYXYXYXYXYXYXYXYXYXYXYXYXYXYXYXYXYXYXYXYXYXYXYXYXYXYXYXYXYXYX                                            @.0.9.8.1X9.9.8.8.9.9.8.8.8.8.8.8.8.9.4._                                                                                                                                                                                                           YXYX",
"YXYXYXYXYXYXYXYXYXYXYXYXYXYXYX          9.9.8.0.9.9.9.9.8.8.w                                                 YXYXYXYXYXYXYXYXYXYXYXYXYXYXYXYXYXYXYXYXYXYXYXYXYXYXYXYXYXYXYXYXYXYXYXYXYXYXYXYXYXYXYXYXYXYXYXYXYXYXYXYXYXYXYX                                            -.1X1X1X1X1X8.8.8.8.8.8.8.8.8.8.8.8.8.`                                                                                                                                                                                                           YXYXYX",
"YXYXYXYXYXYXYXYXYXYXYXYXYXYXYX          9.1X9.8.8.8.8.8.9.8.w                                                 YXYXYXYXYXYXYXYXYXYXYXYXYXYXYXYXYXYXYXYXYXYXYXYXYXYXYXYXYXYXYXYXYXYXYXYXYXYXYXYXYXYXYXYXYXYXYXYXYXYXYXYXYXYXYXYX                                          :.1X1X1X1XB.8.8.8.8.8.8.8.8.8.8.8.4.F                                                                                                                                                                                                           YXYXYXYX",
"YXYXYXYXYXYXYXYXYXYXYXYXYXYXYX          8.9.8.8.8.8.8.1X9.8.w                                                 YXYXYXYXYXYXYXYXYXYXYXYXYXYXYXYXYXYXYXYXYXYXYXYXYXYXYXYXYXYXYXYXYXYXYXYXYXYXYXYXYXYXYXYXYXYXYXYXYXYXYXYXYXYXYXYXYX                                        5.6.8.8.1X1X1X1X1X1X1X1X1X1X8.6.4.F                                                                                                                                                                                                           YXYXYXYXYX",
"YXYXYXYXYXYXYXYXYXYXYXYXYXYXYX          8.1X8.8.8.1X8.8.8.8.q                                                 YXYXYXYXYXYXYXYXYXYXYXYXYXYXYXYXYXYXYXYXYXYXYXYXYXYXYXYXYXYXYXYXYXYXYXYXYXYXYXYXYXYXYXYXYXYXYXYXYXYXYXYXYXYXYXYXYXYX                                      5.6.8.6.1X1X1X1X1X9.1X1X1X1X8.4.e                                                                                                                                                                                                           YXYXYXYXYXYX",
"YXYXYXYXYXYXYXYXYXYXYXYXYXYXYX          1X8.1X1X1X1X1X8.8.8.w                                                 YXYXYXYXYXYXYXYXYXYXYXYXYXYXYXYXYXYXYXYXYXYXYXYXYXYXYXYXYXYXYXYXYXYXYXYXYXYXYXYXYXYXYXYXYXYXYXYXYXYXYXYXYXYXYXYXYXYXYX                                    5.6.6.8.<X1X1X<X6.<X1X<X1X8.3.r                                                                                                                                                                                                           YXYXYXYXYXYXYX",
"YXYXYXYXYXYXYXYXYXYXYXYXYXYXYX          1X1X1X1X1X1X1X1X4.8.8                                                 YXYXYXYXYXYXYXYXYXYXYXYXYXYXYXYXYXYXYXYXYXYXYXYXYXYXYXYXYXYXYXYXYXYXYXYXYXYXYXYXYXYXYXYXYXYXYXYXYXYXYXYXYXYXYXYXYXYXYXYX                                  3.<X6.4.<X6.6.<X6.6.<X<X1X4.r                                                                                                                                                                                                           YXYXYXYXYXYXYXYX",
"YXYXYXYXYXYXYXYXYXYXYXYXYXYXYX          8.<X6.1X1X<X6.6.6.6.q                                                 YXYXYXYXYXYXYXYXYXYXYXYXYXYXYXYXYXYXYXYXYXYXYXYXYXYXYXYXYXYXYXYXYXYXYXYXYXYXYXYXYXYXYXYXYXYXYXYXYXYXYXYXYXYXYXYXYXYXYXYXYX                                3.6.4.6.6.6.<X<X6.6.4.8.2.r                                                                                                                                                                                                           YXYXYXYXYXYXYXYXYX",
"YXYXYXYXYXYXYXYXYXYXYXYXYXYXYX          6.<X<X<X6.<X<X6.6.6.q                                                 YXYXYXYXYXYXYXYXYXYXYXYXYXYXYXYXYXYXYXYXYXYXYXYXYXYXYXYXYXYXYXYXYXYXYXYXYXYXYXYXYXYXYXYXYXYXYXYXYXYXYXYXYXYXYXYXYXYXYXYXYXYX                              3.6.<X,X,X6.,X,X,X,X,X3.q                                                                                                                                                                                                         YXYXYXYXYXYXYXYXYXYXYX",
"YXYXYXYXYXYXYXYXYXYXYXYXYXYXYX          ,X<X<X<X<X<X<X,X<X,Xq                                                 YXYXYXYXYXYXYXYXYXYXYXYXYXYXYXYXYXYXYXYXYXYXYXYXYXYXYXYXYXYXYXYXYXYXYXYXYXYXYXYXYXYXYXYXYXYXYXYXYXYXYXYXYXYXYXYXYXYXYXYXYXYXYX                            3.,X,X,X,X,X,X,X,X,X2.8                                                                                                                                                                                                         YXYXYXYXYXYXYXYXYXYXYXYX",
"YXYXYXYXYXYXYXYXYXYXYXYXYXYXYX          4.<X,X,X<X,X<X,X,X,Xq                                                 YXYXYXYXYXYXYXYXYXYXYXYXYXYXYXYXYXYXYXYXYXYXYXYXYXYXYXYXYXYXYXYXYXYXYXYXYXYXYXYXYXYXYXYXYXYXYXYXYXYXYXYXYXYXYXYXYXYXYXYXYXYXYXYX                          @.,X,X,X,X,X,X,X,X2.8                                                                                                                                                                                                       YXYXYXYXYXYXYXYXYXYXYXYXYXYX",
"YXYXYXYXYXYXYXYXYXYXYXYXYXYXYX          ,X,X,X,X,X,X,X,X,X,X8                                                 YXYXYXYXYXYXYXYXYXYXYXYXYXYXYXYXYXYXYXYXYXYXYXYXYXYXYXYXYXYXYXYXYXYXYXYXYXYXYXYXYXYXYXYXYXYXYXYXYXYXYXYXYXYXYXYXYXYXYXYXYXYXYXYXYX                          >X,X,X>X,X,X>X2.8                                                                                                                                                                                                       YXYXYXYXYXYXYXYXYXYXYXYXYXYXYX",
"YXYXYXYXYXYXYXYXYXYXYXYXYXYXYX          ,X,X,X,X,X,X,X,X,X>Xq                                                 YXYXYXYXYXYXYXYXYXYXYXYXYXYXYXYXYXYXYXYXYXYXYXYXYXYXYXYXYXYXYXYXYXYXYXYXYXYXYXYXYXYXYXYXYXYXYXYXYXYXYXYXYXYXYXYXYXYXYXYXYXYXYXYXYX                          } 3.>X,X>X>X2.0                                                                                                                                                                                                   YXYXYXYXYXYXYXYXYXYXYXYXYXYXYXYXYXYX",
"YXYXYXYXYXYXYXYXYXYXYXYXYXYXYX          >X,X,X,X,X,X,X,X,X>X8                                                 YXYXYXYXYXYXYXYXYXYXYXYXYXYXYXYXYXYXYXYXYXYXYXYXYXYXYXYXYXYXYXYXYXYXYXYXYXYXYXYXYXYXYXYXYXYXYXYXYXYXYXYXYXYXYXYXYXYXYXYXYXYXYXYXYXYX                          8 =.2.2.@.@                                                                                                                                                                                               YXYXYXYXYXYXYXYXYXYXYXYXYXYXYXYXYXYXYXYXYX",
"YXYXYXYXYXYXYXYXYXYXYXYXYXYXYX          >X>X>X,X,X,X>X>X>X>X8                                                 YXYXYXYXYXYXYXYXYXYXYXYXYXYXYXYXYXYXYXYXYXYXYXYXYXYXYXYXYXYXYXYXYXYXYXYXYXYXYXYXYXYXYXYXYXYXYXYXYXYXYXYXYXYXYXYXYXYXYXYXYXYXYXYXYXYX                                                                                                                                                    YXYXYXYXYXYXYXYXYXYXYXYXYXYXYXYXYXYXYXYXYXYXYXYXYXYXYXYXYXYXYXYXYXYXYXYXYXYXYXYXYXYXYXYXYXYXYXYXYXYXYXYXYXYXYXYXYXYXYXYXYX",
"YXYXYXYXYXYXYXYXYXYXYXYXYXYXYX          >X>X>X,X>X>X>X>X>X>Xq                                                 YXYXYXYXYXYXYXYXYXYXYXYXYXYXYXYXYXYXYXYXYXYXYXYXYXYXYXYXYXYXYXYXYXYXYXYXYXYXYXYXYXYXYXYXYXYXYXYXYXYXYXYXYXYXYXYXYXYXYXYXYXYXYXYXYXYXYX                                                                                          }                                           YXYXYXYXYXYXYXYXYXYXYXYXYXYXYXYXYXYXYXYXYXYXYXYXYXYXYXYXYXYXYXYXYXYXYXYXYXYXYXYXYXYXYXYXYXYXYXYXYXYXYXYXYXYXYXYXYXYXYXYXYXYXYXYXYXYXYX",
"YXYXYXYXYXYXYXYXYXYXYXYXYXYXYX          >X>X>X>X>X>X>X>X>X>X8                                                 YXYXYXYXYXYXYXYXYXYXYXYXYXYXYXYXYXYXYXYXYXYXYXYXYXYXYXYXYXYXYXYXYXYXYXYXYXYXYXYXYXYXYXYXYXYXYXYXYXYXYXYXYXYXYXYXYXYXYXYXYXYXYXYXYXYXYXYX                                                                                    8 =.:X                                        YXYXYXYXYXYXYXYXYXYXYXYXYXYXYXYXYXYXYXYXYXYXYXYXYXYXYXYXYXYXYXYXYXYXYXYXYXYXYXYXYXYXYXYXYXYXYXYXYXYXYXYXYXYXYXYXYXYXYXYXYXYXYXYXYXYXYXYX",
"YXYXYXYXYXYXYXYXYXYXYXYXYXYXYX          :X:X>X>X>X>X>X>X:X:X8                                                 YXYXYXYXYXYXYXYXYXYXYXYXYXYXYXYXYXYXYXYXYXYXYXYXYXYXYXYXYXYXYXYXYXYXYXYXYXYXYXYXYXYXYXYXYXYXYXYXYXYXYXYXYXYXYXYXYXYXYXYXYXYXYXYXYXYXYXYX                                                                                  +.:X:X:X                                        YXYXYXYXYXYXYXYXYXYXYXYXYXYXYXYXYXYXYXYXYXYXYXYXYXYXYXYXYXYXYXYXYXYXYXYXYXYXYXYXYXYXYXYXYXYXYXYXYXYXYXYXYXYXYXYXYXYXYXYXYXYXYXYXYXYXYXYX",
"YXYXYXYXYXYXYXYXYXYXYXYXYXYXYX          :X>X>X:X>X:X:X>X:X:X8                                                 YXYXYXYXYXYXYXYXYXYXYXYXYXYXYXYXYXYXYXYXYXYXYXYXYXYXYXYXYXYXYXYXYXYXYXYXYXYXYXYXYXYXYXYXYXYXYXYXYXYXYXYXYXYXYXYXYXYXYXYXYXYXYXYXYXYXYXYXYX                                                                              =.2.:X;X:X                                        YXYXYXYXYXYXYXYXYXYXYXYXYXYXYXYXYXYXYXYXYXYXYXYXYXYXYXYXYXYXYXYXYXYXYXYXYXYXYXYXYXYXYXYXYXYXYXYXYXYXYXYXYXYXYXYXYXYXYXYXYXYXYXYXYXYXYXYX",
"YXYXYXYXYXYXYXYXYXYXYXYXYXYXYX          :X:X:X:X:X:X:X:X:X:X0                                                 YXYXYXYXYXYXYXYXYXYXYXYXYXYXYXYXYXYXYXYXYXYXYXYXYXYXYXYXYXYXYXYXYXYXYXYXYXYXYXYXYXYXYXYXYXYXYXYXYXYXYXYXYXYXYXYXYXYXYXYXYXYXYXYXYXYXYXYXYXYXYX                                                                      J -X:X;X:X:X:X                                        YXYXYXYXYXYXYXYXYXYXYXYXYXYXYXYXYXYXYXYXYXYXYXYXYXYXYXYXYXYXYXYXYXYXYXYXYXYXYXYXYXYXYXYXYXYXYXYXYXYXYXYXYXYXYXYXYXYXYXYXYXYXYXYXYXYXYXYX",
"YXYXYXYXYXYXYXYXYXYXYXYXYXYXYX          :X:X:X:X:X:X:X:X:X:X0                                                 YXYXYXYXYXYXYXYXYXYXYXYXYXYXYXYXYXYXYXYXYXYXYXYXYXYXYXYXYXYXYXYXYXYXYXYXYXYXYXYXYXYXYXYXYXYXYXYXYXYXYXYXYXYXYXYXYXYXYXYXYXYXYXYXYXYXYXYXYXYXYXYX                                                                  =.-X:X;X;X:X-X;X                                        YXYXYXYXYXYXYXYXYXYXYXYXYXYXYXYXYXYXYXYXYXYXYXYXYXYXYXYXYXYXYXYXYXYXYXYXYXYXYXYXYXYXYXYXYXYXYXYXYXYXYXYXYXYXYXYXYXYXYXYXYXYXYXYXYXYXYXYX",
"YXYXYXYXYXYXYXYXYXYXYXYXYXYXYX          :X:X-X:X:X:X:X:X:X:X0                                                 YXYXYXYXYXYXYXYXYXYXYXYXYXYXYXYXYXYXYXYXYXYXYXYXYXYXYXYXYXYXYXYXYXYXYXYXYXYXYXYXYXYXYXYXYXYXYXYXYXYXYXYXYXYXYXYXYXYXYXYXYXYXYXYXYXYXYXYXYXYXYXYXYX                                                            ! -X=.:X;X;X;X-X;X;X                                          YXYXYXYXYXYXYXYXYXYXYXYXYXYXYXYXYXYXYXYXYXYXYXYXYXYXYXYXYXYXYXYXYXYXYXYXYXYXYXYXYXYXYXYXYXYXYXYXYXYXYXYXYXYXYXYXYXYXYXYXYXYXYXYXYXYXYX",
"YXYXYXYXYXYXYXYXYXYXYXYXYXYXYX          :X:X:X:X;X:X;X;X:X-X0                                                 YXYXYXYXYXYXYXYXYXYXYXYXYXYXYXYXYXYXYXYXYXYXYXYXYXYXYXYXYXYXYXYXYXYXYXYXYXYXYXYXYXYXYXYXYXYXYXYXYXYXYXYXYXYXYXYXYXYXYXYXYXYXYXYXYXYXYXYXYXYXYXYXYXYX                                                        ! -X;X-X;X;X-X;X;X;X-X                                          YXYXYXYXYXYXYXYXYXYXYXYXYXYXYXYXYXYXYXYXYXYXYXYXYXYXYXYXYXYXYXYXYXYXYXYXYXYXYXYXYXYXYXYXYXYXYXYXYXYXYXYXYXYXYXYXYXYXYXYXYXYXYXYXYXYXYX",
"YXYXYXYXYXYXYXYXYXYXYXYXYXYXYX          -X:X-X:X;X-X:X:X-X:X7                                                   YXYXYXYXYXYXYXYXYXYXYXYXYXYXYXYXYXYXYXYXYXYXYXYXYXYXYXYXYXYXYXYXYXYXYXYXYXYXYXYXYXYXYXYXYXYXYXYXYXYXYXYXYXYXYXYXYXYXYXYXYXYXYXYXYXYXYXYXYXYXYXYXYXYX                                                      +.-X;X;X-X;X-X-X-X-X-X                                          YXYXYXYXYXYXYXYXYXYXYXYXYXYXYXYXYXYXYXYXYXYXYXYXYXYXYXYXYXYXYXYXYXYXYXYXYXYXYXYXYXYXYXYXYXYXYXYXYXYXYXYXYXYXYXYXYXYXYXYXYXYXYXYXYXYXYX",
"YXYXYXYXYXYXYXYXYXYXYXYXYXYXYX          -X:X-X:X;X;X-X-X;X-X0                                                   YXYXYXYXYXYXYXYXYXYXYXYXYXYXYXYXYXYXYXYXYXYXYXYXYXYXYXYXYXYXYXYXYXYXYXYXYXYXYXYXYXYXYXYXYXYXYXYXYXYXYXYXYXYXYXYXYXYXYXYXYXYXYXYXYXYXYXYXYXYXYXYXYXYX                                                      +.-X-X-X-X-X-X-X-X-X-X                                            YXYXYXYXYXYXYXYXYXYXYXYXYXYXYXYXYXYXYXYXYXYXYXYXYXYXYXYXYXYXYXYXYXYXYXYXYXYXYXYXYXYXYXYXYXYXYXYXYXYXYXYXYXYXYXYXYXYXYXYXYXYXYXYXYXYX",
"YXYXYXYXYXYXYXYXYXYXYXYXYXYXYX          -X:X-X-X-X;X-X:X-X-X0                                                   YXYXYXYXYXYXYXYXYXYXYXYXYXYXYXYXYXYXYXYXYXYXYXYXYXYXYXYXYXYXYXYXYXYXYXYXYXYXYXYXYXYXYXYXYXYXYXYXYXYXYXYXYXYXYXYXYXYXYXYXYXYXYXYXYXYXYXYXYXYXYXYXYXYXYX                                                    +.-X-X-X-X-X-X-X-X-X-X                                            YXYXYXYXYXYXYXYXYXYXYXYXYXYXYXYXYXYXYXYXYXYXYXYXYXYXYXYXYXYXYXYXYXYXYXYXYXYXYXYXYXYXYXYXYXYXYXYXYXYXYXYXYXYXYXYXYXYXYXYXYXYXYXYXYXYX",
"YXYXYXYXYXYXYXYXYXYXYXYXYXYXYX          -X-X-X-X-X;X-X-X-X-X7                                                   YXYXYXYXYXYXYXYXYXYXYXYXYXYXYXYXYXYXYXYXYXYXYXYXYXYXYXYXYXYXYXYXYXYXYXYXYXYXYXYXYXYXYXYXYXYXYXYXYXYXYXYXYXYXYXYXYXYXYXYXYXYXYXYXYXYXYXYXYXYXYXYXYXYXYX                                                    &.-X-X=X-X-X-X-X=X-X=.                                            YXYXYXYXYXYXYXYXYXYXYXYXYXYXYXYXYXYXYXYXYXYXYXYXYXYXYXYXYXYXYXYXYXYXYXYXYXYXYXYXYXYXYXYXYXYXYXYXYXYXYXYXYXYXYXYXYXYXYXYXYXYXYXYXYXYX",
"YXYXYXYXYXYXYXYXYXYXYXYXYXYXYX          -X-X-X-X-X-X-X-X-X-X7                                                     YXYXYXYXYXYXYXYXYXYXYXYXYXYXYXYXYXYXYXYXYXYXYXYXYXYXYXYXYXYXYXYXYXYXYXYXYXYXYXYXYXYXYXYXYXYXYXYXYXYXYXYXYXYXYXYXYXYXYXYXYXYXYXYXYXYXYXYXYXYXYXYXYXYXYX                                                  *.-X=X=X-X=X=X-X=X-X=X                                              YXYXYXYXYXYXYXYXYXYXYXYXYXYXYXYXYXYXYXYXYXYXYXYXYXYXYXYXYXYXYXYXYXYXYXYXYXYXYXYXYXYXYXYXYXYXYXYXYXYXYXYXYXYXYXYXYXYXYXYXYXYXYXYXYX",
"YXYXYXYXYXYXYXYXYXYXYXYXYXYXYX          -X-X-X-X=X-X-X-X-X-X7                                                     YXYXYXYXYXYXYXYXYXYXYXYXYXYXYXYXYXYXYXYXYXYXYXYXYXYXYXYXYXYXYXYXYXYXYXYXYXYXYXYXYXYXYXYXYXYXYXYXYXYXYXYXYXYXYXYXYXYXYXYXYXYXYXYXYXYXYXYXYXYXYXYXYXYXYXYX                                                *.=X=X=X=X=X=X=X=X=X*X                                              YXYXYXYXYXYXYXYXYXYXYXYXYXYXYXYXYXYXYXYXYXYXYXYXYXYXYXYXYXYXYXYXYXYXYXYXYXYXYXYXYXYXYXYXYXYXYXYXYXYXYXYXYXYXYXYXYXYXYXYXYXYXYXYXYX",
"YXYXYXYXYXYXYXYXYXYXYXYXYXYXYX          -X-X-X-X=X-X-X=X=X=X9                                                       YXYXYXYXYXYXYXYXYXYXYXYXYXYXYXYXYXYXYXYXYXYXYXYXYXYXYXYXYXYXYXYXYXYXYXYXYXYXYXYXYXYXYXYXYXYXYXYXYXYXYXYXYXYXYXYXYXYXYXYXYXYXYXYXYXYXYXYXYXYXYXYXYXYXYX                                                *.=X=X=X=X=X=X=X=X=X*X                                              YXYXYXYXYXYXYXYXYXYXYXYXYXYXYXYXYXYXYXYXYXYXYXYXYXYXYXYXYXYXYXYXYXYXYXYXYXYXYXYXYXYXYXYXYXYXYXYXYXYXYXYXYXYXYXYXYXYXYXYXYXYXYXYXYX",
"YXYXYXYXYXYXYXYXYXYXYXYXYXYXYX          =X=X*X-X-X*X-X*X-X=X7                                                           YXYXYXYXYXYXYXYXYXYXYXYXYXYXYXYXYXYXYXYXYXYXYXYXYXYXYXYXYXYXYXYXYXYXYXYXYXYXYXYXYXYXYXYXYXYXYXYXYXYXYXYXYXYXYXYXYXYXYXYXYXYXYXYXYXYXYXYXYXYXYXYXYXYX                                              *.*X=X=X*X=X=X=X*X*X*.                                                YXYXYXYXYXYXYXYXYXYXYXYXYXYXYXYXYXYXYXYXYXYXYXYXYXYXYXYXYXYXYXYXYXYXYXYXYXYXYXYXYXYXYXYXYXYXYXYXYXYXYXYXYXYXYXYXYXYXYXYXYXYXYXYX",
"YXYXYXYXYXYXYXYXYXYXYXYXYXYXYX          =X=X-X*X*X*X-X*X=X=X7                                                             YXYXYXYXYXYXYXYXYXYXYXYXYXYXYXYXYXYXYXYXYXYXYXYXYXYXYXYXYXYXYXYXYXYXYXYXYXYXYXYXYXYXYXYXYXYXYXYXYXYXYXYXYXYXYXYXYXYXYXYXYXYXYXYXYXYXYXYXYXYXYXYXYX                                              *.*X*X*X=X*X*X*X*X*X*.                                                YXYXYXYXYXYXYXYXYXYXYXYXYXYXYXYXYXYXYXYXYXYXYXYXYXYXYXYXYXYXYXYXYXYXYXYXYXYXYXYXYXYXYXYXYXYXYXYXYXYXYXYXYXYXYXYXYXYXYXYXYXYXYXYX",
"YXYXYXYXYXYXYXYXYXYXYXYXYXYXYX          *X=X*X=X*X-X-X*X*X=X9                                                               YXYXYXYXYXYXYXYXYXYXYXYXYXYXYXYXYXYXYXYXYXYXYXYXYXYXYXYXYXYXYXYXYXYXYXYXYXYXYXYXYXYXYXYXYXYXYXYXYXYXYXYXYXYXYXYXYXYXYXYXYXYXYXYXYXYXYXYXYXYXYXYXYX                                            *.*X*X*X*X*X*X*X*X*X*.                                                YXYXYXYXYXYXYXYXYXYXYXYXYXYXYXYXYXYXYXYXYXYXYXYXYXYXYXYXYXYXYXYXYXYXYXYXYXYXYXYXYXYXYXYXYXYXYXYXYXYXYXYXYXYXYXYXYXYXYXYXYXYXYXYX",
"YXYXYXYXYXYXYXYXYXYXYXYXYXYXYX          *X=X*X*X=X=X=X&X*X*X9                                                                 YXYXYXYXYXYXYXYXYXYXYXYXYXYXYXYXYXYXYXYXYXYXYXYXYXYXYXYXYXYXYXYXYXYXYXYXYXYXYXYXYXYXYXYXYXYXYXYXYXYXYXYXYXYXYXYXYXYXYXYXYXYXYXYXYXYXYXYXYXYXYXYX                                            $.*X*X*X&X*X*X*X*X&X$.                                                YXYXYXYXYXYXYXYXYXYXYXYXYXYXYXYXYXYXYXYXYXYXYXYXYXYXYXYXYXYXYXYXYXYXYXYXYXYXYXYXYXYXYXYXYXYXYXYXYXYXYXYXYXYXYXYXYXYXYXYXYXYXYXYX",
"YXYXYXYXYXYXYXYXYXYXYXYXYXYXYX          *X*X=X*X&X=X&X=X*X*X9                                                                     YXYXYXYXYXYXYXYXYXYXYXYXYXYXYXYXYXYXYXYXYXYXYXYXYXYXYXYXYXYXYXYXYXYXYXYXYXYXYXYXYXYXYXYXYXYXYXYXYXYXYXYXYXYXYXYXYXYXYXYXYXYXYXYXYXYXYXYXYXYXYX                                          $.*X&X&X*X&X*X&X&X&X*.                                                YXYXYXYXYXYXYXYXYXYXYXYXYXYXYXYXYXYXYXYXYXYXYXYXYXYXYXYXYXYXYXYXYXYXYXYXYXYXYXYXYXYXYXYXYXYXYXYXYXYXYXYXYXYXYXYXYXYXYXYXYXYXYXYX",
"YXYXYXYXYXYXYXYXYXYXYXYXYXYXYX          *X*X*X*X&X=X&X*X*X*X9                                                                       YXYXYXYXYXYXYXYXYXYXYXYXYXYXYXYXYXYXYXYXYXYXYXYXYXYXYXYXYXYXYXYXYXYXYXYXYXYXYXYXYXYXYXYXYXYXYXYXYXYXYXYXYXYXYXYXYXYXYXYXYXYXYXYXYXYXYXYXYXYX                                          $.&X&X&X&X&X*X&X&X&X$.                                                  YXYXYXYXYXYXYXYXYXYXYXYXYXYXYXYXYXYXYXYXYXYXYXYXYXYXYXYXYXYXYXYXYXYXYXYXYXYXYXYXYXYXYXYXYXYXYXYXYXYXYXYXYXYXYXYXYXYXYXYXYXYXYX",
"YXYXYXYXYXYXYXYXYXYXYXYXYXYXYX          &X*X&X*X=X&X&X*X*X&X9                                                                           YXYXYXYXYXYXYXYXYXYXYXYXYXYXYXYXYXYXYXYXYXYXYXYXYXYXYXYXYXYXYXYXYXYXYXYXYXYXYXYXYXYXYXYXYXYXYXYXYXYXYXYXYXYXYXYXYXYXYXYXYXYXYXYXYXYX                                              $.&X&X&X&X&X&X&X&X&X$.                                                  YXYXYXYXYXYXYXYXYXYXYXYXYXYXYXYXYXYXYXYXYXYXYXYXYXYXYXYXYXYXYXYXYXYXYXYXYXYXYXYXYXYXYXYXYXYXYXYXYXYXYXYXYXYXYXYXYXYXYXYXYXYXYX",
"YXYXYXYXYXYXYXYXYXYXYXYXYXYXYX          &X=X&X*X=X&X&X&X&X&X9                                                                                     YXYXYXYXYXYXYXYXYXYXYXYXYXYXYXYXYXYXYXYXYXYXYXYXYXYXYXYXYXYXYXYXYXYXYXYXYXYXYXYXYXYXYXYXYXYXYXYXYXYXYXYXYXYXYXYXYX                                                      %X&X&X&X&X&X&X%X&X&X$X                                                  YXYXYXYXYXYXYXYXYXYXYXYXYXYXYXYXYXYXYXYXYXYXYXYXYXYXYXYXYXYXYXYXYXYXYXYXYXYXYXYXYXYXYXYXYXYXYXYXYXYXYXYXYXYXYXYXYXYXYXYXYXYXYX",
"YXYXYXYXYXYXYXYXYXYXYXYXYXYXYX          &X&X&X&X&X&X&X&X&X&X9                                                                                                                                     YXYXYXYXYXYXYXYXYXYXYXYXYXYX                                                                                            $.&X%X%X%X%X&X&X%X&X%.                                                  YXYXYXYXYXYXYXYXYXYXYXYXYXYXYXYXYXYXYXYXYXYXYXYXYXYXYXYXYXYXYXYXYXYXYXYXYXYXYXYXYXYXYXYXYXYXYXYXYXYXYXYXYXYXYXYXYXYXYXYXYXYXYX",
"YXYXYXYXYXYXYXYXYXYXYXYXYXYXYX          %X&X&X&X&X&X&X&X&X&X2                                                                                                                                                                                                                                                             $.%X%X%X%X%X%X%X%X%X$.                                                  YXYXYXYXYXYXYXYXYXYXYXYXYXYXYXYXYXYXYXYXYXYXYXYXYXYXYXYXYXYXYXYXYXYXYXYXYXYXYXYXYXYXYXYXYXYXYXYXYXYXYXYXYXYXYXYXYXYXYXYXYXYXYX",
"YXYXYXYXYXYXYXYXYXYXYXYXYXYXYX          &X%X%X&X%X&X%X&X&X%X2                                                                                                                                                                                                                                                             #.%X%X%X%X%X%X%X%X%X%.                                                  YXYXYXYXYXYXYXYXYXYXYXYXYXYXYXYXYXYXYXYXYXYXYXYXYXYXYXYXYXYXYXYXYXYXYXYXYXYXYXYXYXYXYXYXYXYXYXYXYXYXYXYXYXYXYXYXYXYXYXYXYXYXYX",
"YXYXYXYXYXYXYXYXYXYXYXYXYXYXYX          %X%X%X%X&X%X%X%X%X%X2                                                                                                                                                                                                                                                             %.%X%X%X%X%X%X%X$X%X#.                                                  YXYXYXYXYXYXYXYXYXYXYXYXYXYXYXYXYXYXYXYXYXYXYXYXYXYXYXYXYXYXYXYXYXYXYXYXYXYXYXYXYXYXYXYXYXYXYXYXYXYXYXYXYXYXYXYXYXYXYXYXYXYXYX",
"YXYXYXYXYXYXYXYXYXYXYXYXYXYXYX          %X&X%X%X%X%X%X%X%X%X2                                                                                                                                                                                                                                                             #.$X$X%X$X$X$X$X%X$X#.                                                  YXYXYXYXYXYXYXYXYXYXYXYXYXYXYXYXYXYXYXYXYXYXYXYXYXYXYXYXYXYXYXYXYXYXYXYXYXYXYXYXYXYXYXYXYXYXYXYXYXYXYXYXYXYXYXYXYXYXYXYXYXYXYX",
"YXYXYXYXYXYXYXYXYXYXYXYXYXYXYX          %X%X$X%X$X%X%X%X%X%X2                     X X X X X + + + + - : : ; ; ; < ; 1 ; ; ; ; ; < < < < ; < 1 1 < < 2 < < < < < < < < < < < 1 1 < < < < < < < < 1 < < < < < < < < 1 < < < < < < < < < < < < < < < 1 1 1 1 1 < 1 < < < < < < < < < ; ; ; ; ; ; < ; ; ; ; ; ; : ; ; : ; : - #X$X$X$X%X$X$X$X$X$X#.                                                  YXYXYXYXYXYXYXYXYXYXYXYXYXYXYXYXYXYXYXYXYXYXYXYXYXYXYXYXYXYXYXYXYXYXYXYXYXYXYXYXYXYXYXYXYXYXYXYXYXYXYXYXYXYXYXYXYXYXYXYXYXYXYX",
"YXYXYXYXYXYXYXYXYXYXYXYXYXYXYX          $X%X%X%X$X%X%X$X$X%X#.^ #.#.%.W #.~ ^ %.#.#X%.%.%.$X$X$X%X$.$X$X$X$X$X%X$X$X$X$X$X%X%X$X$X$X$X$X$X$X$X$X$X$X$X$X$X$X$X$X$X$X$X$X$X$X$X$X$X$X$X$X%X$X$X$X$X%X$X$X$X$X$X$X$X$X$X$X$X$X$X$X$X$X$X$X$X$X$X$X#X$X$X#X#X$X$X#X#X$X$X$X$X$X#X$X$X$X$X$X$X$X$X#X#X$X$X$X#X$X$X#X$X#X$X$X$X$X$X$X$X$X$X$X$X$X#X#.                                                  YXYXYXYXYXYXYXYXYXYXYXYXYXYXYXYXYXYXYXYXYXYXYXYXYXYXYXYXYXYXYXYXYXYXYXYXYXYXYXYXYXYXYXYXYXYXYXYXYXYXYXYXYXYXYXYXYXYXYXYXYXYXYX",
"YXYXYXYXYXYXYXYXYXYXYXYXYXYXYX          $X$X$X$X$X%X$X$X%X$X$X$X$X%X$X$X$X$X$X$X$X$X$X$X$X$X$X%X%X$X$X$X%X$X$X$X$X$X$X$X$X$X$X$X$X$X$X$X$X$X$X$X$X$X$X$X$X$X$X$X$X$X$X$X$X$X%X$X$X$X$X$X$X$X$X$X$X$X$X$X$X$X$X$X$X$X$X$X$X$X$X$X$X$X$X$X$X$X$X$X$X$X$X$X$X$X$X$X$X$X$X$X$X#X$X$X$X$X$X$X$X$X$X$X$X$X$X$X$X$X$X$X$X$X$X#X$X#X#X$X$X$X$X$X$X#X#X#.                                                  YXYXYXYXYXYXYXYXYXYXYXYXYXYXYXYXYXYXYXYXYXYXYXYXYXYXYXYXYXYXYXYXYXYXYXYXYXYXYXYXYXYXYXYXYXYXYXYXYXYXYXYXYXYXYXYXYXYXYXYXYXYXYX",
"YXYXYXYXYXYXYXYXYXYXYXYXYXYXYX          $X$X$X$X$X$X$X$X$X$X$X$X$X$X$X$X$X$X$X$X$X$X$X$X$X$X$X$X$X$X$X$X$X$X$X$X$X$X$X$X$X$X$X$X$X$X$X$X$X$X$X$X$X$X$X$X$X$X$X$X$X$X$X$X$X$X$X$X$X$X$X$X$X$X$X$X$X#X$X$X#X$X$X$X$X%.$X$X$X#X#X$X#X$X#X$X$X#X$X#X$X$X#X#X$X#X#X$X$X#X#X$X#X$X#X$X#X#X$X#X$X#X$X#X$X#X#X$X#X$X#X#X#X#X$X#X$X#X#X#X#X#X#X#X$X#X#X^                                                   YXYXYXYXYXYXYXYXYXYXYXYXYXYXYXYXYXYXYXYXYXYXYXYXYXYXYXYXYXYXYXYXYXYXYXYXYXYXYXYXYXYXYXYXYXYXYXYXYXYXYXYXYXYXYXYXYXYXYXYXYXYXYX",
"YXYXYXYXYXYXYXYXYXYXYXYXYXYXYX          $X$X$X$X$X$X$X$X$X#X$X$X#X#X$X$X$X$X$X$X$X#X$X$X#X$X$X$X$X$X$X$X$X$X$X#X#X$X$X#X$X$X$X#X#X$X#X#X#X$X$X$X$X$X#X$X#X$X#X#X$X$X$X#X#X$X$X#X$X@X$X$X$X$X%.$X#X#X#X#X#X$X#X#X#X#X#X$X#X#X$X#X#X#X#X#X#X$X#X#X$X#X#X#X#X#X$X#X#X#X#X#X#X$X#X#X#X#X#X#X#X#X#X#X#X#X#X#X#X#X#X#X#X#X#X#X#X#X#X#X#X#X#X#X#X#X#X#.                                                  YXYXYXYXYXYXYXYXYXYXYXYXYXYXYXYXYXYXYXYXYXYXYXYXYXYXYXYXYXYXYXYXYXYXYXYXYXYXYXYXYXYXYXYXYXYXYXYXYXYXYXYXYXYXYXYXYXYXYXYXYXYXYX",
"YXYXYXYXYXYXYXYXYXYXYXYXYXYXYX          $X$X#X$X#X$X$X#X#X$X$X#X$X$X#X$X$X$X#X$X$X$X#X$X#X$X#X#X#X#X#X#X#X#X#X$X#X#X#X#X$X#X#X#X#X#X#X$X#X#X#X#X#X#X#X#X$X$X#X$X@X$X@X$X#X#X$X@X$X$X$X@X#X#X#X#X#X#X#X#X#X#X#X#X#X#X#X#X#X#X#X#X#X#X#X#X#X#X#X#X#X#X#X#X#X#X#X#X#X#X#X#X#X#X#X#X#X#X#X#X#X#X#X#X#X#X#X#X#X#X#X#X#X#X#X#X@X#X#X#X#X#X@X#X@X#X#XW                                                   YXYXYXYXYXYXYXYXYXYXYXYXYXYXYXYXYXYXYXYXYXYXYXYXYXYXYXYXYXYXYXYXYXYXYXYXYXYXYXYXYXYXYXYXYXYXYXYXYXYXYXYXYXYXYXYXYXYXYXYXYXYXYX",
"YXYXYXYXYXYXYXYXYXYXYXYXYXYXYX          $X#X#X#X#X#X#X$X#X#X#X$X#X#X$X#X#X#X#X$X#X#X#X#X#X#X#X#X#X#X#X#X#X#X#X#X#X#X#X#X#X#X#X#X#X#X#X#X#X#X#X#X#X#X#X#X$X@X@X$X#X#X$X#X#X#X#X#X$X@X@X$X@X$X#X#X#X#X+X#X#X#X#X#X#X@X#X#X#X#X#X#X#X#X#X#X#X@X#X#X#X#X#X#X#X#X#X#X#X#X#X#X#X#X#X#X#X@X#X#X#X#X#X+X#X#X#X#X#X#X#X#X+X#X+X#X#X#X#X#X#X@X#X@X#X#X#XW                                                   YXYXYXYXYXYXYXYXYXYXYXYXYXYXYXYXYXYXYXYXYXYXYXYXYXYXYXYXYXYXYXYXYXYXYXYXYXYXYXYXYXYXYXYXYXYXYXYXYXYXYXYXYXYXYXYXYXYXYXYXYXYXYX",
"YXYXYXYXYXYXYXYXYXYXYXYXYXYXYX          #X#X#X#X#X#X#X#X#X#X#X#X#X#X#X+X#X#X#X#X#X#X#X#X#X#X#X#X#X#X#X#X#X#X@X#X#X#X#X#X@X#X#X#X#X#X#X@X#X#X#X@X#X#X#X@X#X@X#X@X$X@X@X#X@X#X#X@X@X@X$X@X@X@X@X#X#X#X#X#X#X+X#X#X@X#X#X@X@X#X@X@X@X#X@X@X@X#X@X#X#X+X#X#X+X#X#X+X#X+X#X@X#X@X@X@X@X#X#X+X#X+X#X#X@X@X#X+X#X+X+X#X#X#X+X#X@X@X@X@X@X#X@X@X@X@X#XW                                                   YXYXYXYXYXYXYXYXYXYXYXYXYXYXYXYXYXYXYXYXYXYXYXYXYXYXYXYXYXYXYXYXYXYXYXYXYXYXYXYXYXYXYXYXYXYXYXYXYXYXYXYXYXYXYXYXYXYXYXYXYXYXYX",
"YXYXYXYXYXYXYXYXYXYXYXYXYXYX            @X#X@X#X@X#X#X#X#X#X#X#X#X#X#X@X#X#X@X#X#X@X#X#X@X#X#X@X#X#X@X#X#X@X#X#X@X#X#X#X@X@X@X@X#X#X#X#X+X#X@X#X@X#X#X@X#X#X@X#X@X#X#X@X@X#X#X@X#X+X#X#X@X@X#X@X#X#X#X@X#X@X@X#X+X#X#X+X#X+X#X#X@X@X@X@X@X@X#X@X@X@X#X@X@X@X@X@X+X#X#X+X#X+X#X#X@X@X@X@X@X#X@X@X@X@X@X@X@X@X@X#X+X#X#X@X@X#X+X#X+X#X@X#X+X#X#XW                                                     YXYXYXYXYXYXYXYXYXYXYXYXYXYXYXYXYXYXYXYXYXYXYXYXYXYXYXYXYXYXYXYXYXYXYXYXYXYXYXYXYXYXYXYXYXYXYXYXYXYXYXYXYXYXYXYXYXYXYXYXYXYX",
"YXYXYXYXYXYXYXYXYXYXYXYXYXYX            #X#X@X#X@X#X@X@X#X@X@X#X@X@X#X@X@X@X#X@X@X@X@X#X@X@X@X@X@X#X@X@X@X@X@X@X@X@X@X@X@X@X#X@X+X#X+X#X+X#X#X@X@X@X@X@X+X#X@X@X@X@X@X@X@X@X@X@X@X#X@X@X@X@X@X@X@X+X+X#X+X#X+X@X#X#X+X#X+X#X+X+X@X@X@X@X#X#X+X#X@X@X@X@X@X@X@X@X#X+X+X#X+X#X+X+X@X@X@X@X@X@X+X@X@X@X@X@X@X@X+X@X+X+X+X#X+X@X+X+X#X+X+X@X@X+X+XQ                                                     YXYXYXYXYXYXYXYXYXYXYXYXYXYXYXYXYXYXYXYXYXYXYXYXYXYXYXYXYXYXYXYXYXYXYXYXYXYXYXYXYXYXYXYXYXYXYXYXYXYXYXYXYXYXYXYXYXYXYXYXYXYX",
"YXYXYXYXYXYXYXYXYXYXYXYXYXYX            @X@X@X@X@X@X@X#X+X#X#X+X@X@X#X@X+X@X@X@X@X@X@X@X@X@X@X@X@X@X@X@X@X@X@X@X@X@X@X@X@X@X@X@X#X@X@X#X@X+X#X#X@X#X@X@X@X@X+X#X@X@X+X@X@X@X@X@X+X+X@XW I P I I W W #X+X@X+X@X@X+X+X#X+X#X+X+X#X#X+X@X@X+X@X@X+X@X@X+X@X@X+X@X@X+X+X+X#X@X+X@X+X@X+X+X#X+X@X+X@X@X@X+X@X@X@X+X@X@X+X#X+X+X#X@X+X@X+X+X@X+X+X#XQ                                                     YXYXYXYXYXYXYXYXYXYXYXYXYXYXYXYXYXYXYXYXYXYXYXYXYXYXYXYXYXYXYXYXYXYXYXYXYXYXYXYXYXYXYXYXYXYXYXYXYXYXYXYXYXYXYXYXYXYXYXYXYXYX",
"YXYXYXYXYXYXYXYXYXYXYXYXYXYX            @X@X@X@X@X@X@X+X#X+X@X+X@X@X@X@X+X@X@X@X@X@X@X@X@X@X@X+X+X@X+X@X@X@X@X@X@X@X@X@X@X@X@X@X+X@X+X+X+X#X+X+X+X+X@X+X@X+X@X+X+X@X@X+X@X+X@X@XW G -             : H W +X@X+X@X@X@X+X+X#X+X+X+X#X+X+X@X+X+X+X+X+X+X@X+X+X@X+X+X+X#X+X+X@X@X+X@X@X+X+X+X+X@X+X+X+X+X+X+X+X@X+X+X+X+X+X+X+X+X+X+X+X+X+X+X+X+X+XQ                                                     YXYXYXYXYXYXYXYXYXYXYXYXYXYXYXYXYXYXYXYXYXYXYXYXYXYXYXYXYXYXYXYXYXYXYXYXYXYXYXYXYXYXYXYXYXYXYXYXYXYXYXYXYXYXYXYXYXYXYXYXYXYX",
"YXYXYXYXYXYXYXYXYXYXYXYXYXYX            @X+X@X+X@X@X@X+X@X+X@X#X+X@X@X+X@X@X@X+X+X@X+X@X+X@X@X+X@X+X+X@X@X+X@X+X+X@X@X+X+X@X+X@X+X+X@X@X+X+X+X+X+X+X+X+X+X+X+X+X@X+X@X+X+X@X+XXX+                     + L +X+X+X+X+X+X+X+X+X+X+X+X+X+X+X+X+X+X+X+X+X+X+X+X+X+X+X+X+X+X+X@X+X+X+X+X+X+X+X+X+X+X+X+X+X+X+X+X+X+X+X+X+X+X+X+X+XOX+X+X+X+X+X+X+X+XQ                                                     YXYXYXYXYXYXYXYXYXYXYXYXYXYXYXYXYXYXYXYXYXYXYXYXYXYXYXYXYXYXYXYXYXYXYXYXYXYXYXYXYXYXYXYXYXYXYXYXYXYXYXYXYXYXYXYXYXYXYXYXYXYX",
"YXYXYXYXYXYXYXYXYXYXYXYXYXYX            +X+X@X+X+X+X+X@X@X+X+X+X@X+X+X+X@X+X+X+X+X@X+X+X@X+X+X+X+X+X@X+X+X+X+X+X+X+X+X+X+X+X+X+X+X+X+X+X+X+X+X+X+X+X+X+X+X+X+X+X+X+X+X+X+X+XD +                           G +X+X+X+X+X+X+X+X+X+X+X+X+X+X+X+X+X+X+X+X+X+X+X+X+X+X+X+X+X+X+X+X+X+X+X+X+X+X+X+X+X+X+X+X+X+X+X+XOX+X+XOX+X+X+X+X+X+XOX+X+XOXOX+XOXE                                                     YXYXYXYXYXYXYXYXYXYXYXYXYXYXYXYXYXYXYXYXYXYXYXYXYXYXYXYXYXYXYXYXYXYXYXYXYXYXYXYXYXYXYXYXYXYXYXYXYXYXYXYXYXYXYXYXYXYXYXYXYXYX",
"YXYXYXYXYXYXYXYXYXYXYXYXYXYX            +X+X+X+X+X+X+X+X+X+X+X+X+X+X+X+X+X+X+X+X+X+X+X+X+X+X+X+X+X+X+X+X+X+X+X+X+X+X+X+X+X+X+X+X+X+X+X+X+X+X+X+X+X+X+X+X+X+X+X+X+X+X+X+X+XG                                 H +X+XOX+X+X+XOX+X+X+X+X+X+X+XOXOX+X+X+X+X+XOX+X+X+XOX+X+XOX+X+XOX+X+XOX+XOXOX+XOXOXOXOX+X+XOX+XOX+XOX+X+X+X+XOXOX+XOX+XOX+X+XOX+XE                                                     YXYXYXYXYXYXYXYXYXYXYXYXYXYXYXYXYXYXYXYXYXYXYXYXYXYXYXYXYXYXYXYXYXYXYXYXYXYXYXYXYXYXYXYXYXYXYXYXYXYXYXYXYXYXYXYXYXYXYXYXYXYX",
"YXYXYXYXYXYXYXYXYXYXYXYXYXYX            +X+X+X+X+X+X+X+XOX+X+X+X+X+X+X+X+X+X+X+X+XOX+XOX+X+X+X+X+X+X+XOX+X+X+XOX+X+XOX+X+XOX+X+XOX+X+X+X+X+XOX+X+X+X+X+X+X+X+XOX+XOXOX+XL                                     L OX+X+X+X+XOXOXOXOXOXOX+XOX+XOXOXOX+XOX+X+XOXOX+XOXOXOX+XOXOXOXOXOXOXOXOX+XOXOXOXOX+XOXOXOXOXOXOXOXOXOXOXOXOXOXOX+XOXOXOXOXOXOXP                                                     YXYXYXYXYXYXYXYXYXYXYXYXYXYXYXYXYXYXYXYXYXYXYXYXYXYXYXYXYXYXYXYXYXYXYXYXYXYXYXYXYXYXYXYXYXYXYXYXYXYXYXYXYXYXYXYXYXYXYXYXYXYX",
"YXYXYXYXYXYXYXYXYXYXYXYXYXYX            +XOX+X+X+XOX+X+XOX+XOX+XOXOX+X+XOXOX+X+X+X+XOX+X+XOX+XOX+X+XOXOX+X+XOXOXOXOXOXOXOX+XOXOX+XOXOXOX+XOXOX+XOXOX+XOXoXoXoXoXOX+XOXQ =                                     3 OXOXOXOXOXOXOXOXOXOX+XoX+XOXOXOXoXoXoXoXoXoXOXOXOXOXOXOXOXOXOXOXOXOXOXOXOXOXOXOXOXOXOXOXOXOXOXOXOXOXOXOXOXOXOXOXOXOXOXOXOXOXOXD                                                     YXYXYXYXYXYXYXYXYXYXYXYXYXYXYXYXYXYXYXYXYXYXYXYXYXYXYXYXYXYXYXYXYXYXYXYXYXYXYXYXYXYXYXYXYXYXYXYXYXYXYXYXYXYXYXYXYXYXYXYXYXYX",
"YXYXYXYXYXYXYXYXYXYXYXYXYXYX            Q OXOXOXOXOXOXOXOXOX+XOX+XOXOXOXOXOXOXOXOXOXOXOXOXOXOXOXOXOXOXOXOXOXOXOXOXOXOXOXOX+XOXOXOXOXOX+XOXOXOXOXOXOXOXOXoXoXoXoXOXOXOXP                                         L OXOXOXOXOXOXoXOXOX+XoXoX+XOXOXoXoXoXoXoXoXOXOXOXOXOXOXOXOXOXOXOXOXOXoXOXOXOXOXOXoXOXOXOXOXoXOXOXOXOXOXOXoXoXOXOXOXoXOXoXOXOXC                                                     YXYXYXYXYXYXYXYXYXYXYXYXYXYXYXYXYXYXYXYXYXYXYXYXYXYXYXYXYXYXYXYXYXYXYXYXYXYXYXYXYXYXYXYXYXYXYXYXYXYXYXYXYXYXYXYXYXYXYXYXYXYX",
"YXYXYXYXYXYXYXYXYXYXYXYXYXYX            Y OXOXOXOXOXOXOXOXOXOXOXOXOXOXOXOXOXOXOXOXOXOXOXOXOXOXOXOXOXOXOXOXOXOXOXOXOXOXOXOXOXOXOXOXOXOXOXOXOXOXOXOXOXOXOXOXoXoXoXOXOXXXC                                         A OXOXOXOXOXOXOXoXOXoX+XOXOXoXOXoXoXoXoXoXOXOXOXOXoXOXOXoXOXoXOXoXOXoXOXoXOXOXoXoXOXoXOXoXoXoXOXoXoXOXOXoXOXOXoXOXoXoXOXOXOXXX*                                                     YXYXYXYXYXYXYXYXYXYXYXYXYXYXYXYXYXYXYXYXYXYXYXYXYXYXYXYXYXYXYXYXYXYXYXYXYXYXYXYXYXYXYXYXYXYXYXYXYXYXYXYXYXYXYXYXYXYXYXYXYXYX",
"YXYXYXYXYXYXYXYXYXYXYXYXYXYX            C OXOXOXOXoXOXOXOXOXOXOXOXOXOXOXOXOXoXOXOXOXOXOXOXoXOXOXOXOXOXoXOXOXoXOXOXOXOXoXOXoXOXOXOXoXOXOXOXOXoXOXOXOXOXOXOXoXoXoXOXOXXXX                                         3 oXoXoXOXOXXXOXoXOXOXoXoXoXOXoXoXoXoXoXoXoXoXoXoXOXoXoXOXoXOXOXoXoXOXoXOXoXoXoXoXoXOXoXoXOXoXoXoXOXoXoXoXoXOXoXoXOXoXoXoXoXR                                                       YXYXYXYXYXYXYXYXYXYXYXYXYXYXYXYXYXYXYXYXYXYXYXYXYXYXYXYXYXYXYXYXYXYXYXYXYXYXYXYXYXYXYXYXYXYXYXYXYXYXYXYXYXYXYXYXYXYXYXYXYXYX",
"YXYXYXYXYXYXYXYXYXYXYXYXYXYX              OXOXOXOXOXoXOXOXOXoXoXOXoXOXoXOXOXOXOXoXoXOXoXOXoXOXoXoXOXOXoXoXOXoXOXoXOXOXOXoXoXOXoXOXoXOXOXOXoXoXOXoXOXoXOXoXoXoXoXXXOXR                                             XXoXoXoXOXoXoXoXOXoXoXoXOXoXOXoXoXoXoXoXoXoXoXOXoXoXoXoXoXoXoXoXOXoXoXoXoXoXoXoXoXOXoXoXoXoXoXoXoXoXoXoXoXOXoXoXoXoXoXoXoXK                                                       YXYXYXYXYXYXYXYXYXYXYXYXYXYXYXYXYXYXYXYXYXYXYXYXYXYXYXYXYXYXYXYXYXYXYXYXYXYXYXYXYXYXYXYXYXYXYXYXYXYXYXYXYXYXYXYXYXYXYXYXYXYX",
"YXYXYXYXYXYXYXYXYXYXYXYXYXYX              Y oXOXoXOXoXOXoXoXOXoXOXoXoXOXoXoXoXOXoXOXoXOXoXOXoXOXoXoXOXoXOXoXOXoXOXoXoXoXoXOXoXOXoXOXoXoXoXOXoXoXoXoXoXoXoXoXoXoXoXXXY                                           X XXoXoXoXoXoXoXoXoXoXoXoXoXoXoXoXoXoXoXoXoXoXoXoXoXoXoXoXoXoXoXoXoXoXoXoXoXoXoXoXoXoXoXoXoXoXoXoXoXoXoXoXoXoXoXoXoXoXoXoXXX3                                                       YXYXYXYXYXYXYXYXYXYXYXYXYXYXYXYXYXYXYXYXYXYXYXYXYXYXYXYXYXYXYXYXYXYXYXYXYXYXYXYXYXYXYXYXYXYXYXYXYXYXYXYXYXYXYXYXYXYXYXYXYXYX",
"YXYXYXYXYXYXYXYXYXYXYXYXYXYX              C XXoXOXoXoXoXoXoXXXoXoXoXoXoXoXoXoXoXoXoXoXoXoXoXoXoXoXoXoXoXoXoXoXoXoXoXoXoXoXoXoXoXoXoXoXoXoXoXoXoXoXoXoXoXoXoXoXoXoXoXR                                           = oXoXoXoXoXoXoXoXoXoXoXoXoXoXoXoXoXoXoXoXoXoXoXoXoXoXoXoXoXoXoXoXoXoXoXoXoXoXoXoXoXoXoXoXoXoXoXoXoXoXoXoXoXoXoXoXoXoXoXoXY                                                         YXYXYXYXYXYXYXYXYXYXYXYXYXYXYXYXYXYXYXYXYXYXYXYXYXYXYXYXYXYXYXYXYXYXYXYXYXYXYXYXYXYXYXYXYXYXYXYXYXYXYXYXYXYXYXYXYXYXYXYXYXYX",
"YXYXYXYXYXYXYXYXYXYXYXYXYXYX                R oXoXoXoXoXoXoXoXoXoXoXoXoXoXoXoXoXoXoXoXoXoXoXoXoXoXoXoXoXoXoXoXoXoXoXoXoXoXoXoXoXoXoXoXoXoXoXoXoXoXoXoXoXoXoXoXoXoXoXXX                                          K oXoXoXoXoXoXoXoXoXoXoXoXoXoXoXoXoXoXoXoXoXoXoXoXoXoXoXoXoXoXoXoXoXoXoXoXoXoXoXoXoXoXoXoXoXoXoXoXoXoXoXoXoXoXoXoXoXoXoXXXS                                                         YXYXYXYXYXYXYXYXYXYXYXYXYXYXYXYXYXYXYXYXYXYXYXYXYXYXYXYXYXYXYXYXYXYXYXYXYXYXYXYXYXYXYXYXYXYXYXYXYXYXYXYXYXYXYXYXYXYXYXYXYXYX",
"YXYXYXYXYXYXYXYXYXYXYXYXYXYX                A XXoXoXoXoXoXoXoXoXoXoXXXoXoXoXoXoXoXoXXXoXoXoXoXoXoXoXoXoXoXoXoXoXoXoXoXoXoXoXoXoXoXoXoXoXXXoXoXoXoXoXoXoXoXoXoXoXoXoXXXZ                                         K XXoXoXoXoXoXoXoXoXoXoXoXoXoXoXoXoXoXoXoXoXoXoXoXoXoXoXoXoXoXoXoXoXoXoXoXoXoXoXoXoXoXoXoXoXoXoXoXoXoXoXoXoXoXoXoXoXoXoXT +                                                         YXYXYXYXYXYXYXYXYXYXYXYXYXYXYXYXYXYXYXYXYXYXYXYXYXYXYXYXYXYXYXYXYXYXYXYXYXYXYXYXYXYXYXYXYXYXYXYXYXYXYXYXYXYXYXYXYXYXYXYXYXYX",
"YXYXYXYXYXYXYXYXYXYXYXYXYXYX                  XXoXoXoXoXoXoXoXoXoXoXoXoXoXoXoXoXoXoXoXoXoXoXoXoXoXoXoXoXoXoXoXoXoXoXoXoXoXoXoXoXoXoXoXoXoXoXoXoXoXoXoXoXoXoXoXoXoXoXXXK                                         T oXoXoXoXoXoXoXoXoXoXoXoXoXoXoXoXoXoXoXoXoXoXoXoXoXoXoXoXoXXXoXoXoXoXoXoXoXoXoXoXoXoXoXoXoXoXoXoXoXoXoXoXoXoXoXoXoXoXoXS                                                           YXYXYXYXYXYXYXYXYXYXYXYXYXYXYXYXYXYXYXYXYXYXYXYXYXYXYXYXYXYXYXYXYXYXYXYXYXYXYXYXYXYXYXYXYXYXYXYXYXYXYXYXYXYXYXYXYXYXYXYXYXYX",
"YXYXYXYXYXYXYXYXYXYXYXYXYXYX                  C XXoXoXoXoXoXoXoXoXoXoXoXoXoXoXoXoXoXoXoXoXoXoXoXoXoXoXoXoXoXoXoXoXoXoXoXoXoXoXoXoXoXoXoXoXoXoXoXoXoXoXoXoXoXoXoXoXoXoXR =                                     A oXoXoXoXoXoXoXoXoXoXoXoXoXoXoXoXoXoXoXoXoXoXoXoXoXoXoXoXoXoXXXoXXXoXoXoXoXoXoXoXoXoXoXoXoXoXoXoXoXoXoXoXoXoXoXoXoXoXoXY +                                                           YXYXYXYXYXYXYXYXYXYXYXYXYXYXYXYXYXYXYXYXYXYXYXYXYXYXYXYXYXYXYXYXYXYXYXYXYXYXYXYXYXYXYXYXYXYXYXYXYXYXYXYXYXYXYXYXYXYXYXYXYXYX",
"YXYXYXYXYXYXYXYXYXYXYXYXYXYX                    U oXoXoXoXoXoXoXoXoXXXoXoXoXoXoXoXoXXXoXoXoXoXoXoXoXoXoXoXoXoXoXoXoXoXoXoXoXoXoXoXoXoXoXXXoXoXoXoXoXoXoXoXXXoXXXoXoXoXXXK                                     XXoXoXoXoXoXoXoXoXoXoXoXoXoXoXoXoXoXoXoXoXoXoXoXoXoXoXoXoXoXoXoXoXoXoXoXoXoXoXoXoXoXoXoXoXoXoXoXoXoXoXoXoXoXoXoXoXoXoXXXZ                                                             YXYXYXYXYXYXYXYXYXYXYXYXYXYXYXYXYXYXYXYXYXYXYXYXYXYXYXYXYXYXYXYXYXYXYXYXYXYXYXYXYXYXYXYXYXYXYXYXYXYXYXYXYXYXYXYXYXYXYXYXYXYX",
"YXYXYXYXYXYXYXYXYXYXYXYXYXYX                    + T oXoXoXoXoXoXoXoXoXoXoXoXoXoXoXoXoXoXoXoXoXoXoXoXoXoXoXoXoXoXoXoXoXoXoXoXoXoXoXoXoXoXoXoXoXoXXXoXoXoXoXoXoXoXoXoXoXoXXXZ                                 Y oXoXXXoXoXoXoXoXoXoXoXoXoXoXoXoXoXoXoXoXoXoXoXoXoXoXoXoXXXoXoXoXoXoXoXoXoXXXoXoXoXoXoXoXoXoXoXoXoXoXoXoXoXoXoXoXoXoXoXK                                                               YXYXYXYXYXYXYXYXYXYXYXYXYXYXYXYXYXYXYXYXYXYXYXYXYXYXYXYXYXYXYXYXYXYXYXYXYXYXYXYXYXYXYXYXYXYXYXYXYXYXYXYXYXYXYXYXYXYXYXYXYXYX",
"YXYXYXYXYXYXYXYXYXYXYXYXYXYXYX                    , XXoXoXoXoXoXoXoXoXoXoXoXoXoXoXoXoXoXoXoXoXoXoXoXoXoXoXoXoXoXoXoXoXoXoXoXoXoXoXoXoXoXoXoXoXoXoXoXoXoXoXoXoXoXoXoXoXoXoXXXZ                             U oXoXoXoXoXXXoXoXoXoXoXoXoXoXoXoXoXoXoXoXoXoXoXoXoXoXoXoXoXoXoXoXoXoXXXoXoXoXXXXXoXoXoXoXoXoXoXoXoXoXoXoXoXoXoXoXoXXXXXU X                                                             YXYXYXYXYXYXYXYXYXYXYXYXYXYXYXYXYXYXYXYXYXYXYXYXYXYXYXYXYXYXYXYXYXYXYXYXYXYXYXYXYXYXYXYXYXYXYXYXYXYXYXYXYXYXYXYXYXYXYXYXYXYXYX",
"YXYXYXYXYXYXYXYXYXYXYXYXYXYXYX                      A R oXoXoXoXoXoXoXoXXXoXoXXXoXoXoXoXoXoXoXoXoXoXoXoXoXoXoXoXoXoXoXoXoXoXoXoXoXoXoXoXoXoXoXoXXXoXoXoXoXoXoXoXoXoXoXoXoXXXXXS X                     = T oXoXoXoXoXoXoXoXoXoXoXoXoXoXoXoXoXoXoXoXoXoXoXoXoXoXoXoXoXoXoXoXoXoXoXoXoXoXoXoXoXoXoXoXoXoXoXoXoXoXoXoXoXoXoXoXXXoXoXY *                                                               YXYXYXYXYXYXYXYXYXYXYXYXYXYXYXYXYXYXYXYXYXYXYXYXYXYXYXYXYXYXYXYXYXYXYXYXYXYXYXYXYXYXYXYXYXYXYXYXYXYXYXYXYXYXYXYXYXYXYXYXYXYXYX",
"YXYXYXYXYXYXYXYXYXYXYXYXYXYXYX                        A XXoXoXoXoXoXoXoXoXoXoXoXoXoXoXoXoXoXoXoXoXoXoXoXoXoXoXoXoXoXoXXXoXoXXXoXoXXXoXoXXXoXoXoXoXoXoXoXoXoXoXoXoXoXoXoXoXoXoXoXT Z +         X   * K oXoXoXoXoXoXoXoXoXoXoXoXoXoXoXoXoXoXoXoXoXoXoXoXoXoXoXoXoXoXoXoXXXoXoXoXoXoXoXoXoXoXoXoXoXoXoXoXoXoXoXoXoXoXoXoXXXoXXXXXXX>                                                                 YXYXYXYXYXYXYXYXYXYXYXYXYXYXYXYXYXYXYXYXYXYXYXYXYXYXYXYXYXYXYXYXYXYXYXYXYXYXYXYXYXYXYXYXYXYXYXYXYXYXYXYXYXYXYXYXYXYXYXYXYXYXYX",
"YXYXYXYXYXYXYXYXYXYXYXYXYXYXYX                          A XXoXoXoXXXXXXXXXoXoXoXoXoXoXoXoXoXXXXXoXoXXXoXoXoXoXoXoXoXoXoXXXoXoXoXoXoXoXoXoXoXoXoXoXoXXXXXoXoXoXoXoXoXoXoXoXoXXXoXoXXXXXXXD S K XXXXXXoXoXoXoXoXoXoXXXoXoXoXoXoXoXoXoXoXoXoXoXoXoXoXoXoXoXoXoXoXoXoXoXoXoXoXoXoXoXoXoXoXoXoXoXoXoXoXoXoXoXoXoXoXoXoXoXoXoXoXXXXX>                                                                 YXYXYXYXYXYXYXYXYXYXYXYXYXYXYXYXYXYXYXYXYXYXYXYXYXYXYXYXYXYXYXYXYXYXYXYXYXYXYXYXYXYXYXYXYXYXYXYXYXYXYXYXYXYXYXYXYXYXYXYXYXYXYXYX",
"YXYXYXYXYXYXYXYXYXYXYXYXYXYXYXYX                          Z XXoXoXoXXXXXoXoXoXoXoXoXoXoXoXoXXXoXoXoXoXoXoXoXoXoXoXoXoXoXoXoXoXoXoXoXoXoXoXoXoXoXoXoXoXXXoXoXoXoXoXoXoXoXoXoXoXoXoXoXXXoXXXXXoXoXXXXXoXoXoXoXoXoXoXoXoXoXoXoXoXoXoXoXoXoXoXoXoXoXoXoXoXoXoXoXoXoXoXoXoXoXoXoXoXoXoXoXoXoXoXoXoXoXoXoXoXoXoXoXoXoXoXoXXXoXoXXX*                                                                   YXYXYXYXYXYXYXYXYXYXYXYXYXYXYXYXYXYXYXYXYXYXYXYXYXYXYXYXYXYXYXYXYXYXYXYXYXYXYXYXYXYXYXYXYXYXYXYXYXYXYXYXYXYXYXYXYXYXYXYXYXYXYXYX",
"YXYXYXYXYXYXYXYXYXYXYXYXYXYXYXYX                            > Y oXXXXXXXoXoXoXoXoXoXoXXXoXoXoXoXoXoXoXoXoXoXoXoXoXoXoXXXoXoXoXoXoXoXoXoXoXoXoXoXoXoXoXoXoXoXoXoXoXoXoXoXoXoXoXoXoXoXoXXXXXoXoXoXXXXXoXoXoXoXoXoXoXoXoXoXoXoXoXoXoXoXoXoXoXoXoXoXoXoXoXoXoXoXoXoXoXoXoXoXoXXXXXoXoXoXoXoXoXoXoXoXoXoXoXoXoXoXoXoXoXoXoXXXK =                                                                     YXYXYXYXYXYXYXYXYXYXYXYXYXYXYXYXYXYXYXYXYXYXYXYXYXYXYXYXYXYXYXYXYXYXYXYXYXYXYXYXYXYXYXYXYXYXYXYXYXYXYXYXYXYXYXYXYXYXYXYXYXYXYXYX",
"YXYXYXYXYXYXYXYXYXYXYXYXYXYXYXYXYX                            X XXXXXXXXoXoXoXoXoXoXoXoXoXoXoXoXoXoXoXoXoXoXoXoXoXoXoXoXoXoXoXoXoXoXoXoXoXoXoXoXoXoXoXoXoXoXoXoXoXoXoXoXoXoXoXoXoXoXoXoXoXoXoXoXXXoXoXoXoXoXoXoXoXXXoXoXoXoXoXoXoXoXoXoXoXXXoXoXXXoXoXoXoXoXXXoXoXoXoXoXoXoXoXoXoXoXoXoXoXoXoXoXoXoXoXoXoXoXoXoXoXoXXXZ X                                                                     YXYXYXYXYXYXYXYXYXYXYXYXYXYXYXYXYXYXYXYXYXYXYXYXYXYXYXYXYXYXYXYXYXYXYXYXYXYXYXYXYXYXYXYXYXYXYXYXYXYXYXYXYXYXYXYXYXYXYXYXYXYXYXYXYX",
"YXYXYXYXYXYXYXYXYXYXYXYXYXYXYXYXYX                                * U oXoXXXXXXXoXoXoXoXoXoXoXXXoXoXoXoXoXoXoXoXoXoXoXXXoXoXoXoXoXoXoXoXoXoXoXoXoXoXoXoXoXoXoXoXoXoXoXoXoXoXoXoXoXoXoXoXoXoXoXoXoXoXoXoXoXoXoXoXXXoXoXXXoXoXoXoXoXoXoXoXoXoXoXoXoXoXXXoXoXoXXXoXoXoXoXoXoXoXoXoXoXoXoXoXoXoXoXoXoXoXoXXXoXoXoXXXXXK +                                                                         YXYXYXYXYXYXYXYXYXYXYXYXYXYXYXYXYXYXYXYXYXYXYXYXYXYXYXYXYXYXYXYXYXYXYXYXYXYXYXYXYXYXYXYXYXYXYXYXYXYXYXYXYXYXYXYXYXYXYXYXYXYXYXYXYX",
"YXYXYXYXYXYXYXYXYXYXYXYXYXYXYXYXYX                                  X 3 XXXXXXXXoXXXoXoXoXoXoXoXoXoXoXXXoXoXoXoXoXoXoXoXoXoXoXoXoXoXoXXXoXoXoXoXoXoXoXoXoXoXoXoXoXoXoXoXXXoXoXXXoXoXoXoXoXXXoXoXoXoXoXoXoXoXoXoXXXoXoXoXoXoXoXoXoXoXoXoXoXoXoXoXoXoXoXoXoXoXoXoXoXoXoXoXoXoXoXoXoXoXoXoXXXoXoXoXoXoXoXoXoXXXXXK *                                                                           YXYXYXYXYXYXYXYXYXYXYXYXYXYXYXYXYXYXYXYXYXYXYXYXYXYXYXYXYXYXYXYXYXYXYXYXYXYXYXYXYXYXYXYXYXYXYXYXYXYXYXYXYXYXYXYXYXYXYXYXYXYXYXYXYXYX",
"YXYXYXYXYXYXYXYXYXYXYXYXYXYXYXYXYXYX                                      * D XXXXXXXXXXoXoXXXoXoXoXoXoXoXoXoXoXoXoXoXoXoXoXoXoXoXoXoXoXoXoXoXoXoXoXoXoXoXoXoXoXoXoXoXoXoXoXoXoXoXoXoXoXoXoXoXoXoXoXoXoXoXoXoXoXXXoXoXoXoXoXoXoXoXoXoXoXoXoXoXoXoXoXoXoXoXoXoXoXoXoXoXoXoXoXoXoXoXoXXXXXoXoXXXXXoXXXXXXXU A =                                                                               YXYXYXYXYXYXYXYXYXYXYXYXYXYXYXYXYXYXYXYXYXYXYXYXYXYXYXYXYXYXYXYXYXYXYXYXYXYXYXYXYXYXYXYXYXYXYXYXYXYXYXYXYXYXYXYXYXYXYXYXYXYXYXYXYXYX",
"YXYXYXYXYXYXYXYXYXYXYXYXYXYXYXYXYXYXYX                                      X = > Z K XXXXXXXXXXXXXXXXXXXXXXXXXXXXXXXXXXXXXXXXXXXXXXXXXXXXXXXXXXXXXXXXXXXXXXXXXXXXXXXXXXXXXXXXXXXXXXXXXXXXXXXXoXoXoXoXXXoXoXoXXXoXXXoXoXXXoXoXXXXXXXoXoXXXXXXXXXXXXXXXXXoXXXXXXXXXXXXXXXXXXXXXXXXXXXXXXXXXXXXXY U D Z = X                                                                                 YXYXYXYXYXYXYXYXYXYXYXYXYXYXYXYXYXYXYXYXYXYXYXYXYXYXYXYXYXYXYXYXYXYXYXYXYXYXYXYXYXYXYXYXYXYXYXYXYXYXYXYXYXYXYXYXYXYXYXYXYXYXYXYXYXYXYX"
};
